(/Applications/pcbgcode.repo/pcb-gcode.ulp)
(Copyright 2005 - 2012 by John Johnson)
(See readme.txt for licensing terms.)
(This file generated from the board:)
(.../atmega_midi_cv_basic/eagle/atmel_midi_cv_basic.brd)
(Current profile is .../pcbgcode.repo/profiles/mach.pp  )
(This file generated 1/13/16 10:11 PM)
(Settings from pcb-machine.h)
(spindle on time = 0.0000)
(spindle speed = 15000.0000)
(milling depth = -0.0630)
(tool change at 0.0000  0.0000  3.0000  )
(feed rate xy = F10    )
(feed rate z  = F5     )
(Z Axis Settings)
(  High     Up        Down     Drill)
(1.0000  	0.0500  	-0.0040 	-0.0730 )
(Settings from pcb-defaults.h)
(isolate min = 0.0010)
(isolate max = 0.0150)
(isolate step = 0.0015)
(Generated bottom outlines, bottom drill, )
(Unit of measure: inch)
(Inch Mode)
G20
(Absolute Coordinates)
G90
S15000
G00 Z1.0000  
G00 X0.0000  Y0.0000  
M03
G04 P0.000000
G00 Z0.0500  
G00 X-0.0200 Y-0.0300 
G01 Z-0.0630 F5     
G01 X-2.9100 Y-0.0300 F10    
G01 X-2.9700 Y0.0300  
G01 X-2.9700 Y2.7500  
G01 X-2.9200 Y2.8000  
G01 X-0.0100 Y2.8000  
G01 X0.0400  Y2.7500  
G01 X0.0400  Y0.0300  
G01 X-0.0200 Y-0.0300 
G00 Z0.0500  
G00 X-0.1500 Y0.2800  
G01 Z-0.0630 F5     
G01 X-0.1300 Y0.3000  F10    
G01 X-0.1400 Y0.3100  
G01 X-0.1400 Y0.3300  
G01 X-0.1500 Y0.3400  
G01 X-0.1800 Y0.3400  
G00 Z0.0500  
G00 X-0.1800 Y0.3300  
G01 Z-0.0630 F5     
G01 X-0.2000 Y0.3100  F10    
G01 X-0.1800 Y0.2900  
G01 X-0.1800 Y0.2800  
G01 X-0.1500 Y0.2800  
G00 Z0.0500  
G00 X-0.1200 Y2.6400  
G01 Z-0.0630 F5     
G01 X-0.0900 Y2.6400  F10    
G01 X-0.0700 Y2.6600  
G01 X-0.0800 Y2.6700  
G01 X-0.0800 Y2.6900  
G01 X-0.0900 Y2.7000  
G01 X-0.1200 Y2.7000  
G00 Z0.0500  
G00 X-0.1200 Y2.6900  
G01 Z-0.0630 F5     
G01 X-0.1400 Y2.6700  F10    
G01 X-0.1200 Y2.6500  
G01 X-0.1200 Y2.6400  
G00 Z0.0500  
G00 X-2.7900 Y2.6600  
G01 Z-0.0630 F5     
G01 X-2.8000 Y2.6700  F10    
G01 X-2.8000 Y2.6900  
G01 X-2.8100 Y2.7000  
G01 X-2.8400 Y2.7000  
G00 Z0.0500  
G00 X-2.8400 Y2.6900  
G01 Z-0.0630 F5     
G01 X-2.8600 Y2.6700  F10    
G01 X-2.8400 Y2.6500  
G01 X-2.8400 Y2.6400  
G01 X-2.8100 Y2.6400  
G01 X-2.7900 Y2.6600  
G00 Z0.0500  
G00 X-2.7300 Y0.3400  
G01 Z-0.0630 F5     
G01 X-2.7000 Y0.3400  F10    
G01 X-2.6900 Y0.3300  
G01 X-2.6900 Y0.3100  
G01 X-2.6800 Y0.3000  
G01 X-2.7000 Y0.2800  
G01 X-2.7300 Y0.2800  
G01 X-2.7300 Y0.2900  
G01 X-2.7500 Y0.3100  
G01 X-2.7300 Y0.3300  
G00 Z1.0000  
M05
M02
