(/Applications/pcbgcode.repo/pcb-gcode.ulp)
(Copyright 2005 - 2012 by John Johnson)
(See readme.txt for licensing terms.)
(This file generated from the board:)
(.../atmega_midi_cv_basic/eagle/atmel_midi_cv_basic.brd)
(Current profile is .../pcbgcode.repo/profiles/mach.pp  )
(This file generated 1/6/16 7:54 AM)
(Settings from pcb-machine.h)
(spindle on time = 0.0000)
(spindle speed = 15000.0000)
(milling depth = -0.0630)
(tool change at 0.0000  0.0000  3.0000  )
(feed rate xy = F10    )
(feed rate z  = F5     )
(Z Axis Settings)
(  High     Up        Down     Drill)
(1.0000  	0.0500  	-0.0040 	-0.0730 )
(Settings from pcb-defaults.h)
(isolate min = 0.0010)
(isolate max = 0.0150)
(isolate step = 0.0015)
(Generated bottom outlines, bottom drill, )
(Unit of measure: inch)
(Inch Mode)
G20
(Absolute Coordinates)
G90
S15000
G00 Z1.0000  
G00 X0.0000  Y0.0000  
M03
G04 P0.000000
G00 Z0.0500  
G00 X-0.4100 Y-0.0200 
G01 Z-0.0630 F5     
G01 X-0.4200 Y-0.0300 F10    
G01 X-3.3000 Y-0.0300 
G01 X-3.4500 Y0.9000  
G01 X-3.4500 Y2.9400  
G01 X-2.9500 Y3.2000  
G01 X-1.6000 Y3.2000  
G01 X-0.3000 Y2.7000  
G01 X-0.0900 Y2.6900  
G01 X0.0400  Y2.4900  
G01 X0.0400  Y1.7200  
G01 X-0.4100 Y1.4400  
G01 X-0.4100 Y-0.0200 
G00 Z1.0000  
M05
M02
