(/Applications/pcbgcode.repo/pcb-gcode.ulp)
(Copyright 2005 - 2012 by John Johnson)
(See readme.txt for licensing terms.)
(This file generated from the board:)
(.../atmega_midi_cv_basic/eagle/atmel_midi_cv_basic.brd)
(Current profile is .../pcbgcode.repo/profiles/mach.pp  )
(This file generated 1/11/16 9:51 PM)
(Settings from pcb-machine.h)
(spindle on time = 0.0000)
(spindle speed = 15000.0000)
(milling depth = -0.0630)
(tool change at 0.0000  0.0000  3.0000  )
(feed rate xy = F10    )
(feed rate z  = F5     )
(Z Axis Settings)
(  High     Up        Down     Drill)
(1.0000  	0.0500  	-0.0040 	-0.0730 )
(Settings from pcb-defaults.h)
(isolate min = 0.0010)
(isolate max = 0.0150)
(isolate step = 0.0015)
(Generated bottom outlines, bottom drill, )
(Unit of measure: inch)
(Inch Mode)
G20
(Absolute Coordinates)
G90
S15000
G00 Z1.0000  
G00 X0.0000  Y0.0000  
M03
G04 P0.000000
G00 Z0.0500  
G00 X-0.4400 Y0.0300  
G01 Z-0.0630 F5     
G01 X-0.5000 Y-0.0300 F10    
G01 X-3.3900 Y-0.0300 
G01 X-3.4500 Y0.0300  
G01 X-3.4500 Y2.7500  
G01 X-3.4000 Y2.8000  
G01 X-0.4900 Y2.8000  
G01 X-0.4400 Y2.7500  
G01 X-0.4400 Y0.0300  
G00 Z0.0500  
G00 X-0.6300 Y0.2800  
G01 Z-0.0630 F5     
G01 X-0.6100 Y0.3000  F10    
G01 X-0.6200 Y0.3100  
G01 X-0.6200 Y0.3300  
G01 X-0.6300 Y0.3400  
G01 X-0.6600 Y0.3400  
G00 Z0.0500  
G00 X-0.6600 Y0.3300  
G01 Z-0.0630 F5     
G01 X-0.6800 Y0.3100  F10    
G01 X-0.6600 Y0.2900  
G01 X-0.6600 Y0.2800  
G01 X-0.6300 Y0.2800  
G00 Z0.0500  
G00 X-0.6000 Y2.6400  
G01 Z-0.0630 F5     
G01 X-0.5700 Y2.6400  F10    
G01 X-0.5500 Y2.6600  
G01 X-0.5600 Y2.6700  
G01 X-0.5600 Y2.6900  
G01 X-0.5700 Y2.7000  
G01 X-0.6000 Y2.7000  
G00 Z0.0500  
G00 X-0.6000 Y2.6900  
G01 Z-0.0630 F5     
G01 X-0.6200 Y2.6700  F10    
G01 X-0.6000 Y2.6500  
G01 X-0.6000 Y2.6400  
G00 Z0.0500  
G00 X-3.2700 Y2.6600  
G01 Z-0.0630 F5     
G01 X-3.2800 Y2.6700  F10    
G01 X-3.2800 Y2.6900  
G01 X-3.2900 Y2.7000  
G01 X-3.3200 Y2.7000  
G00 Z0.0500  
G00 X-3.3200 Y2.6900  
G01 Z-0.0630 F5     
G01 X-3.3400 Y2.6700  F10    
G01 X-3.3200 Y2.6500  
G01 X-3.3200 Y2.6400  
G01 X-3.2900 Y2.6400  
G01 X-3.2700 Y2.6600  
G00 Z0.0500  
G00 X-3.2100 Y0.3400  
G01 Z-0.0630 F5     
G01 X-3.1800 Y0.3400  F10    
G01 X-3.1700 Y0.3300  
G01 X-3.1700 Y0.3100  
G01 X-3.1600 Y0.3000  
G01 X-3.1800 Y0.2800  
G01 X-3.2100 Y0.2800  
G01 X-3.2100 Y0.2900  
G01 X-3.2300 Y0.3100  
G01 X-3.2100 Y0.3300  
G00 Z1.0000  
M05
M02
