(/Applications/pcbgcode.repo/pcb-gcode.ulp)
(Copyright 2005 - 2012 by John Johnson)
(See readme.txt for licensing terms.)
(This file generated from the board:)
(.../atmega_midi_cv_basic/eagle/atmel_midi_cv_basic.brd)
(Current profile is .../pcbgcode.repo/profiles/mach.pp  )
(This file generated 1/5/16 10:01 PM)
(Settings from pcb-machine.h)
(spindle on time = 0.0000)
(  Tool Size)
(0.0100  )
(spindle speed = 30000.0000)
(tool change at 0.0000  0.0000  3.0000  )
(feed rate xy = F20    )
(feed rate z  = F10    )
(Z Axis Settings)
(  High     Up        Down     Drill)
(1.0000  	0.0500  	-0.0040 	-0.0730 )
(Settings from pcb-defaults.h)
(isolate min = 0.0010)
(isolate max = 0.0150)
(isolate step = 0.0015)
(Generated bottom outlines, bottom drill, )
(Unit of measure: inch)
(Inch Mode)
G20
(Absolute Coordinates)
G90
S30000
G00 Z1.0000  
G00 X0.0000  Y0.0000  
M03
G04 P0.000000
G00 Z0.0500  
G00 X-0.5304 Y0.0619  
G01 Z-0.0040 F10    
G01 X-0.5367 Y0.0557  F20    
G01 X-0.5438 Y0.0505  
G01 X-0.5517 Y0.0465  
G01 X-0.5600 Y0.0438  
G01 X-0.5687 Y0.0424  
G01 X-0.6776 Y0.0424  
G01 X-0.6863 Y0.0438  
G01 X-0.6946 Y0.0465  
G01 X-0.7025 Y0.0505  
G01 X-0.7096 Y0.0557  
G01 X-0.7159 Y0.0619  
G01 X-0.7210 Y0.0691  
G01 X-0.7250 Y0.0769  
G01 X-0.7278 Y0.0853  
G01 X-0.7285 Y0.0902  
G01 X-0.7471 Y0.0896  
G01 X-0.7474 Y0.0895  
G01 X-0.7500 Y0.0895  
G01 X-0.7525 Y0.0895  
G01 X-0.7529 Y0.0895  
G01 X-1.3619 Y0.0895  
G01 X-1.3648 Y0.0895  
G01 X-1.3676 Y0.0895  
G01 X-1.3678 Y0.0896  
G01 X-1.3705 Y0.0903  
G01 X-1.3732 Y0.0910  
G01 X-1.4668 Y0.1171  
G01 X-1.4712 Y0.1126  
G01 X-1.4775 Y0.1081  
G01 X-1.4843 Y0.1046  
G01 X-1.4845 Y0.1046  
G01 X-1.4911 Y0.0142  
G01 X-1.4911 Y0.0121  
G01 X-1.4914 Y0.0113  
G01 X-1.4914 Y0.0105  
G01 X-1.4921 Y0.0085  
G01 X-1.4926 Y0.0065  
G01 X-1.4931 Y0.0058  
G01 X-1.4933 Y0.0050  
G01 X-1.4945 Y0.0033  
G01 X-1.4955 Y0.0015  
G01 X-1.4961 Y0.0009  
G01 X-1.4966 Y0.0002  
G01 X-1.4982 Y-0.0011 
G01 X-1.4996 Y-0.0026 
G01 X-1.5004 Y-0.0030 
G01 X-1.5010 Y-0.0036 
G01 X-1.5029 Y-0.0045 
G01 X-1.5047 Y-0.0055 
G01 X-1.5055 Y-0.0057 
G01 X-1.5062 Y-0.0061 
G01 X-1.5082 Y-0.0065 
G01 X-1.5103 Y-0.0070 
G01 X-1.5111 Y-0.0070 
G01 X-1.5119 Y-0.0072 
G01 X-1.5140 Y-0.0070 
G01 X-2.3282 Y-0.0070 
G01 X-2.3293 Y-0.0072 
G01 X-2.3311 Y-0.0070 
G01 X-2.3329 Y-0.0070 
G01 X-2.3340 Y-0.0067 
G01 X-2.3350 Y-0.0066 
G01 X-2.3367 Y-0.0060 
G01 X-2.3385 Y-0.0055 
G01 X-2.3394 Y-0.0050 
G01 X-2.3405 Y-0.0046 
G01 X-2.3419 Y-0.0035 
G01 X-2.3435 Y-0.0026 
G01 X-2.3443 Y-0.0018 
G01 X-2.3452 Y-0.0012 
G01 X-2.3463 Y0.0002  
G01 X-2.3476 Y0.0015  
G01 X-2.3482 Y0.0024  
G01 X-2.3809 Y0.0424  
G01 X-2.4576 Y0.0424  
G01 X-2.4663 Y0.0438  
G01 X-2.4746 Y0.0465  
G01 X-2.4825 Y0.0505  
G01 X-2.4896 Y0.0557  
G01 X-2.4959 Y0.0619  
G01 X-2.5010 Y0.0691  
G01 X-2.5048 Y0.0764  
G01 X-2.9515 Y0.0764  
G01 X-2.9553 Y0.0691  
G01 X-2.9604 Y0.0619  
G01 X-2.9667 Y0.0557  
G01 X-2.9738 Y0.0505  
G01 X-2.9817 Y0.0465  
G01 X-2.9900 Y0.0438  
G01 X-2.9987 Y0.0424  
G01 X-3.1076 Y0.0424  
G01 X-3.1163 Y0.0438  
G01 X-3.1246 Y0.0465  
G01 X-3.1325 Y0.0505  
G01 X-3.1396 Y0.0557  
G01 X-3.1459 Y0.0619  
G01 X-3.1510 Y0.0691  
G01 X-3.1550 Y0.0769  
G01 X-3.1578 Y0.0853  
G01 X-3.1591 Y0.0940  
G01 X-3.1591 Y0.1028  
G01 X-3.1578 Y0.1115  
G01 X-3.1550 Y0.1199  
G01 X-3.1510 Y0.1278  
G01 X-3.1459 Y0.1349  
G01 X-3.1396 Y0.1411  
G01 X-3.1325 Y0.1463  
G01 X-3.1246 Y0.1503  
G01 X-3.1163 Y0.1530  
G01 X-3.1076 Y0.1544  
G01 X-2.9987 Y0.1544  
G01 X-2.9900 Y0.1530  
G01 X-2.9817 Y0.1503  
G01 X-2.9738 Y0.1463  
G01 X-2.9667 Y0.1411  
G01 X-2.9604 Y0.1349  
G01 X-2.9553 Y0.1278  
G01 X-2.9515 Y0.1204  
G01 X-2.5048 Y0.1204  
G01 X-2.5010 Y0.1278  
G01 X-2.4959 Y0.1349  
G01 X-2.4896 Y0.1411  
G01 X-2.4825 Y0.1463  
G01 X-2.4746 Y0.1503  
G01 X-2.4663 Y0.1530  
G01 X-2.4576 Y0.1544  
G01 X-2.3487 Y0.1544  
G01 X-2.3400 Y0.1530  
G01 X-2.3317 Y0.1503  
G01 X-2.3238 Y0.1463  
G01 X-2.3167 Y0.1411  
G01 X-2.3104 Y0.1349  
G01 X-2.3053 Y0.1278  
G01 X-2.3013 Y0.1199  
G01 X-2.2985 Y0.1115  
G01 X-2.2971 Y0.1028  
G01 X-2.2971 Y0.0940  
G01 X-2.2985 Y0.0853  
G01 X-2.3013 Y0.0769  
G01 X-2.3053 Y0.0691  
G01 X-2.3104 Y0.0619  
G01 X-2.3167 Y0.0557  
G01 X-2.3238 Y0.0505  
G01 X-2.3287 Y0.0481  
G01 X-2.3196 Y0.0370  
G01 X-1.5336 Y0.0370  
G01 X-1.5283 Y0.1078  
G01 X-1.5288 Y0.1081  
G01 X-1.5351 Y0.1126  
G01 X-1.5405 Y0.1181  
G01 X-1.5451 Y0.1243  
G01 X-1.5486 Y0.1312  
G01 X-1.5509 Y0.1385  
G01 X-1.5521 Y0.1461  
G01 X-1.5521 Y0.1539  
G01 X-1.5509 Y0.1615  
G01 X-1.5486 Y0.1688  
G01 X-1.5451 Y0.1757  
G01 X-1.5405 Y0.1819  
G01 X-1.5351 Y0.1874  
G01 X-1.5288 Y0.1919  
G01 X-1.5262 Y0.1933  
G01 X-1.5269 Y0.2269  
G01 X-1.5270 Y0.2271  
G01 X-1.5270 Y0.2297  
G01 X-1.5271 Y0.2324  
G01 X-1.5270 Y0.2326  
G01 X-1.5270 Y0.2959  
G01 X-1.5276 Y0.2965  
G01 X-1.5284 Y0.2979  
G01 X-1.8036 Y0.6680  
G01 X-1.8133 Y0.6680  
G01 X-1.8320 Y0.6867  
G01 X-1.8320 Y0.7133  
G01 X-1.8220 Y0.7233  
G01 X-1.8220 Y0.8267  
G01 X-1.8320 Y0.8367  
G01 X-1.8320 Y0.8633  
G01 X-1.8220 Y0.8733  
G01 X-1.8220 Y1.0429  
G01 X-1.9028 Y1.1561  
G01 X-1.9280 Y1.1309  
G01 X-1.9280 Y1.0971  
G01 X-1.9295 Y1.0915  
G01 X-1.9324 Y1.0865  
G01 X-1.9365 Y1.0824  
G01 X-2.0741 Y0.9448  
G01 X-2.0716 Y0.9412  
G01 X-2.0692 Y0.9353  
G01 X-2.0680 Y0.9292  
G01 X-2.0680 Y0.8708  
G01 X-2.0692 Y0.8647  
G01 X-2.0716 Y0.8588  
G01 X-2.0751 Y0.8536  
G01 X-2.0796 Y0.8491  
G01 X-2.0848 Y0.8456  
G01 X-2.0907 Y0.8432  
G01 X-2.0968 Y0.8420  
G01 X-2.1032 Y0.8420  
G01 X-2.1093 Y0.8432  
G01 X-2.1152 Y0.8456  
G01 X-2.1204 Y0.8491  
G01 X-2.1249 Y0.8536  
G01 X-2.1284 Y0.8588  
G01 X-2.1308 Y0.8647  
G01 X-2.1320 Y0.8708  
G01 X-2.1320 Y0.9292  
G01 X-2.1308 Y0.9353  
G01 X-2.1284 Y0.9412  
G01 X-2.1249 Y0.9464  
G01 X-2.1220 Y0.9493  
G01 X-2.1220 Y0.9529  
G01 X-2.1205 Y0.9585  
G01 X-2.1176 Y0.9635  
G01 X-1.9720 Y1.1091  
G01 X-1.9720 Y1.1429  
G01 X-1.9705 Y1.1485  
G01 X-1.9676 Y1.1535  
G01 X-1.9531 Y1.1680  
G01 X-2.1678 Y1.1680  
G01 X-2.1684 Y1.1679  
G01 X-2.1707 Y1.1680  
G01 X-2.1729 Y1.1680  
G01 X-2.1735 Y1.1682  
G01 X-2.1742 Y1.1682  
G01 X-2.1763 Y1.1689  
G01 X-2.1785 Y1.1695  
G01 X-2.1791 Y1.1698  
G01 X-2.1797 Y1.1700  
G01 X-2.1816 Y1.1713  
G01 X-2.1835 Y1.1724  
G01 X-2.1840 Y1.1729  
G01 X-2.1845 Y1.1732  
G01 X-2.1860 Y1.1749  
G01 X-2.1876 Y1.1765  
G01 X-2.1879 Y1.1771  
G01 X-2.1884 Y1.1776  
G01 X-2.1894 Y1.1796  
G01 X-2.1905 Y1.1815  
G01 X-2.1907 Y1.1822  
G01 X-2.2194 Y1.2396  
G01 X-2.2205 Y1.2415  
G01 X-2.2207 Y1.2422  
G01 X-2.2210 Y1.2428  
G01 X-2.2214 Y1.2449  
G01 X-2.2220 Y1.2471  
G01 X-2.2220 Y1.2478  
G01 X-2.2221 Y1.2484  
G01 X-2.2220 Y1.2507  
G01 X-2.2220 Y1.3767  
G01 X-2.2320 Y1.3867  
G01 X-2.2320 Y1.4133  
G01 X-2.2133 Y1.4320  
G01 X-2.1867 Y1.4320  
G01 X-2.1680 Y1.4133  
G01 X-2.1680 Y1.3867  
G01 X-2.1780 Y1.3767  
G01 X-2.1780 Y1.2552  
G01 X-2.1564 Y1.2120  
G01 X-1.9233 Y1.2120  
G01 X-1.9133 Y1.2220  
G01 X-1.8867 Y1.2220  
G01 X-1.8680 Y1.2033  
G01 X-1.8680 Y1.1831  
G01 X-1.7832 Y1.0643  
G01 X-1.7824 Y1.0635  
G01 X-1.7815 Y1.0619  
G01 X-1.7804 Y1.0604  
G01 X-1.7800 Y1.0594  
G01 X-1.7795 Y1.0585  
G01 X-1.7790 Y1.0567  
G01 X-1.7784 Y1.0550  
G01 X-1.7783 Y1.0539  
G01 X-1.7780 Y1.0529  
G01 X-1.7780 Y1.0511  
G01 X-1.7778 Y1.0492  
G01 X-1.7780 Y1.0482  
G01 X-1.7780 Y0.8733  
G01 X-1.7680 Y0.8633  
G01 X-1.7680 Y0.8367  
G01 X-1.7780 Y0.8267  
G01 X-1.7780 Y0.7233  
G01 X-1.7680 Y0.7133  
G01 X-1.7680 Y0.6938  
G01 X-1.4933 Y0.3244  
G01 X-1.4874 Y0.3185  
G01 X-1.4845 Y0.3135  
G01 X-1.4830 Y0.3079  
G01 X-1.4830 Y0.2303  
G01 X-1.4822 Y0.1943  
G01 X-1.4787 Y0.1925  
G01 X-1.2131 Y0.3677  
G01 X-1.1554 Y0.4158  
G01 X-0.8574 Y0.7535  
G01 X-0.7933 Y0.8472  
G01 X-0.6870 Y1.0115  
G01 X-0.6870 Y1.1078  
G01 X-0.6871 Y1.1084  
G01 X-0.6870 Y1.1107  
G01 X-0.6870 Y1.1129  
G01 X-0.6868 Y1.1135  
G01 X-0.6720 Y1.3607  
G01 X-0.6720 Y1.6274  
G01 X-0.6721 Y1.6278  
G01 X-0.6720 Y1.6303  
G01 X-0.6720 Y1.6329  
G01 X-0.6719 Y1.6332  
G01 X-0.6719 Y1.6335  
G01 X-0.6712 Y1.6360  
G01 X-0.6705 Y1.6385  
G01 X-0.6703 Y1.6388  
G01 X-0.6561 Y1.6863  
G01 X-0.6553 Y1.6890  
G01 X-0.6537 Y1.6915  
G01 X-0.6522 Y1.6940  
G01 X-0.6501 Y1.6960  
G01 X-0.6480 Y1.6980  
G01 X-0.6454 Y1.6994  
G01 X-0.5366 Y1.7583  
G01 X-0.5324 Y1.9101  
G01 X-0.5718 Y1.9252  
G01 X-0.5845 Y1.9125  
G01 X-0.6155 Y1.9125  
G01 X-0.6375 Y1.9345  
G01 X-0.6375 Y1.9393  
G01 X-0.7335 Y1.9713  
G01 X-0.7367 Y1.9680  
G01 X-0.7633 Y1.9680  
G01 X-0.7733 Y1.9780  
G01 X-0.8948 Y1.9780  
G01 X-0.9652 Y1.9428  
G01 X-0.9659 Y1.9396  
G01 X-0.9685 Y1.9332  
G01 X-0.9724 Y1.9274  
G01 X-0.9774 Y1.9224  
G01 X-0.9832 Y1.9185  
G01 X-0.9896 Y1.9159  
G01 X-0.9965 Y1.9145  
G01 X-1.0035 Y1.9145  
G01 X-1.0104 Y1.9159  
G01 X-1.0168 Y1.9185  
G01 X-1.0226 Y1.9224  
G01 X-1.0276 Y1.9274  
G01 X-1.0315 Y1.9332  
G01 X-1.0341 Y1.9396  
G01 X-1.0355 Y1.9465  
G01 X-1.0355 Y1.9535  
G01 X-1.0341 Y1.9604  
G01 X-1.0338 Y1.9611  
G01 X-1.0618 Y2.0030  
G01 X-1.1250 Y2.0030  
G01 X-1.1651 Y1.9566  
G01 X-1.1645 Y1.9535  
G01 X-1.1645 Y1.9465  
G01 X-1.1659 Y1.9396  
G01 X-1.1685 Y1.9332  
G01 X-1.1724 Y1.9274  
G01 X-1.1586 Y1.8651  
G01 X-1.1580 Y1.8625  
G01 X-1.1580 Y1.8622  
G01 X-1.1579 Y1.8619  
G01 X-1.1580 Y1.8593  
G01 X-1.1581 Y1.8567  
G01 X-1.1581 Y1.8565  
G01 X-1.1581 Y1.8562  
G01 X-1.1589 Y1.8537  
G01 X-1.1596 Y1.8512  
G01 X-1.1598 Y1.8509  
G01 X-1.1599 Y1.8506  
G01 X-1.1613 Y1.8484  
G01 X-1.1910 Y1.7988  
G01 X-1.1924 Y1.7965  
G01 X-1.1925 Y1.7964  
G01 X-1.1926 Y1.7962  
G01 X-1.1946 Y1.7943  
G01 X-1.1965 Y1.7924  
G01 X-1.1967 Y1.7923  
G01 X-1.1968 Y1.7922  
G01 X-1.1992 Y1.7909  
G01 X-1.2015 Y1.7895  
G01 X-1.2017 Y1.7895  
G01 X-1.2019 Y1.7894  
G01 X-1.2045 Y1.7887  
G01 X-1.2071 Y1.7880  
G01 X-1.2073 Y1.7880  
G01 X-1.2075 Y1.7880  
G01 X-1.2102 Y1.7880  
G01 X-1.2985 Y1.7880  
G01 X-1.2998 Y1.7878  
G01 X-1.3013 Y1.7880  
G01 X-1.3029 Y1.7880  
G01 X-1.3042 Y1.7884  
G01 X-1.3056 Y1.7885  
G01 X-1.3070 Y1.7891  
G01 X-1.3085 Y1.7895  
G01 X-1.3097 Y1.7902  
G01 X-1.3109 Y1.7907  
G01 X-1.3122 Y1.7916  
G01 X-1.3135 Y1.7924  
G01 X-1.3145 Y1.7934  
G01 X-1.6124 Y2.0180  
G01 X-1.8514 Y2.0180  
G01 X-1.9035 Y1.9138  
G01 X-1.9030 Y1.9133  
G01 X-1.9030 Y1.8867  
G01 X-1.9217 Y1.8680  
G01 X-1.9483 Y1.8680  
G01 X-1.9583 Y1.8780  
G01 X-2.2767 Y1.8780  
G01 X-2.2867 Y1.8680  
G01 X-2.3133 Y1.8680  
G01 X-2.3320 Y1.8867  
G01 X-2.3320 Y1.9129  
G01 X-2.3683 Y1.9799  
G01 X-2.4087 Y2.0276  
G01 X-2.4102 Y2.0291  
G01 X-2.4105 Y2.0298  
G01 X-2.4110 Y2.0303  
G01 X-2.4119 Y2.0323  
G01 X-2.4741 Y2.1442  
G01 X-2.4755 Y2.1465  
G01 X-2.4755 Y2.1467  
G01 X-2.4756 Y2.1468  
G01 X-2.4763 Y2.1495  
G01 X-2.4770 Y2.1521  
G01 X-2.4770 Y2.1523  
G01 X-2.4770 Y2.1525  
G01 X-2.4770 Y2.1552  
G01 X-2.4770 Y2.1631  
G01 X-2.4772 Y2.1641  
G01 X-2.4770 Y2.1660  
G01 X-2.4770 Y2.1679  
G01 X-2.4767 Y2.1689  
G01 X-2.4737 Y2.2024  
G01 X-2.4749 Y2.2036  
G01 X-2.4784 Y2.2088  
G01 X-2.4808 Y2.2147  
G01 X-2.4820 Y2.2208  
G01 X-2.4820 Y2.2792  
G01 X-2.4808 Y2.2853  
G01 X-2.4784 Y2.2912  
G01 X-2.4749 Y2.2964  
G01 X-2.4720 Y2.2993  
G01 X-2.4720 Y2.3280  
G01 X-3.1030 Y2.3280  
G01 X-3.1030 Y2.1786  
G01 X-3.0955 Y2.1560  
G01 X-3.0768 Y2.1560  
G01 X-3.0440 Y2.1232  
G01 X-3.0440 Y2.0768  
G01 X-3.0580 Y2.0628  
G01 X-2.9934 Y1.9269  
G01 X-2.7578 Y2.0042  
G01 X-2.7568 Y2.0093  
G01 X-2.7544 Y2.0152  
G01 X-2.7509 Y2.0204  
G01 X-2.7464 Y2.0249  
G01 X-2.7412 Y2.0284  
G01 X-2.7353 Y2.0308  
G01 X-2.7292 Y2.0320  
G01 X-2.6708 Y2.0320  
G01 X-2.6647 Y2.0308  
G01 X-2.6588 Y2.0284  
G01 X-2.6536 Y2.0249  
G01 X-2.6491 Y2.0204  
G01 X-2.6456 Y2.0152  
G01 X-2.6432 Y2.0093  
G01 X-2.6420 Y2.0032  
G01 X-2.6420 Y1.9968  
G01 X-2.6432 Y1.9907  
G01 X-2.6456 Y1.9848  
G01 X-2.6491 Y1.9796  
G01 X-2.6536 Y1.9751  
G01 X-2.6588 Y1.9716  
G01 X-2.6647 Y1.9692  
G01 X-2.6708 Y1.9680  
G01 X-2.7270 Y1.9680  
G01 X-2.9830 Y1.8841  
G01 X-2.9830 Y1.7291  
G01 X-2.9796 Y1.7269  
G01 X-2.9751 Y1.7224  
G01 X-2.9716 Y1.7172  
G01 X-2.9692 Y1.7113  
G01 X-2.9680 Y1.7052  
G01 X-2.9680 Y1.6468  
G01 X-2.9692 Y1.6407  
G01 X-2.9716 Y1.6348  
G01 X-2.9751 Y1.6296  
G01 X-2.9796 Y1.6251  
G01 X-2.9848 Y1.6216  
G01 X-2.9907 Y1.6192  
G01 X-2.9968 Y1.6180  
G01 X-3.0032 Y1.6180  
G01 X-3.0093 Y1.6192  
G01 X-3.0152 Y1.6216  
G01 X-3.0204 Y1.6251  
G01 X-3.0249 Y1.6296  
G01 X-3.0284 Y1.6348  
G01 X-3.0308 Y1.6407  
G01 X-3.0320 Y1.6468  
G01 X-3.0320 Y1.7052  
G01 X-3.0308 Y1.7113  
G01 X-3.0284 Y1.7172  
G01 X-3.0270 Y1.7192  
G01 X-3.0270 Y1.8950  
G01 X-3.0978 Y2.0440  
G01 X-3.1232 Y2.0440  
G01 X-3.1560 Y2.0768  
G01 X-3.1560 Y2.1232  
G01 X-3.1372 Y2.1420  
G01 X-3.1452 Y2.1659  
G01 X-3.1455 Y2.1665  
G01 X-3.1461 Y2.1687  
G01 X-3.1468 Y2.1708  
G01 X-3.1468 Y2.1715  
G01 X-3.1470 Y2.1721  
G01 X-3.1470 Y2.1743  
G01 X-3.1471 Y2.1766  
G01 X-3.1470 Y2.1772  
G01 X-3.1470 Y2.3529  
G01 X-3.1455 Y2.3585  
G01 X-3.1426 Y2.3635  
G01 X-3.1385 Y2.3676  
G01 X-3.1335 Y2.3705  
G01 X-3.1279 Y2.3720  
G01 X-2.4618 Y2.3720  
G01 X-2.3744 Y2.5031  
G01 X-2.3749 Y2.5036  
G01 X-2.3784 Y2.5088  
G01 X-2.3808 Y2.5147  
G01 X-2.3820 Y2.5208  
G01 X-2.3820 Y2.5792  
G01 X-2.3808 Y2.5853  
G01 X-2.3784 Y2.5912  
G01 X-2.3749 Y2.5964  
G01 X-2.3741 Y2.5972  
G01 X-2.3768 Y2.6610  
G01 X-2.3933 Y2.7103  
G01 X-2.4894 Y2.7680  
G01 X-2.5133 Y2.7680  
G01 X-2.5233 Y2.7780  
G01 X-2.5529 Y2.7780  
G01 X-2.5585 Y2.7795  
G01 X-2.5635 Y2.7824  
G01 X-2.5676 Y2.7865  
G01 X-2.6176 Y2.8365  
G01 X-2.6205 Y2.8415  
G01 X-2.6220 Y2.8471  
G01 X-2.6220 Y2.9493  
G01 X-2.6221 Y2.9516  
G01 X-2.6220 Y2.9522  
G01 X-2.6220 Y2.9529  
G01 X-2.6214 Y2.9551  
G01 X-2.6210 Y2.9572  
G01 X-2.6207 Y2.9578  
G01 X-2.6205 Y2.9585  
G01 X-2.6194 Y2.9604  
G01 X-2.6184 Y2.9624  
G01 X-2.6179 Y2.9629  
G01 X-2.6176 Y2.9635  
G01 X-2.6160 Y2.9651  
G01 X-2.6145 Y2.9668  
G01 X-2.6140 Y2.9671  
G01 X-2.6135 Y2.9676  
G01 X-2.6116 Y2.9687  
G01 X-2.6097 Y2.9700  
G01 X-2.6091 Y2.9702  
G01 X-2.6085 Y2.9705  
G01 X-2.6063 Y2.9711  
G01 X-2.5491 Y2.9902  
G01 X-2.5485 Y2.9905  
G01 X-2.5463 Y2.9911  
G01 X-2.5442 Y2.9918  
G01 X-2.5435 Y2.9918  
G01 X-2.5429 Y2.9920  
G01 X-2.5407 Y2.9920  
G01 X-2.5384 Y2.9921  
G01 X-2.5378 Y2.9920  
G01 X-1.8907 Y2.9920  
G01 X-1.8884 Y2.9921  
G01 X-1.8878 Y2.9920  
G01 X-1.8871 Y2.9920  
G01 X-1.8849 Y2.9914  
G01 X-1.8828 Y2.9910  
G01 X-1.8822 Y2.9907  
G01 X-1.8815 Y2.9905  
G01 X-1.8796 Y2.9894  
G01 X-1.8422 Y2.9707  
G01 X-1.8415 Y2.9705  
G01 X-1.8396 Y2.9694  
G01 X-1.8376 Y2.9684  
G01 X-1.8371 Y2.9679  
G01 X-1.8365 Y2.9676  
G01 X-1.8349 Y2.9660  
G01 X-1.8332 Y2.9645  
G01 X-1.8329 Y2.9640  
G01 X-1.8324 Y2.9635  
G01 X-1.8313 Y2.9616  
G01 X-1.8300 Y2.9597  
G01 X-1.8298 Y2.9591  
G01 X-1.8295 Y2.9585  
G01 X-1.8289 Y2.9563  
G01 X-1.8282 Y2.9542  
G01 X-1.8282 Y2.9535  
G01 X-1.8280 Y2.9529  
G01 X-1.8280 Y2.9507  
G01 X-1.8279 Y2.9484  
G01 X-1.8280 Y2.9478  
G01 X-1.8280 Y2.7733  
G01 X-1.8180 Y2.7633  
G01 X-1.8180 Y2.7367  
G01 X-1.8367 Y2.7180  
G01 X-1.8633 Y2.7180  
G01 X-1.8820 Y2.7367  
G01 X-1.8820 Y2.7633  
G01 X-1.8720 Y2.7733  
G01 X-1.8720 Y2.9364  
G01 X-1.8952 Y2.9480  
G01 X-2.5364 Y2.9480  
G01 X-2.5780 Y2.9341  
G01 X-2.5780 Y2.8591  
G01 X-2.5409 Y2.8220  
G01 X-2.5233 Y2.8220  
G01 X-2.5133 Y2.8320  
G01 X-2.4867 Y2.8320  
G01 X-2.4680 Y2.8133  
G01 X-2.4680 Y2.8065  
G01 X-2.3644 Y2.7443  
G01 X-2.3626 Y2.7434  
G01 X-2.3619 Y2.7428  
G01 X-2.3612 Y2.7424  
G01 X-2.3598 Y2.7409  
G01 X-2.3582 Y2.7395  
G01 X-2.3578 Y2.7388  
G01 X-2.3572 Y2.7382  
G01 X-2.3562 Y2.7364  
G01 X-2.3550 Y2.7347  
G01 X-2.3548 Y2.7339  
G01 X-2.3544 Y2.7331  
G01 X-2.3539 Y2.7312  
G01 X-2.3350 Y2.6745  
G01 X-2.3349 Y2.6744  
G01 X-2.3341 Y2.6718  
G01 X-2.3332 Y2.6692  
G01 X-2.3332 Y2.6690  
G01 X-2.3331 Y2.6688  
G01 X-2.3330 Y2.6661  
G01 X-2.3329 Y2.6634  
G01 X-2.3329 Y2.6632  
G01 X-2.3302 Y2.6013  
G01 X-2.3296 Y2.6009  
G01 X-2.3251 Y2.5964  
G01 X-2.3216 Y2.5912  
G01 X-2.3192 Y2.5853  
G01 X-2.3180 Y2.5792  
G01 X-2.3180 Y2.5208  
G01 X-2.3192 Y2.5147  
G01 X-2.3216 Y2.5088  
G01 X-2.3251 Y2.5036  
G01 X-2.3279 Y2.5008  
G01 X-2.3280 Y2.4993  
G01 X-2.3280 Y2.4971  
G01 X-2.3282 Y2.4964  
G01 X-2.3282 Y2.4957  
G01 X-2.3289 Y2.4936  
G01 X-2.3295 Y2.4915  
G01 X-2.3299 Y2.4909  
G01 X-2.3301 Y2.4902  
G01 X-2.3313 Y2.4884  
G01 X-2.3324 Y2.4865  
G01 X-2.3329 Y2.4860  
G01 X-2.4280 Y2.3433  
G01 X-2.4280 Y2.2993  
G01 X-2.4251 Y2.2964  
G01 X-2.4216 Y2.2912  
G01 X-2.4192 Y2.2853  
G01 X-2.4180 Y2.2792  
G01 X-2.4180 Y2.2208  
G01 X-2.4192 Y2.2147  
G01 X-2.4216 Y2.2088  
G01 X-2.4251 Y2.2036  
G01 X-2.4296 Y2.1991  
G01 X-2.4298 Y2.1990  
G01 X-2.4330 Y2.1640  
G01 X-2.4330 Y2.1607  
G01 X-2.3742 Y2.0549  
G01 X-2.3336 Y2.0070  
G01 X-2.3320 Y2.0054  
G01 X-2.3317 Y2.0048  
G01 X-2.3313 Y2.0044  
G01 X-2.3304 Y2.0023  
G01 X-2.2923 Y1.9320  
G01 X-2.2867 Y1.9320  
G01 X-2.2767 Y1.9220  
G01 X-1.9583 Y1.9220  
G01 X-1.9483 Y1.9320  
G01 X-1.9436 Y1.9320  
G01 X-1.8857 Y2.0478  
G01 X-1.8855 Y2.0485  
G01 X-1.8844 Y2.0504  
G01 X-1.8834 Y2.0524  
G01 X-1.8829 Y2.0529  
G01 X-1.8826 Y2.0535  
G01 X-1.8810 Y2.0551  
G01 X-1.8795 Y2.0568  
G01 X-1.8790 Y2.0571  
G01 X-1.8785 Y2.0576  
G01 X-1.8766 Y2.0587  
G01 X-1.8747 Y2.0600  
G01 X-1.8741 Y2.0602  
G01 X-1.8735 Y2.0605  
G01 X-1.8713 Y2.0611  
G01 X-1.8692 Y2.0618  
G01 X-1.8685 Y2.0618  
G01 X-1.8679 Y2.0620  
G01 X-1.8657 Y2.0620  
G01 X-1.8634 Y2.0621  
G01 X-1.8628 Y2.0620  
G01 X-1.6065 Y2.0620  
G01 X-1.6052 Y2.0622  
G01 X-1.6037 Y2.0620  
G01 X-1.6021 Y2.0620  
G01 X-1.6008 Y2.0616  
G01 X-1.5994 Y2.0615  
G01 X-1.5980 Y2.0609  
G01 X-1.5965 Y2.0605  
G01 X-1.5953 Y2.0598  
G01 X-1.5941 Y2.0593  
G01 X-1.5928 Y2.0584  
G01 X-1.5915 Y2.0576  
G01 X-1.5905 Y2.0566  
G01 X-1.2926 Y1.8320  
G01 X-1.2225 Y1.8320  
G01 X-1.2034 Y1.8638  
G01 X-1.2154 Y1.9180  
G01 X-1.2168 Y1.9185  
G01 X-1.2226 Y1.9224  
G01 X-1.2276 Y1.9274  
G01 X-1.2315 Y1.9332  
G01 X-1.2341 Y1.9396  
G01 X-1.2355 Y1.9465  
G01 X-1.2355 Y1.9535  
G01 X-1.2341 Y1.9604  
G01 X-1.2315 Y1.9668  
G01 X-1.2276 Y1.9726  
G01 X-1.2226 Y1.9776  
G01 X-1.2168 Y1.9815  
G01 X-1.2104 Y1.9841  
G01 X-1.2035 Y1.9855  
G01 X-1.1983 Y1.9855  
G01 X-1.1530 Y2.0378  
G01 X-1.1526 Y2.0385  
G01 X-1.1511 Y2.0400  
G01 X-1.1497 Y2.0416  
G01 X-1.1491 Y2.0420  
G01 X-1.1485 Y2.0426  
G01 X-1.1467 Y2.0437  
G01 X-1.1449 Y2.0448  
G01 X-1.1442 Y2.0451  
G01 X-1.1435 Y2.0455  
G01 X-1.1415 Y2.0460  
G01 X-1.1395 Y2.0467  
G01 X-1.1387 Y2.0468  
G01 X-1.1379 Y2.0470  
G01 X-1.1358 Y2.0470  
G01 X-1.1337 Y2.0472  
G01 X-1.1329 Y2.0470  
G01 X-1.0507 Y2.0470  
G01 X-1.0485 Y2.0471  
G01 X-1.0478 Y2.0470  
G01 X-1.0471 Y2.0470  
G01 X-1.0450 Y2.0464  
G01 X-1.0428 Y2.0460  
G01 X-1.0422 Y2.0457  
G01 X-1.0415 Y2.0455  
G01 X-1.0396 Y2.0444  
G01 X-1.0377 Y2.0434  
G01 X-1.0371 Y2.0430  
G01 X-1.0365 Y2.0426  
G01 X-1.0349 Y2.0411  
G01 X-1.0333 Y2.0396  
G01 X-1.0329 Y2.0390  
G01 X-1.0324 Y2.0385  
G01 X-1.0313 Y2.0366  
G01 X-0.9972 Y1.9855  
G01 X-0.9965 Y1.9855  
G01 X-0.9896 Y1.9841  
G01 X-0.9849 Y1.9822  
G01 X-0.9104 Y2.0194  
G01 X-0.9085 Y2.0205  
G01 X-0.9078 Y2.0207  
G01 X-0.9072 Y2.0210  
G01 X-0.9051 Y2.0214  
G01 X-0.9029 Y2.0220  
G01 X-0.9022 Y2.0220  
G01 X-0.9016 Y2.0221  
G01 X-0.8993 Y2.0220  
G01 X-0.7733 Y2.0220  
G01 X-0.7720 Y2.0233  
G01 X-0.7720 Y2.1267  
G01 X-0.7820 Y2.1367  
G01 X-0.7820 Y2.1509  
G01 X-1.0881 Y2.4570  
G01 X-1.1178 Y2.4570  
G01 X-1.1430 Y2.4822  
G01 X-1.1430 Y2.5178  
G01 X-1.1178 Y2.5430  
G01 X-1.0822 Y2.5430  
G01 X-1.0570 Y2.5178  
G01 X-1.0570 Y2.4881  
G01 X-0.7509 Y2.1820  
G01 X-0.7367 Y2.1820  
G01 X-0.7335 Y2.1787  
G01 X-0.6359 Y2.2112  
G01 X-0.6332 Y2.2178  
G01 X-0.6291 Y2.2239  
G01 X-0.6239 Y2.2291  
G01 X-0.6178 Y2.2332  
G01 X-0.6109 Y2.2361  
G01 X-0.6037 Y2.2375  
G01 X-0.5963 Y2.2375  
G01 X-0.5891 Y2.2361  
G01 X-0.5822 Y2.2332  
G01 X-0.5761 Y2.2291  
G01 X-0.5709 Y2.2239  
G01 X-0.5668 Y2.2178  
G01 X-0.5656 Y2.2149  
G01 X-0.3214 Y2.1606  
G01 X-0.3430 Y2.1822  
G01 X-0.3430 Y2.2178  
G01 X-0.3178 Y2.2430  
G01 X-0.3060 Y2.2430  
G01 X-0.3060 Y2.2570  
G01 X-0.3178 Y2.2570  
G01 X-0.3430 Y2.2822  
G01 X-0.3430 Y2.3178  
G01 X-0.3178 Y2.3430  
G01 X-0.2822 Y2.3430  
G01 X-0.2612 Y2.3220  
G01 X-0.2388 Y2.3220  
G01 X-0.2178 Y2.3430  
G01 X-0.1822 Y2.3430  
G01 X-0.1570 Y2.3178  
G01 X-0.1570 Y2.2822  
G01 X-0.1780 Y2.2612  
G01 X-0.1780 Y2.2388  
G01 X-0.1570 Y2.2178  
G01 X-0.1570 Y2.1822  
G01 X-0.1780 Y2.1612  
G01 X-0.1780 Y2.1388  
G01 X-0.1651 Y2.1259  
G01 X-0.1476 Y2.1220  
G01 X-0.1471 Y2.1220  
G01 X-0.1448 Y2.1214  
G01 X-0.1424 Y2.1208  
G01 X-0.1420 Y2.1206  
G01 X-0.1415 Y2.1205  
G01 X-0.1394 Y2.1193  
G01 X-0.1373 Y2.1182  
G01 X-0.1369 Y2.1178  
G01 X-0.1365 Y2.1176  
G01 X-0.1348 Y2.1159  
G01 X-0.1330 Y2.1143  
G01 X-0.1327 Y2.1138  
G01 X-0.1324 Y2.1135  
G01 X-0.1312 Y2.1114  
G01 X-0.1299 Y2.1094  
G01 X-0.1297 Y2.1089  
G01 X-0.1295 Y2.1085  
G01 X-0.1289 Y2.1062  
G01 X-0.1281 Y2.1038  
G01 X-0.1281 Y2.1034  
G01 X-0.1280 Y2.1029  
G01 X-0.1280 Y2.1005  
G01 X-0.1279 Y2.0981  
G01 X-0.1280 Y2.0976  
G01 X-0.1280 Y2.0971  
G01 X-0.1286 Y2.0948  
G01 X-0.1292 Y2.0924  
G01 X-0.1294 Y2.0920  
G01 X-0.1295 Y2.0915  
G01 X-0.1307 Y2.0894  
G01 X-0.1318 Y2.0873  
G01 X-0.1322 Y2.0869  
G01 X-0.1324 Y2.0865  
G01 X-0.1341 Y2.0848  
G01 X-0.1357 Y2.0830  
G01 X-0.1362 Y2.0827  
G01 X-0.1365 Y2.0824  
G01 X-0.1386 Y2.0812  
G01 X-0.1406 Y2.0799  
G01 X-0.1411 Y2.0797  
G01 X-0.1415 Y2.0795  
G01 X-0.1438 Y2.0789  
G01 X-0.1462 Y2.0781  
G01 X-0.1466 Y2.0781  
G01 X-0.1471 Y2.0780  
G01 X-0.1495 Y2.0780  
G01 X-0.1519 Y2.0779  
G01 X-0.1524 Y2.0780  
G01 X-0.1612 Y2.0780  
G01 X-0.1822 Y2.0570  
G01 X-0.2178 Y2.0570  
G01 X-0.2388 Y2.0780  
G01 X-0.2612 Y2.0780  
G01 X-0.2822 Y2.0570  
G01 X-0.3178 Y2.0570  
G01 X-0.3430 Y2.0822  
G01 X-0.3430 Y2.1178  
G01 X-0.3409 Y2.1199  
G01 X-0.5750 Y2.1719  
G01 X-0.5761 Y2.1709  
G01 X-0.5822 Y2.1668  
G01 X-0.5891 Y2.1639  
G01 X-0.5963 Y2.1625  
G01 X-0.6037 Y2.1625  
G01 X-0.6109 Y2.1639  
G01 X-0.6178 Y2.1668  
G01 X-0.6219 Y2.1695  
G01 X-0.7180 Y2.1375  
G01 X-0.7180 Y2.1367  
G01 X-0.7280 Y2.1267  
G01 X-0.7280 Y2.0233  
G01 X-0.7180 Y2.0133  
G01 X-0.7180 Y2.0125  
G01 X-0.6224 Y1.9807  
G01 X-0.6155 Y1.9875  
G01 X-0.5845 Y1.9875  
G01 X-0.5678 Y1.9709  
G01 X-0.5665 Y1.9705  
G01 X-0.5655 Y1.9699  
G01 X-0.5029 Y1.9458  
G01 X-0.5009 Y1.9453  
G01 X-0.5002 Y1.9448  
G01 X-0.4994 Y1.9445  
G01 X-0.4977 Y1.9433  
G01 X-0.4960 Y1.9422  
G01 X-0.4954 Y1.9416  
G01 X-0.4947 Y1.9411  
G01 X-0.4934 Y1.9395  
G01 X-0.4920 Y1.9380  
G01 X-0.4916 Y1.9373  
G01 X-0.4911 Y1.9366  
G01 X-0.4902 Y1.9347  
G01 X-0.4893 Y1.9329  
G01 X-0.4891 Y1.9321  
G01 X-0.4887 Y1.9313  
G01 X-0.4884 Y1.9293  
G01 X-0.4879 Y1.9273  
G01 X-0.4880 Y1.9264  
G01 X-0.4878 Y1.9256  
G01 X-0.4880 Y1.9235  
G01 X-0.4930 Y1.7445  
G01 X-0.4931 Y1.7415  
G01 X-0.4939 Y1.7388  
G01 X-0.4947 Y1.7360  
G01 X-0.4963 Y1.7335  
G01 X-0.4978 Y1.7310  
G01 X-0.4999 Y1.7290  
G01 X-0.5020 Y1.7270  
G01 X-0.5046 Y1.7256  
G01 X-0.6165 Y1.6650  
G01 X-0.6280 Y1.6268  
G01 X-0.6280 Y1.3622  
G01 X-0.6279 Y1.3616  
G01 X-0.6280 Y1.3593  
G01 X-0.6280 Y1.3571  
G01 X-0.6282 Y1.3565  
G01 X-0.6430 Y1.1093  
G01 X-0.6430 Y1.0073  
G01 X-0.6429 Y1.0068  
G01 X-0.6430 Y1.0044  
G01 X-0.6430 Y1.0021  
G01 X-0.6431 Y1.0016  
G01 X-0.6432 Y1.0010  
G01 X-0.6439 Y0.9988  
G01 X-0.6445 Y0.9965  
G01 X-0.6448 Y0.9960  
G01 X-0.6450 Y0.9955  
G01 X-0.6462 Y0.9935  
G01 X-0.6474 Y0.9915  
G01 X-0.6478 Y0.9911  
G01 X-0.7551 Y0.8252  
G01 X-0.7552 Y0.8250  
G01 X-0.7567 Y0.8228  
G01 X-0.7581 Y0.8206  
G01 X-0.7583 Y0.8204  
G01 X-0.8210 Y0.7288  
G01 X-0.8216 Y0.7276  
G01 X-0.8226 Y0.7265  
G01 X-0.8235 Y0.7252  
G01 X-0.8245 Y0.7243  
G01 X-1.1227 Y0.3863  
G01 X-1.1237 Y0.3850  
G01 X-1.1246 Y0.3842  
G01 X-1.1254 Y0.3833  
G01 X-1.1268 Y0.3823  
G01 X-1.1846 Y0.3342  
G01 X-1.1855 Y0.3332  
G01 X-1.1869 Y0.3323  
G01 X-1.1881 Y0.3312  
G01 X-1.1893 Y0.3307  
G01 X-1.4507 Y0.1583  
G01 X-1.3617 Y0.1335  
G01 X-0.7506 Y0.1335  
G01 X-0.7161 Y0.1345  
G01 X-0.7159 Y0.1349  
G01 X-0.7096 Y0.1411  
G01 X-0.7025 Y0.1463  
G01 X-0.6946 Y0.1503  
G01 X-0.6863 Y0.1530  
G01 X-0.6776 Y0.1544  
G01 X-0.5687 Y0.1544  
G01 X-0.5600 Y0.1530  
G01 X-0.5517 Y0.1503  
G01 X-0.5438 Y0.1463  
G01 X-0.5367 Y0.1411  
G01 X-0.5304 Y0.1349  
G01 X-0.5253 Y0.1278  
G01 X-0.5213 Y0.1199  
G01 X-0.5185 Y0.1115  
G01 X-0.5171 Y0.1028  
G01 X-0.5171 Y0.0940  
G01 X-0.5185 Y0.0853  
G01 X-0.5213 Y0.0769  
G01 X-0.5253 Y0.0691  
G01 X-0.5304 Y0.0619  
G00 Z0.0500  
G00 X-0.5304 Y0.5816  
G01 Z-0.0040 F10    
G01 X-0.5367 Y0.5754  F20    
G01 X-0.5438 Y0.5702  
G01 X-0.5517 Y0.5662  
G01 X-0.5600 Y0.5635  
G01 X-0.5687 Y0.5621  
G01 X-0.6776 Y0.5621  
G01 X-0.6863 Y0.5635  
G01 X-0.6946 Y0.5662  
G01 X-0.7025 Y0.5702  
G01 X-0.7096 Y0.5754  
G01 X-0.7159 Y0.5816  
G01 X-0.7210 Y0.5888  
G01 X-0.7250 Y0.5966  
G01 X-0.7278 Y0.6050  
G01 X-0.7291 Y0.6137  
G01 X-0.7291 Y0.6225  
G01 X-0.7278 Y0.6312  
G01 X-0.7250 Y0.6396  
G01 X-0.7210 Y0.6475  
G01 X-0.7159 Y0.6546  
G01 X-0.7096 Y0.6608  
G01 X-0.7025 Y0.6660  
G01 X-0.6946 Y0.6700  
G01 X-0.6863 Y0.6727  
G01 X-0.6776 Y0.6741  
G01 X-0.6397 Y0.6741  
G01 X-0.6119 Y0.9569  
G01 X-0.5738 Y1.4385  
G01 X-0.5820 Y1.4467  
G01 X-0.5820 Y1.4733  
G01 X-0.5633 Y1.4920  
G01 X-0.5367 Y1.4920  
G01 X-0.5335 Y1.4887  
G01 X-0.5321 Y1.4891  
G01 X-0.3430 Y1.6869  
G01 X-0.3430 Y1.7178  
G01 X-0.3178 Y1.7430  
G01 X-0.2822 Y1.7430  
G01 X-0.2612 Y1.7220  
G01 X-0.2388 Y1.7220  
G01 X-0.2178 Y1.7430  
G01 X-0.1822 Y1.7430  
G01 X-0.1570 Y1.7178  
G01 X-0.1570 Y1.6822  
G01 X-0.1822 Y1.6570  
G01 X-0.2178 Y1.6570  
G01 X-0.2388 Y1.6780  
G01 X-0.2612 Y1.6780  
G01 X-0.2822 Y1.6570  
G01 X-0.3107 Y1.6570  
G01 X-0.5038 Y1.4551  
G01 X-0.5055 Y1.4532  
G01 X-0.5058 Y1.4530  
G01 X-0.5061 Y1.4527  
G01 X-0.5082 Y1.4514  
G01 X-0.5103 Y1.4500  
G01 X-0.5107 Y1.4499  
G01 X-0.5111 Y1.4497  
G01 X-0.5134 Y1.4490  
G01 X-0.5180 Y1.4475  
G01 X-0.5180 Y1.4467  
G01 X-0.5299 Y1.4348  
G01 X-0.5679 Y0.9559  
G01 X-0.5678 Y0.9557  
G01 X-0.5681 Y0.9530  
G01 X-0.5683 Y0.9503  
G01 X-0.5684 Y0.9501  
G01 X-0.5955 Y0.6741  
G01 X-0.5687 Y0.6741  
G01 X-0.5600 Y0.6727  
G01 X-0.5517 Y0.6700  
G01 X-0.5438 Y0.6660  
G01 X-0.5367 Y0.6608  
G01 X-0.5304 Y0.6546  
G01 X-0.5253 Y0.6475  
G01 X-0.5213 Y0.6396  
G01 X-0.5185 Y0.6312  
G01 X-0.5171 Y0.6225  
G01 X-0.5171 Y0.6137  
G01 X-0.5185 Y0.6050  
G01 X-0.5213 Y0.5966  
G01 X-0.5253 Y0.5888  
G01 X-0.5304 Y0.5816  
G00 Z0.0500  
G00 X-0.7719 Y0.5859  
G01 Z-0.0040 F10    
G01 X-0.7719 Y0.4771  F20    
G01 X-0.7733 Y0.4684  
G01 X-0.7760 Y0.4600  
G01 X-0.7800 Y0.4521  
G01 X-0.7852 Y0.4450  
G01 X-0.7914 Y0.4388  
G01 X-0.7985 Y0.4336  
G01 X-0.8064 Y0.4296  
G01 X-0.8148 Y0.4269  
G01 X-0.8235 Y0.4255  
G01 X-0.8323 Y0.4255  
G01 X-0.8410 Y0.4269  
G01 X-0.8494 Y0.4296  
G01 X-0.8572 Y0.4336  
G01 X-0.8644 Y0.4388  
G01 X-0.8706 Y0.4450  
G01 X-0.8758 Y0.4521  
G01 X-0.8798 Y0.4600  
G01 X-0.8825 Y0.4684  
G01 X-0.8839 Y0.4771  
G01 X-0.8839 Y0.5859  
G01 X-0.8825 Y0.5946  
G01 X-0.8798 Y0.6030  
G01 X-0.8758 Y0.6108  
G01 X-0.8706 Y0.6180  
G01 X-0.8644 Y0.6242  
G01 X-0.8572 Y0.6294  
G01 X-0.8494 Y0.6334  
G01 X-0.8410 Y0.6361  
G01 X-0.8323 Y0.6375  
G01 X-0.8235 Y0.6375  
G01 X-0.8148 Y0.6361  
G01 X-0.8064 Y0.6334  
G01 X-0.7985 Y0.6294  
G01 X-0.7914 Y0.6242  
G01 X-0.7852 Y0.6180  
G01 X-0.7800 Y0.6108  
G01 X-0.7760 Y0.6030  
G01 X-0.7733 Y0.5946  
G01 X-0.7719 Y0.5859  
G00 Z0.0500  
G00 X-0.9334 Y0.7103  
G01 Z-0.0040 F10    
G01 X-0.9346 Y0.7093  F20    
G01 X-1.1824 Y0.4367  
G01 X-1.1829 Y0.4359  
G01 X-1.1843 Y0.4345  
G01 X-1.1857 Y0.4331  
G01 X-1.1864 Y0.4326  
G01 X-1.1871 Y0.4319  
G01 X-1.1889 Y0.4310  
G01 X-1.1905 Y0.4299  
G01 X-1.1914 Y0.4296  
G01 X-1.1922 Y0.4292  
G01 X-1.1942 Y0.4288  
G01 X-1.1961 Y0.4282  
G01 X-1.1970 Y0.4281  
G01 X-1.1979 Y0.4279  
G01 X-1.1999 Y0.4280  
G01 X-1.2018 Y0.4279  
G01 X-1.2028 Y0.4281  
G01 X-1.4780 Y0.4379  
G01 X-1.4782 Y0.4379  
G01 X-1.4809 Y0.4380  
G01 X-1.4837 Y0.4381  
G01 X-1.4838 Y0.4382  
G01 X-1.4840 Y0.4382  
G01 X-1.4866 Y0.4390  
G01 X-1.4892 Y0.4398  
G01 X-1.4893 Y0.4399  
G01 X-1.4895 Y0.4399  
G01 X-1.4918 Y0.4414  
G01 X-1.4941 Y0.4429  
G01 X-1.4942 Y0.4430  
G01 X-1.4943 Y0.4431  
G01 X-1.4962 Y0.4451  
G01 X-1.4981 Y0.4471  
G01 X-1.4981 Y0.4473  
G01 X-1.6909 Y0.6598  
G01 X-1.6926 Y0.6615  
G01 X-1.6929 Y0.6620  
G01 X-1.6932 Y0.6624  
G01 X-1.6943 Y0.6645  
G01 X-1.6955 Y0.6665  
G01 X-1.6956 Y0.6670  
G01 X-1.6959 Y0.6675  
G01 X-1.6964 Y0.6698  
G01 X-1.6970 Y0.6721  
G01 X-1.6970 Y0.6726  
G01 X-1.6971 Y0.6732  
G01 X-1.6970 Y0.6755  
G01 X-1.6970 Y1.0230  
G01 X-1.6972 Y1.0238  
G01 X-1.6970 Y1.0258  
G01 X-1.6970 Y1.0279  
G01 X-1.6968 Y1.0287  
G01 X-1.6937 Y1.0685  
G01 X-1.7020 Y1.0767  
G01 X-1.7020 Y1.1033  
G01 X-1.6999 Y1.1054  
G01 X-1.7101 Y1.1310  
G01 X-1.7110 Y1.1328  
G01 X-1.7112 Y1.1337  
G01 X-1.7115 Y1.1345  
G01 X-1.7117 Y1.1365  
G01 X-1.7167 Y1.1615  
G01 X-1.7320 Y1.1767  
G01 X-1.7320 Y1.2033  
G01 X-1.7272 Y1.2081  
G01 X-1.7484 Y1.2931  
G01 X-1.7493 Y1.2932  
G01 X-1.7552 Y1.2956  
G01 X-1.7604 Y1.2991  
G01 X-1.7649 Y1.3036  
G01 X-1.7684 Y1.3088  
G01 X-1.7708 Y1.3147  
G01 X-1.7720 Y1.3208  
G01 X-1.7720 Y1.3792  
G01 X-1.7708 Y1.3853  
G01 X-1.7684 Y1.3912  
G01 X-1.7649 Y1.3964  
G01 X-1.7604 Y1.4009  
G01 X-1.7552 Y1.4044  
G01 X-1.7493 Y1.4068  
G01 X-1.7432 Y1.4080  
G01 X-1.7368 Y1.4080  
G01 X-1.7307 Y1.4068  
G01 X-1.7248 Y1.4044  
G01 X-1.7196 Y1.4009  
G01 X-1.7151 Y1.3964  
G01 X-1.7116 Y1.3912  
G01 X-1.7092 Y1.3853  
G01 X-1.7080 Y1.3792  
G01 X-1.7080 Y1.3208  
G01 X-1.7089 Y1.3163  
G01 X-1.6848 Y1.2201  
G01 X-1.6680 Y1.2033  
G01 X-1.6680 Y1.1767  
G01 X-1.6738 Y1.1710  
G01 X-1.6688 Y1.1463  
G01 X-1.6591 Y1.1220  
G01 X-1.6567 Y1.1220  
G01 X-1.6380 Y1.1033  
G01 X-1.6380 Y1.0767  
G01 X-1.6499 Y1.0649  
G01 X-1.6530 Y1.0242  
G01 X-1.6530 Y0.6835  
G01 X-1.4699 Y0.4817  
G01 X-1.2094 Y0.4724  
G01 X-0.9674 Y0.7386  
G01 X-0.7670 Y1.0367  
G01 X-0.7670 Y1.4931  
G01 X-0.7694 Y1.5813  
G01 X-0.7715 Y1.5824  
G01 X-0.7771 Y1.5864  
G01 X-0.7820 Y1.5913  
G01 X-0.7861 Y1.5969  
G01 X-0.7892 Y1.6031  
G01 X-0.7913 Y1.6097  
G01 X-0.7924 Y1.6165  
G01 X-0.7924 Y1.6235  
G01 X-0.7913 Y1.6303  
G01 X-0.7892 Y1.6369  
G01 X-0.7861 Y1.6431  
G01 X-0.7820 Y1.6487  
G01 X-0.7771 Y1.6536  
G01 X-0.7715 Y1.6576  
G01 X-0.7712 Y1.6578  
G01 X-0.7719 Y1.6985  
G01 X-0.7720 Y1.6987  
G01 X-0.7720 Y1.7014  
G01 X-0.7721 Y1.7040  
G01 X-0.7720 Y1.7043  
G01 X-0.7720 Y1.7767  
G01 X-0.7820 Y1.7867  
G01 X-0.7820 Y1.8133  
G01 X-0.7633 Y1.8320  
G01 X-0.7367 Y1.8320  
G01 X-0.7335 Y1.8287  
G01 X-0.6359 Y1.8612  
G01 X-0.6332 Y1.8678  
G01 X-0.6291 Y1.8739  
G01 X-0.6239 Y1.8791  
G01 X-0.6178 Y1.8832  
G01 X-0.6109 Y1.8861  
G01 X-0.6037 Y1.8875  
G01 X-0.5963 Y1.8875  
G01 X-0.5891 Y1.8861  
G01 X-0.5822 Y1.8832  
G01 X-0.5761 Y1.8791  
G01 X-0.5709 Y1.8739  
G01 X-0.5668 Y1.8678  
G01 X-0.5639 Y1.8609  
G01 X-0.5625 Y1.8537  
G01 X-0.5625 Y1.8463  
G01 X-0.5639 Y1.8391  
G01 X-0.5668 Y1.8322  
G01 X-0.5709 Y1.8261  
G01 X-0.5761 Y1.8209  
G01 X-0.5822 Y1.8168  
G01 X-0.5891 Y1.8139  
G01 X-0.5963 Y1.8125  
G01 X-0.6037 Y1.8125  
G01 X-0.6109 Y1.8139  
G01 X-0.6178 Y1.8168  
G01 X-0.6219 Y1.8195  
G01 X-0.7180 Y1.7875  
G01 X-0.7180 Y1.7867  
G01 X-0.7280 Y1.7767  
G01 X-0.7280 Y1.7018  
G01 X-0.7272 Y1.6585  
G01 X-0.7254 Y1.6576  
G01 X-0.7198 Y1.6536  
G01 X-0.7149 Y1.6487  
G01 X-0.7108 Y1.6431  
G01 X-0.7076 Y1.6369  
G01 X-0.7055 Y1.6303  
G01 X-0.7044 Y1.6235  
G01 X-0.7044 Y1.6165  
G01 X-0.7055 Y1.6097  
G01 X-0.7076 Y1.6031  
G01 X-0.7108 Y1.5969  
G01 X-0.7149 Y1.5913  
G01 X-0.7198 Y1.5864  
G01 X-0.7254 Y1.5824  
G01 X-0.7231 Y1.4966  
G01 X-0.7230 Y1.4963  
G01 X-0.7230 Y1.4937  
G01 X-0.7229 Y1.4911  
G01 X-0.7230 Y1.4908  
G01 X-0.7230 Y1.0321  
G01 X-0.7229 Y1.0314  
G01 X-0.7230 Y1.0292  
G01 X-0.7230 Y1.0271  
G01 X-0.7232 Y1.0264  
G01 X-0.7232 Y1.0256  
G01 X-0.7239 Y1.0236  
G01 X-0.7245 Y1.0215  
G01 X-0.7249 Y1.0209  
G01 X-0.7251 Y1.0201  
G01 X-0.7263 Y1.0184  
G01 X-0.7274 Y1.0165  
G01 X-0.7279 Y1.0160  
G01 X-0.9310 Y0.7138  
G01 X-0.9318 Y0.7123  
G01 X-0.9326 Y0.7114  
G01 X-0.9334 Y0.7103  
G00 Z0.0500  
G00 X-1.0680 Y0.7040  
G01 Z-0.0040 F10    
G01 X-1.0680 Y0.6867  F20    
G01 X-1.0867 Y0.6680  
G01 X-1.1133 Y0.6680  
G01 X-1.1320 Y0.6867  
G01 X-1.1320 Y0.7133  
G01 X-1.1133 Y0.7320  
G01 X-1.1020 Y0.7320  
G01 X-0.8680 Y1.0128  
G01 X-0.8570 Y1.0311  
G01 X-0.8570 Y1.5677  
G01 X-0.8760 Y1.5930  
G01 X-1.2275 Y1.5930  
G01 X-1.2278 Y1.5929  
G01 X-1.2304 Y1.5930  
G01 X-1.2329 Y1.5930  
G01 X-1.2332 Y1.5931  
G01 X-1.3851 Y1.5980  
G01 X-1.3874 Y1.5979  
G01 X-1.3880 Y1.5981  
G01 X-1.3886 Y1.5981  
G01 X-1.3908 Y1.5988  
G01 X-1.3930 Y1.5993  
G01 X-1.3935 Y1.5996  
G01 X-1.3941 Y1.5998  
G01 X-1.3961 Y1.6010  
G01 X-1.4114 Y1.6094  
G01 X-1.4116 Y1.6088  
G01 X-1.4151 Y1.6036  
G01 X-1.4196 Y1.5991  
G01 X-1.4248 Y1.5956  
G01 X-1.4307 Y1.5932  
G01 X-1.4368 Y1.5920  
G01 X-1.4432 Y1.5920  
G01 X-1.4493 Y1.5932  
G01 X-1.4552 Y1.5956  
G01 X-1.4604 Y1.5991  
G01 X-1.4649 Y1.6036  
G01 X-1.4684 Y1.6088  
G01 X-1.4708 Y1.6147  
G01 X-1.4720 Y1.6208  
G01 X-1.4720 Y1.6280  
G01 X-1.5080 Y1.6280  
G01 X-1.5080 Y1.6208  
G01 X-1.5092 Y1.6147  
G01 X-1.5116 Y1.6088  
G01 X-1.5151 Y1.6036  
G01 X-1.5196 Y1.5991  
G01 X-1.5248 Y1.5956  
G01 X-1.5307 Y1.5932  
G01 X-1.5368 Y1.5920  
G01 X-1.5432 Y1.5920  
G01 X-1.5493 Y1.5932  
G01 X-1.5552 Y1.5956  
G01 X-1.5604 Y1.5991  
G01 X-1.5649 Y1.6036  
G01 X-1.5684 Y1.6088  
G01 X-1.5708 Y1.6147  
G01 X-1.5720 Y1.6208  
G01 X-1.5720 Y1.6792  
G01 X-1.5708 Y1.6853  
G01 X-1.5684 Y1.6912  
G01 X-1.5649 Y1.6964  
G01 X-1.5604 Y1.7009  
G01 X-1.5552 Y1.7044  
G01 X-1.5493 Y1.7068  
G01 X-1.5432 Y1.7080  
G01 X-1.5368 Y1.7080  
G01 X-1.5307 Y1.7068  
G01 X-1.5248 Y1.7044  
G01 X-1.5196 Y1.7009  
G01 X-1.5151 Y1.6964  
G01 X-1.5116 Y1.6912  
G01 X-1.5092 Y1.6853  
G01 X-1.5080 Y1.6792  
G01 X-1.5080 Y1.6720  
G01 X-1.4720 Y1.6720  
G01 X-1.4720 Y1.6792  
G01 X-1.4708 Y1.6853  
G01 X-1.4684 Y1.6912  
G01 X-1.4649 Y1.6964  
G01 X-1.4604 Y1.7009  
G01 X-1.4552 Y1.7044  
G01 X-1.4493 Y1.7068  
G01 X-1.4432 Y1.7080  
G01 X-1.4368 Y1.7080  
G01 X-1.4307 Y1.7068  
G01 X-1.4248 Y1.7044  
G01 X-1.4196 Y1.7009  
G01 X-1.4151 Y1.6964  
G01 X-1.4116 Y1.6912  
G01 X-1.4092 Y1.6853  
G01 X-1.4080 Y1.6792  
G01 X-1.4080 Y1.6576  
G01 X-1.3791 Y1.6418  
G01 X-1.2296 Y1.6370  
G01 X-0.8663 Y1.6370  
G01 X-0.8648 Y1.6372  
G01 X-0.8634 Y1.6370  
G01 X-0.8621 Y1.6370  
G01 X-0.8606 Y1.6366  
G01 X-0.8590 Y1.6364  
G01 X-0.8578 Y1.6358  
G01 X-0.8565 Y1.6355  
G01 X-0.8551 Y1.6347  
G01 X-0.8537 Y1.6341  
G01 X-0.8526 Y1.6333  
G01 X-0.8515 Y1.6326  
G01 X-0.8504 Y1.6315  
G01 X-0.8491 Y1.6305  
G01 X-0.8483 Y1.6295  
G01 X-0.8474 Y1.6285  
G01 X-0.8466 Y1.6271  
G01 X-0.8183 Y1.5895  
G01 X-0.8174 Y1.5885  
G01 X-0.8166 Y1.5871  
G01 X-0.8157 Y1.5859  
G01 X-0.8152 Y1.5846  
G01 X-0.8145 Y1.5835  
G01 X-0.8141 Y1.5820  
G01 X-0.8135 Y1.5805  
G01 X-0.8133 Y1.5792  
G01 X-0.8130 Y1.5779  
G01 X-0.8130 Y1.5763  
G01 X-0.8128 Y1.5748  
G01 X-0.8130 Y1.5734  
G01 X-0.8130 Y1.0277  
G01 X-0.8130 Y1.0275  
G01 X-0.8130 Y1.0248  
G01 X-0.8130 Y1.0221  
G01 X-0.8130 Y1.0219  
G01 X-0.8131 Y1.0217  
G01 X-0.8138 Y1.0191  
G01 X-0.8145 Y1.0165  
G01 X-0.8146 Y1.0163  
G01 X-0.8146 Y1.0162  
G01 X-0.8160 Y1.0138  
G01 X-0.8174 Y1.0115  
G01 X-0.8175 Y1.0114  
G01 X-0.8305 Y0.9897  
G01 X-0.8312 Y0.9881  
G01 X-0.8320 Y0.9872  
G01 X-0.8326 Y0.9862  
G01 X-0.8339 Y0.9850  
G01 X-1.0680 Y0.7040  
G00 Z0.0500  
G00 X-1.1680 Y0.7133  
G01 Z-0.0040 F10    
G01 X-1.1680 Y0.6867  F20    
G01 X-1.1867 Y0.6680  
G01 X-1.2133 Y0.6680  
G01 X-1.2320 Y0.6867  
G01 X-1.2320 Y0.7133  
G01 X-1.2133 Y0.7320  
G01 X-1.2109 Y0.7320  
G01 X-1.1542 Y0.8739  
G01 X-1.1568 Y0.8775  
G01 X-1.1598 Y0.8835  
G01 X-1.1619 Y0.8899  
G01 X-1.1630 Y0.8966  
G01 X-1.1630 Y0.9034  
G01 X-1.1619 Y0.9101  
G01 X-1.1598 Y0.9165  
G01 X-1.1568 Y0.9225  
G01 X-1.1528 Y0.9280  
G01 X-1.1480 Y0.9328  
G01 X-1.1425 Y0.9368  
G01 X-1.1365 Y0.9398  
G01 X-1.1301 Y0.9419  
G01 X-1.1234 Y0.9430  
G01 X-1.1166 Y0.9430  
G01 X-1.1099 Y0.9419  
G01 X-1.1035 Y0.9398  
G01 X-1.0975 Y0.9368  
G01 X-1.0920 Y0.9328  
G01 X-1.0872 Y0.9280  
G01 X-1.0832 Y0.9225  
G01 X-1.0802 Y0.9165  
G01 X-1.0781 Y0.9101  
G01 X-1.0770 Y0.9034  
G01 X-1.0770 Y0.8966  
G01 X-1.0781 Y0.8899  
G01 X-1.0802 Y0.8835  
G01 X-1.0832 Y0.8775  
G01 X-1.0872 Y0.8720  
G01 X-1.0920 Y0.8672  
G01 X-1.0975 Y0.8632  
G01 X-1.1035 Y0.8602  
G01 X-1.1099 Y0.8581  
G01 X-1.1133 Y0.8575  
G01 X-1.1701 Y0.7154  
G01 X-1.1680 Y0.7133  
G00 Z0.0500  
G00 X-1.1633 Y0.6570  
G01 Z-0.0040 F10    
G01 X-1.1367 Y0.6570  F20    
G01 X-1.1180 Y0.6383  
G01 X-1.1180 Y0.6117  
G01 X-1.1367 Y0.5930  
G01 X-1.1633 Y0.5930  
G01 X-1.1638 Y0.5935  
G01 X-1.2990 Y0.5259  
G01 X-1.3004 Y0.5250  
G01 X-1.3016 Y0.5246  
G01 X-1.3028 Y0.5240  
G01 X-1.3043 Y0.5237  
G01 X-1.3059 Y0.5232  
G01 X-1.3072 Y0.5231  
G01 X-1.3084 Y0.5229  
G01 X-1.3100 Y0.5230  
G01 X-1.3754 Y0.5193  
G01 X-1.3867 Y0.5080  
G01 X-1.4133 Y0.5080  
G01 X-1.4320 Y0.5267  
G01 X-1.4320 Y0.5533  
G01 X-1.4133 Y0.5720  
G01 X-1.3867 Y0.5720  
G01 X-1.3780 Y0.5633  
G01 X-1.3158 Y0.5667  
G01 X-1.1820 Y0.6336  
G01 X-1.1820 Y0.6383  
G01 X-1.1633 Y0.6570  
G00 Z0.0500  
G00 X-1.3680 Y0.6867  
G01 Z-0.0040 F10    
G01 X-1.3867 Y0.6680  F20    
G01 X-1.4133 Y0.6680  
G01 X-1.4320 Y0.6867  
G01 X-1.4320 Y0.7133  
G01 X-1.4133 Y0.7320  
G01 X-1.4008 Y0.7320  
G01 X-1.2611 Y0.8873  
G01 X-1.2619 Y0.8899  
G01 X-1.2630 Y0.8966  
G01 X-1.2630 Y0.9034  
G01 X-1.2619 Y0.9101  
G01 X-1.2598 Y0.9165  
G01 X-1.2568 Y0.9225  
G01 X-1.2528 Y0.9280  
G01 X-1.2480 Y0.9328  
G01 X-1.2425 Y0.9368  
G01 X-1.2365 Y0.9398  
G01 X-1.2301 Y0.9419  
G01 X-1.2234 Y0.9430  
G01 X-1.2166 Y0.9430  
G01 X-1.2099 Y0.9419  
G01 X-1.2035 Y0.9398  
G01 X-1.1975 Y0.9368  
G01 X-1.1920 Y0.9328  
G01 X-1.1872 Y0.9280  
G01 X-1.1832 Y0.9225  
G01 X-1.1802 Y0.9165  
G01 X-1.1781 Y0.9101  
G01 X-1.1770 Y0.9034  
G01 X-1.1770 Y0.8966  
G01 X-1.1781 Y0.8899  
G01 X-1.1802 Y0.8835  
G01 X-1.1832 Y0.8775  
G01 X-1.1872 Y0.8720  
G01 X-1.1920 Y0.8672  
G01 X-1.1975 Y0.8632  
G01 X-1.2035 Y0.8602  
G01 X-1.2099 Y0.8581  
G01 X-1.2166 Y0.8570  
G01 X-1.2234 Y0.8570  
G01 X-1.2284 Y0.8578  
G01 X-1.3680 Y0.7027  
G01 X-1.3680 Y0.6867  
G00 Z0.0500  
G00 X-1.3680 Y0.8367  
G01 Z-0.0040 F10    
G01 X-1.3867 Y0.8180  F20    
G01 X-1.4133 Y0.8180  
G01 X-1.4320 Y0.8367  
G01 X-1.4320 Y0.8633  
G01 X-1.4133 Y0.8820  
G01 X-1.4058 Y0.8820  
G01 X-1.3008 Y1.0483  
G01 X-1.2962 Y1.0710  
G01 X-1.3020 Y1.0767  
G01 X-1.3020 Y1.0863  
G01 X-1.5130 Y1.2423  
G01 X-1.5153 Y1.2439  
G01 X-1.5154 Y1.2440  
G01 X-1.5172 Y1.2462  
G01 X-1.5189 Y1.2484  
G01 X-1.5190 Y1.2486  
G01 X-1.5201 Y1.2511  
G01 X-1.5383 Y1.2920  
G01 X-1.5432 Y1.2920  
G01 X-1.5493 Y1.2932  
G01 X-1.5552 Y1.2956  
G01 X-1.5604 Y1.2991  
G01 X-1.5649 Y1.3036  
G01 X-1.5684 Y1.3088  
G01 X-1.5708 Y1.3147  
G01 X-1.5720 Y1.3208  
G01 X-1.5720 Y1.3792  
G01 X-1.5708 Y1.3853  
G01 X-1.5684 Y1.3912  
G01 X-1.5649 Y1.3964  
G01 X-1.5604 Y1.4009  
G01 X-1.5552 Y1.4044  
G01 X-1.5493 Y1.4068  
G01 X-1.5432 Y1.4080  
G01 X-1.5368 Y1.4080  
G01 X-1.5307 Y1.4068  
G01 X-1.5248 Y1.4044  
G01 X-1.5196 Y1.4009  
G01 X-1.5151 Y1.3964  
G01 X-1.5116 Y1.3912  
G01 X-1.5092 Y1.3853  
G01 X-1.5080 Y1.3792  
G01 X-1.5080 Y1.3322  
G01 X-1.4823 Y1.2742  
G01 X-1.2763 Y1.1220  
G01 X-1.2567 Y1.1220  
G01 X-1.2380 Y1.1033  
G01 X-1.2380 Y1.0767  
G01 X-1.2533 Y1.0615  
G01 X-1.2581 Y1.0374  
G01 X-1.2581 Y1.0362  
G01 X-1.2587 Y1.0346  
G01 X-1.2590 Y1.0328  
G01 X-1.2595 Y1.0318  
G01 X-1.2599 Y1.0307  
G01 X-1.2608 Y1.0292  
G01 X-1.2616 Y1.0277  
G01 X-1.2623 Y1.0268  
G01 X-1.3680 Y0.8595  
G01 X-1.3680 Y0.8367  
G00 Z0.0500  
G00 X-1.4780 Y0.9567  
G01 Z-0.0040 F10    
G01 X-1.4967 Y0.9380  F20    
G01 X-1.5233 Y0.9380  
G01 X-1.5420 Y0.9567  
G01 X-1.5420 Y0.9833  
G01 X-1.5341 Y0.9911  
G01 X-1.5462 Y1.1157  
G01 X-1.6295 Y1.2082  
G01 X-1.6296 Y1.2083  
G01 X-1.6314 Y1.2104  
G01 X-1.6333 Y1.2124  
G01 X-1.6334 Y1.2126  
G01 X-1.6347 Y1.2151  
G01 X-1.6359 Y1.2176  
G01 X-1.6359 Y1.2177  
G01 X-1.6360 Y1.2178  
G01 X-1.6365 Y1.2206  
G01 X-1.6371 Y1.2233  
G01 X-1.6371 Y1.2234  
G01 X-1.6512 Y1.2940  
G01 X-1.6552 Y1.2956  
G01 X-1.6604 Y1.2991  
G01 X-1.6649 Y1.3036  
G01 X-1.6684 Y1.3088  
G01 X-1.6708 Y1.3147  
G01 X-1.6720 Y1.3208  
G01 X-1.6720 Y1.3792  
G01 X-1.6708 Y1.3853  
G01 X-1.6684 Y1.3912  
G01 X-1.6649 Y1.3964  
G01 X-1.6604 Y1.4009  
G01 X-1.6552 Y1.4044  
G01 X-1.6493 Y1.4068  
G01 X-1.6432 Y1.4080  
G01 X-1.6368 Y1.4080  
G01 X-1.6307 Y1.4068  
G01 X-1.6248 Y1.4044  
G01 X-1.6196 Y1.4009  
G01 X-1.6151 Y1.3964  
G01 X-1.6116 Y1.3912  
G01 X-1.6092 Y1.3853  
G01 X-1.6080 Y1.3792  
G01 X-1.6080 Y1.3208  
G01 X-1.6092 Y1.3147  
G01 X-1.6101 Y1.3126  
G01 X-1.5946 Y1.2352  
G01 X-1.5097 Y1.1409  
G01 X-1.5088 Y1.1401  
G01 X-1.5078 Y1.1388  
G01 X-1.5067 Y1.1376  
G01 X-1.5061 Y1.1364  
G01 X-1.5054 Y1.1354  
G01 X-1.5048 Y1.1339  
G01 X-1.5041 Y1.1324  
G01 X-1.5038 Y1.1312  
G01 X-1.5034 Y1.1300  
G01 X-1.5032 Y1.1284  
G01 X-1.5029 Y1.1267  
G01 X-1.5029 Y1.1255  
G01 X-1.4904 Y0.9956  
G01 X-1.4780 Y0.9833  
G01 X-1.4780 Y0.9567  
G00 Z0.0500  
G00 X-1.4604 Y1.2991  
G01 Z-0.0040 F10    
G01 X-1.4649 Y1.3036  F20    
G01 X-1.4684 Y1.3088  
G01 X-1.4708 Y1.3147  
G01 X-1.4720 Y1.3208  
G01 X-1.4720 Y1.3792  
G01 X-1.4708 Y1.3853  
G01 X-1.4684 Y1.3912  
G01 X-1.4649 Y1.3964  
G01 X-1.4604 Y1.4009  
G01 X-1.4552 Y1.4044  
G01 X-1.4493 Y1.4068  
G01 X-1.4432 Y1.4080  
G01 X-1.4368 Y1.4080  
G01 X-1.4307 Y1.4068  
G01 X-1.4248 Y1.4044  
G01 X-1.4196 Y1.4009  
G01 X-1.4151 Y1.3964  
G01 X-1.4116 Y1.3912  
G01 X-1.4092 Y1.3853  
G01 X-1.4080 Y1.3792  
G01 X-1.4080 Y1.3745  
G01 X-1.1850 Y1.3917  
G01 X-0.9820 Y1.4711  
G01 X-0.9820 Y1.4733  
G01 X-0.9633 Y1.4920  
G01 X-0.9367 Y1.4920  
G01 X-0.9180 Y1.4733  
G01 X-0.9180 Y1.4467  
G01 X-0.9367 Y1.4280  
G01 X-0.9633 Y1.4280  
G01 X-0.9655 Y1.4303  
G01 X-1.1696 Y1.3504  
G01 X-1.1700 Y1.3502  
G01 X-1.1723 Y1.3494  
G01 X-1.1747 Y1.3485  
G01 X-1.1751 Y1.3484  
G01 X-1.1754 Y1.3483  
G01 X-1.1779 Y1.3481  
G01 X-1.1804 Y1.3478  
G01 X-1.1808 Y1.3479  
G01 X-1.4080 Y1.3304  
G01 X-1.4080 Y1.3208  
G01 X-1.4092 Y1.3147  
G01 X-1.4116 Y1.3088  
G01 X-1.4151 Y1.3036  
G01 X-1.4196 Y1.2991  
G01 X-1.4248 Y1.2956  
G01 X-1.4307 Y1.2932  
G01 X-1.4368 Y1.2920  
G01 X-1.4432 Y1.2920  
G01 X-1.4493 Y1.2932  
G01 X-1.4552 Y1.2956  
G01 X-1.4604 Y1.2991  
G00 Z0.0500  
G00 X-1.3072 Y1.4480  
G01 Z-0.0040 F10    
G01 X-1.6539 Y1.4480  F20    
G01 X-1.7930 Y1.4345  
G01 X-1.8083 Y1.3808  
G01 X-1.8080 Y1.3792  
G01 X-1.8080 Y1.3208  
G01 X-1.8092 Y1.3147  
G01 X-1.8116 Y1.3088  
G01 X-1.8151 Y1.3036  
G01 X-1.8196 Y1.2991  
G01 X-1.8248 Y1.2956  
G01 X-1.8307 Y1.2932  
G01 X-1.8368 Y1.2920  
G01 X-1.8432 Y1.2920  
G01 X-1.8493 Y1.2932  
G01 X-1.8552 Y1.2956  
G01 X-1.8604 Y1.2991  
G01 X-1.8649 Y1.3036  
G01 X-1.8684 Y1.3088  
G01 X-1.8708 Y1.3147  
G01 X-1.8720 Y1.3208  
G01 X-1.8720 Y1.3792  
G01 X-1.8708 Y1.3853  
G01 X-1.8684 Y1.3912  
G01 X-1.8649 Y1.3964  
G01 X-1.8604 Y1.4009  
G01 X-1.8552 Y1.4044  
G01 X-1.8493 Y1.4068  
G01 X-1.8465 Y1.4073  
G01 X-1.8315 Y1.4598  
G01 X-1.8312 Y1.4615  
G01 X-1.8307 Y1.4626  
G01 X-1.8304 Y1.4638  
G01 X-1.8295 Y1.4652  
G01 X-1.8288 Y1.4667  
G01 X-1.8280 Y1.4677  
G01 X-1.8274 Y1.4688  
G01 X-1.8262 Y1.4699  
G01 X-1.8251 Y1.4712  
G01 X-1.8241 Y1.4720  
G01 X-1.8232 Y1.4728  
G01 X-1.8218 Y1.4736  
G01 X-1.8204 Y1.4746  
G01 X-1.8193 Y1.4750  
G01 X-1.8182 Y1.4756  
G01 X-1.8165 Y1.4760  
G01 X-1.8150 Y1.4766  
G01 X-1.8138 Y1.4767  
G01 X-1.8125 Y1.4770  
G01 X-1.8109 Y1.4770  
G01 X-1.6589 Y1.4917  
G01 X-1.6579 Y1.4920  
G01 X-1.6561 Y1.4920  
G01 X-1.6542 Y1.4922  
G01 X-1.6532 Y1.4920  
G01 X-1.3086 Y1.4920  
G01 X-1.3006 Y1.4947  
G01 X-1.2833 Y1.5120  
G01 X-1.2567 Y1.5120  
G01 X-1.2380 Y1.4933  
G01 X-1.2380 Y1.4667  
G01 X-1.2567 Y1.4480  
G01 X-1.2833 Y1.4480  
G01 X-1.2878 Y1.4525  
G01 X-1.2959 Y1.4498  
G01 X-1.2965 Y1.4495  
G01 X-1.2987 Y1.4489  
G01 X-1.3008 Y1.4482  
G01 X-1.3015 Y1.4482  
G01 X-1.3021 Y1.4480  
G01 X-1.3043 Y1.4480  
G01 X-1.3066 Y1.4479  
G01 X-1.3072 Y1.4480  
G00 Z0.0500  
G00 X-1.3484 Y1.6780  
G01 Z-0.0040 F10    
G01 X-1.3498 Y1.6778  F20    
G01 X-1.3513 Y1.6780  
G01 X-1.3529 Y1.6780  
G01 X-1.3542 Y1.6783  
G01 X-1.3555 Y1.6785  
G01 X-1.3570 Y1.6791  
G01 X-1.3585 Y1.6795  
G01 X-1.3596 Y1.6802  
G01 X-1.3609 Y1.6807  
G01 X-1.3621 Y1.6816  
G01 X-1.3635 Y1.6824  
G01 X-1.3645 Y1.6833  
G01 X-1.4821 Y1.7716  
G01 X-1.4835 Y1.7724  
G01 X-1.4845 Y1.7733  
G01 X-1.4855 Y1.7741  
G01 X-1.4865 Y1.7754  
G01 X-1.4943 Y1.7832  
G01 X-1.6271 Y1.8780  
G01 X-1.7117 Y1.8780  
G01 X-1.7135 Y1.8763  
G01 X-1.7170 Y1.6983  
G01 X-1.7151 Y1.6964  
G01 X-1.7116 Y1.6912  
G01 X-1.7092 Y1.6853  
G01 X-1.7080 Y1.6792  
G01 X-1.7080 Y1.6208  
G01 X-1.7092 Y1.6147  
G01 X-1.7116 Y1.6088  
G01 X-1.7151 Y1.6036  
G01 X-1.7196 Y1.5991  
G01 X-1.7248 Y1.5956  
G01 X-1.7307 Y1.5932  
G01 X-1.7368 Y1.5920  
G01 X-1.7432 Y1.5920  
G01 X-1.7493 Y1.5932  
G01 X-1.7552 Y1.5956  
G01 X-1.7604 Y1.5991  
G01 X-1.7649 Y1.6036  
G01 X-1.7684 Y1.6088  
G01 X-1.7708 Y1.6147  
G01 X-1.7720 Y1.6208  
G01 X-1.7720 Y1.6792  
G01 X-1.7708 Y1.6853  
G01 X-1.7684 Y1.6912  
G01 X-1.7649 Y1.6964  
G01 X-1.7610 Y1.7003  
G01 X-1.7575 Y1.8772  
G01 X-1.7670 Y1.8867  
G01 X-1.7670 Y1.9133  
G01 X-1.7483 Y1.9320  
G01 X-1.7217 Y1.9320  
G01 X-1.7117 Y1.9220  
G01 X-1.6218 Y1.9220  
G01 X-1.6208 Y1.9222  
G01 X-1.6189 Y1.9220  
G01 X-1.6171 Y1.9220  
G01 X-1.6161 Y1.9217  
G01 X-1.6150 Y1.9216  
G01 X-1.6133 Y1.9210  
G01 X-1.6115 Y1.9205  
G01 X-1.6106 Y1.9200  
G01 X-1.6096 Y1.9196  
G01 X-1.6081 Y1.9185  
G01 X-1.6065 Y1.9176  
G01 X-1.6057 Y1.9168  
G01 X-1.4681 Y1.8185  
G01 X-1.4665 Y1.8176  
G01 X-1.4657 Y1.8168  
G01 X-1.4649 Y1.8162  
G01 X-1.4637 Y1.8148  
G01 X-1.4555 Y1.8067  
G01 X-1.3427 Y1.7220  
G01 X-1.0591 Y1.7220  
G01 X-0.8797 Y1.9014  
G01 X-0.8797 Y1.9249  
G01 X-0.8788 Y1.9271  
G01 X-0.8771 Y1.9288  
G01 X-0.8749 Y1.9297  
G01 X-0.8251 Y1.9297  
G01 X-0.8229 Y1.9288  
G01 X-0.8212 Y1.9271  
G01 X-0.8203 Y1.9249  
G01 X-0.8203 Y1.8751  
G01 X-0.8212 Y1.8729  
G01 X-0.8229 Y1.8712  
G01 X-0.8251 Y1.8703  
G01 X-0.8486 Y1.8703  
G01 X-1.0324 Y1.6865  
G01 X-1.0365 Y1.6824  
G01 X-1.0415 Y1.6795  
G01 X-1.0471 Y1.6780  
G01 X-1.3484 Y1.6780  
G00 Z0.0500  
G00 X-1.3385 Y1.7424  
G01 Z-0.0040 F10    
G01 X-1.3393 Y1.7432  F20    
G01 X-1.6323 Y1.9532  
G01 X-1.7853 Y1.9574  
G01 X-1.8133 Y1.6936  
G01 X-1.8116 Y1.6912  
G01 X-1.8092 Y1.6853  
G01 X-1.8080 Y1.6792  
G01 X-1.8080 Y1.6208  
G01 X-1.8092 Y1.6147  
G01 X-1.8116 Y1.6088  
G01 X-1.8151 Y1.6036  
G01 X-1.8196 Y1.5991  
G01 X-1.8248 Y1.5956  
G01 X-1.8307 Y1.5932  
G01 X-1.8368 Y1.5920  
G01 X-1.8432 Y1.5920  
G01 X-1.8493 Y1.5932  
G01 X-1.8552 Y1.5956  
G01 X-1.8604 Y1.5991  
G01 X-1.8649 Y1.6036  
G01 X-1.8684 Y1.6088  
G01 X-1.8708 Y1.6147  
G01 X-1.8720 Y1.6208  
G01 X-1.8720 Y1.6792  
G01 X-1.8708 Y1.6853  
G01 X-1.8684 Y1.6912  
G01 X-1.8649 Y1.6964  
G01 X-1.8604 Y1.7009  
G01 X-1.8564 Y1.7035  
G01 X-1.8270 Y1.9815  
G01 X-1.8269 Y1.9835  
G01 X-1.8267 Y1.9843  
G01 X-1.8266 Y1.9852  
G01 X-1.8258 Y1.9871  
G01 X-1.8253 Y1.9891  
G01 X-1.8248 Y1.9898  
G01 X-1.8245 Y1.9906  
G01 X-1.8233 Y1.9923  
G01 X-1.8222 Y1.9940  
G01 X-1.8216 Y1.9946  
G01 X-1.8211 Y1.9953  
G01 X-1.8195 Y1.9966  
G01 X-1.8180 Y1.9980  
G01 X-1.8173 Y1.9984  
G01 X-1.8166 Y1.9989  
G01 X-1.8147 Y1.9998  
G01 X-1.8129 Y2.0007  
G01 X-1.8121 Y2.0009  
G01 X-1.8113 Y2.0013  
G01 X-1.8093 Y2.0016  
G01 X-1.8073 Y2.0021  
G01 X-1.8064 Y2.0020  
G01 X-1.8056 Y2.0022  
G01 X-1.8035 Y2.0020  
G01 X-1.6265 Y1.9970  
G01 X-1.6257 Y1.9972  
G01 X-1.6236 Y1.9970  
G01 X-1.6215 Y1.9969  
G01 X-1.6207 Y1.9967  
G01 X-1.6200 Y1.9966  
G01 X-1.6180 Y1.9959  
G01 X-1.6159 Y1.9953  
G01 X-1.6153 Y1.9948  
G01 X-1.6145 Y1.9946  
G01 X-1.6128 Y1.9933  
G01 X-1.6110 Y1.9922  
G01 X-1.6105 Y1.9917  
G01 X-1.3179 Y1.7820  
G01 X-1.1398 Y1.7820  
G01 X-1.1248 Y1.9246  
G01 X-1.1276 Y1.9274  
G01 X-1.1315 Y1.9332  
G01 X-1.1341 Y1.9396  
G01 X-1.1355 Y1.9465  
G01 X-1.1355 Y1.9535  
G01 X-1.1341 Y1.9604  
G01 X-1.1315 Y1.9668  
G01 X-1.1276 Y1.9726  
G01 X-1.1226 Y1.9776  
G01 X-1.1168 Y1.9815  
G01 X-1.1104 Y1.9841  
G01 X-1.1035 Y1.9855  
G01 X-1.0965 Y1.9855  
G01 X-1.0896 Y1.9841  
G01 X-1.0832 Y1.9815  
G01 X-1.0774 Y1.9776  
G01 X-1.0724 Y1.9726  
G01 X-1.0685 Y1.9668  
G01 X-1.0659 Y1.9604  
G01 X-1.0645 Y1.9535  
G01 X-1.0645 Y1.9465  
G01 X-1.0659 Y1.9396  
G01 X-1.0685 Y1.9332  
G01 X-1.0724 Y1.9274  
G01 X-1.0774 Y1.9224  
G01 X-1.0810 Y1.9200  
G01 X-1.0980 Y1.7588  
G01 X-1.0980 Y1.7571  
G01 X-1.0983 Y1.7560  
G01 X-1.0984 Y1.7548  
G01 X-1.0990 Y1.7532  
G01 X-1.0995 Y1.7515  
G01 X-1.1001 Y1.7505  
G01 X-1.1005 Y1.7494  
G01 X-1.1015 Y1.7480  
G01 X-1.1024 Y1.7465  
G01 X-1.1032 Y1.7457  
G01 X-1.1039 Y1.7447  
G01 X-1.1053 Y1.7436  
G01 X-1.1065 Y1.7424  
G01 X-1.1075 Y1.7418  
G01 X-1.1084 Y1.7411  
G01 X-1.1100 Y1.7404  
G01 X-1.1115 Y1.7395  
G01 X-1.1126 Y1.7392  
G01 X-1.1137 Y1.7387  
G01 X-1.1154 Y1.7385  
G01 X-1.1171 Y1.7380  
G01 X-1.1183 Y1.7380  
G01 X-1.1194 Y1.7378  
G01 X-1.1212 Y1.7380  
G01 X-1.3232 Y1.7380  
G01 X-1.3243 Y1.7378  
G01 X-1.3261 Y1.7380  
G01 X-1.3279 Y1.7380  
G01 X-1.3290 Y1.7383  
G01 X-1.3300 Y1.7384  
G01 X-1.3317 Y1.7390  
G01 X-1.3335 Y1.7395  
G01 X-1.3344 Y1.7400  
G01 X-1.3355 Y1.7404  
G01 X-1.3369 Y1.7415  
G01 X-1.3385 Y1.7424  
G00 Z0.0500  
G00 X-1.2833 Y1.8480  
G01 Z-0.0040 F10    
G01 X-1.3020 Y1.8667  F20    
G01 X-1.3020 Y1.8710  
G01 X-1.3031 Y1.8721  
G01 X-1.3032 Y1.8724  
G01 X-1.3034 Y1.8726  
G01 X-1.3046 Y1.8749  
G01 X-1.3058 Y1.8772  
G01 X-1.3058 Y1.8775  
G01 X-1.3060 Y1.8778  
G01 X-1.3065 Y1.8803  
G01 X-1.3152 Y1.9179  
G01 X-1.3168 Y1.9185  
G01 X-1.3226 Y1.9224  
G01 X-1.3276 Y1.9274  
G01 X-1.3315 Y1.9332  
G01 X-1.3341 Y1.9396  
G01 X-1.3355 Y1.9465  
G01 X-1.3355 Y1.9535  
G01 X-1.3341 Y1.9604  
G01 X-1.3315 Y1.9668  
G01 X-1.3276 Y1.9726  
G01 X-1.3226 Y1.9776  
G01 X-1.3168 Y1.9815  
G01 X-1.3104 Y1.9841  
G01 X-1.3035 Y1.9855  
G01 X-1.2965 Y1.9855  
G01 X-1.2896 Y1.9841  
G01 X-1.2832 Y1.9815  
G01 X-1.2774 Y1.9776  
G01 X-1.2724 Y1.9726  
G01 X-1.2685 Y1.9668  
G01 X-1.2659 Y1.9604  
G01 X-1.2645 Y1.9535  
G01 X-1.2645 Y1.9465  
G01 X-1.2659 Y1.9396  
G01 X-1.2685 Y1.9332  
G01 X-1.2723 Y1.9276  
G01 X-1.2687 Y1.9120  
G01 X-1.2567 Y1.9120  
G01 X-1.2380 Y1.8933  
G01 X-1.2380 Y1.8667  
G01 X-1.2567 Y1.8480  
G01 X-1.2833 Y1.8480  
G00 Z0.0500  
G00 X-1.2116 Y2.0280  
G01 Z-0.0040 F10    
G01 X-1.3972 Y2.0280  F20    
G01 X-1.4001 Y2.0280  
G01 X-1.4029 Y2.0280  
G01 X-1.4031 Y2.0280  
G01 X-1.4058 Y2.0288  
G01 X-1.4085 Y2.0295  
G01 X-1.5830 Y2.0780  
G01 X-1.8545 Y2.0780  
G01 X-1.8570 Y2.0779  
G01 X-1.8574 Y2.0780  
G01 X-1.8579 Y2.0780  
G01 X-1.8603 Y2.0786  
G01 X-1.8626 Y2.0792  
G01 X-1.8630 Y2.0794  
G01 X-1.8635 Y2.0795  
G01 X-1.8656 Y2.0807  
G01 X-1.8678 Y2.0819  
G01 X-1.8681 Y2.0822  
G01 X-1.8685 Y2.0824  
G01 X-1.8702 Y2.0841  
G01 X-1.8720 Y2.0858  
G01 X-1.8723 Y2.0862  
G01 X-1.8726 Y2.0865  
G01 X-1.8738 Y2.0886  
G01 X-1.9402 Y2.1934  
G01 X-1.9407 Y2.1932  
G01 X-1.9468 Y2.1920  
G01 X-1.9532 Y2.1920  
G01 X-1.9593 Y2.1932  
G01 X-1.9652 Y2.1956  
G01 X-1.9704 Y2.1991  
G01 X-1.9749 Y2.2036  
G01 X-1.9784 Y2.2088  
G01 X-1.9808 Y2.2147  
G01 X-1.9820 Y2.2208  
G01 X-1.9820 Y2.2792  
G01 X-1.9808 Y2.2853  
G01 X-1.9784 Y2.2912  
G01 X-1.9749 Y2.2964  
G01 X-1.9704 Y2.3009  
G01 X-1.9652 Y2.3044  
G01 X-1.9593 Y2.3068  
G01 X-1.9532 Y2.3080  
G01 X-1.9468 Y2.3080  
G01 X-1.9407 Y2.3068  
G01 X-1.9348 Y2.3044  
G01 X-1.9296 Y2.3009  
G01 X-1.9251 Y2.2964  
G01 X-1.9216 Y2.2912  
G01 X-1.9192 Y2.2853  
G01 X-1.9180 Y2.2792  
G01 X-1.9180 Y2.2406  
G01 X-1.8429 Y2.1220  
G01 X-1.5828 Y2.1220  
G01 X-1.5799 Y2.1220  
G01 X-1.5771 Y2.1220  
G01 X-1.5769 Y2.1220  
G01 X-1.5742 Y2.1212  
G01 X-1.5715 Y2.1205  
G01 X-1.3970 Y2.0720  
G01 X-1.2142 Y2.0720  
G01 X-1.0710 Y2.1293  
G01 X-1.0176 Y2.1704  
G01 X-1.0204 Y2.2209  
G01 X-1.0226 Y2.2224  
G01 X-1.0276 Y2.2274  
G01 X-1.0315 Y2.2332  
G01 X-1.0341 Y2.2396  
G01 X-1.0355 Y2.2465  
G01 X-1.0355 Y2.2535  
G01 X-1.0341 Y2.2604  
G01 X-1.0322 Y2.2651  
G01 X-1.0636 Y2.3280  
G01 X-1.1529 Y2.3280  
G01 X-1.1585 Y2.3295  
G01 X-1.1635 Y2.3324  
G01 X-1.2135 Y2.3824  
G01 X-1.2176 Y2.3865  
G01 X-1.2205 Y2.3915  
G01 X-1.2220 Y2.3971  
G01 X-1.2220 Y2.4612  
G01 X-1.2430 Y2.4822  
G01 X-1.2430 Y2.5178  
G01 X-1.2178 Y2.5430  
G01 X-1.1822 Y2.5430  
G01 X-1.1570 Y2.5178  
G01 X-1.1570 Y2.4822  
G01 X-1.1780 Y2.4612  
G01 X-1.1780 Y2.4091  
G01 X-1.1409 Y2.3720  
G01 X-1.0522 Y2.3720  
G01 X-1.0516 Y2.3721  
G01 X-1.0493 Y2.3720  
G01 X-1.0471 Y2.3720  
G01 X-1.0465 Y2.3718  
G01 X-1.0458 Y2.3718  
G01 X-1.0437 Y2.3711  
G01 X-1.0415 Y2.3705  
G01 X-1.0409 Y2.3702  
G01 X-1.0403 Y2.3700  
G01 X-1.0384 Y2.3687  
G01 X-1.0365 Y2.3676  
G01 X-1.0360 Y2.3671  
G01 X-1.0355 Y2.3668  
G01 X-1.0340 Y2.3651  
G01 X-1.0324 Y2.3635  
G01 X-1.0321 Y2.3629  
G01 X-1.0316 Y2.3624  
G01 X-1.0306 Y2.3604  
G01 X-1.0295 Y2.3585  
G01 X-1.0293 Y2.3578  
G01 X-0.9928 Y2.2848  
G01 X-0.9896 Y2.2841  
G01 X-0.9832 Y2.2815  
G01 X-0.9774 Y2.2776  
G01 X-0.9724 Y2.2726  
G01 X-0.9685 Y2.2668  
G01 X-0.9659 Y2.2604  
G01 X-0.9645 Y2.2535  
G01 X-0.9645 Y2.2465  
G01 X-0.9659 Y2.2396  
G01 X-0.9685 Y2.2332  
G01 X-0.9724 Y2.2274  
G01 X-0.9765 Y2.2233  
G01 X-0.9731 Y2.1621  
G01 X-0.9728 Y2.1600  
G01 X-0.9729 Y2.1592  
G01 X-0.9729 Y2.1583  
G01 X-0.9733 Y2.1563  
G01 X-0.9736 Y2.1543  
G01 X-0.9739 Y2.1535  
G01 X-0.9741 Y2.1527  
G01 X-0.9750 Y2.1508  
G01 X-0.9758 Y2.1489  
G01 X-0.9763 Y2.1483  
G01 X-0.9767 Y2.1475  
G01 X-0.9780 Y2.1460  
G01 X-0.9793 Y2.1443  
G01 X-0.9800 Y2.1438  
G01 X-0.9805 Y2.1432  
G01 X-0.9823 Y2.1420  
G01 X-1.0444 Y2.0942  
G01 X-1.0445 Y2.0941  
G01 X-1.0467 Y2.0925  
G01 X-1.0489 Y2.0908  
G01 X-1.0490 Y2.0907  
G01 X-1.0491 Y2.0906  
G01 X-1.0517 Y2.0896  
G01 X-1.0542 Y2.0886  
G01 X-1.0544 Y2.0886  
G01 X-1.2004 Y2.0302  
G01 X-1.2015 Y2.0295  
G01 X-1.2030 Y2.0291  
G01 X-1.2045 Y2.0285  
G01 X-1.2058 Y2.0283  
G01 X-1.2071 Y2.0280  
G01 X-1.2087 Y2.0280  
G01 X-1.2103 Y2.0278  
G01 X-1.2116 Y2.0280  
G00 Z0.0500  
G00 X-1.2115 Y2.0895  
G01 Z-0.0040 F10    
G01 X-1.2141 Y2.0888  F20    
G01 X-1.2167 Y2.0881  
G01 X-1.2169 Y2.0880  
G01 X-1.2171 Y2.0880  
G01 X-1.2198 Y2.0880  
G01 X-1.2225 Y2.0880  
G01 X-1.2227 Y2.0880  
G01 X-1.4278 Y2.0880  
G01 X-1.4284 Y2.0879  
G01 X-1.4307 Y2.0880  
G01 X-1.4329 Y2.0880  
G01 X-1.4335 Y2.0882  
G01 X-1.4342 Y2.0882  
G01 X-1.4363 Y2.0889  
G01 X-1.4385 Y2.0895  
G01 X-1.4391 Y2.0898  
G01 X-1.5833 Y2.1379  
G01 X-1.7973 Y2.1331  
G01 X-1.7980 Y2.1329  
G01 X-1.8002 Y2.1330  
G01 X-1.8024 Y2.1329  
G01 X-1.8031 Y2.1331  
G01 X-1.8038 Y2.1331  
G01 X-1.8059 Y2.1338  
G01 X-1.8080 Y2.1343  
G01 X-1.8086 Y2.1346  
G01 X-1.8093 Y2.1348  
G01 X-1.8112 Y2.1360  
G01 X-1.8131 Y2.1371  
G01 X-1.8136 Y2.1376  
G01 X-1.8142 Y2.1379  
G01 X-1.8157 Y2.1396  
G01 X-1.8173 Y2.1411  
G01 X-1.8177 Y2.1417  
G01 X-1.8181 Y2.1422  
G01 X-1.8192 Y2.1442  
G01 X-1.8203 Y2.1460  
G01 X-1.8205 Y2.1467  
G01 X-1.8446 Y2.1925  
G01 X-1.8468 Y2.1920  
G01 X-1.8532 Y2.1920  
G01 X-1.8593 Y2.1932  
G01 X-1.8652 Y2.1956  
G01 X-1.8704 Y2.1991  
G01 X-1.8749 Y2.2036  
G01 X-1.8784 Y2.2088  
G01 X-1.8808 Y2.2147  
G01 X-1.8820 Y2.2208  
G01 X-1.8820 Y2.2792  
G01 X-1.8808 Y2.2853  
G01 X-1.8784 Y2.2912  
G01 X-1.8749 Y2.2964  
G01 X-1.8704 Y2.3009  
G01 X-1.8652 Y2.3044  
G01 X-1.8593 Y2.3068  
G01 X-1.8532 Y2.3080  
G01 X-1.8468 Y2.3080  
G01 X-1.8407 Y2.3068  
G01 X-1.8348 Y2.3044  
G01 X-1.8296 Y2.3009  
G01 X-1.8251 Y2.2964  
G01 X-1.8216 Y2.2912  
G01 X-1.8192 Y2.2853  
G01 X-1.8180 Y2.2792  
G01 X-1.8180 Y2.2364  
G01 X-1.7869 Y2.1773  
G01 X-1.5825 Y2.1819  
G01 X-1.5816 Y2.1821  
G01 X-1.5796 Y2.1820  
G01 X-1.5776 Y2.1821  
G01 X-1.5767 Y2.1818  
G01 X-1.5758 Y2.1818  
G01 X-1.5739 Y2.1812  
G01 X-1.5720 Y2.1807  
G01 X-1.5712 Y2.1802  
G01 X-1.4264 Y2.1320  
G01 X-1.2261 Y2.1320  
G01 X-1.1586 Y2.1725  
G01 X-1.1584 Y2.1727  
G01 X-1.1561 Y2.1740  
G01 X-1.1538 Y2.1754  
G01 X-1.1536 Y2.1754  
G01 X-1.1296 Y2.1891  
G01 X-1.1229 Y2.2227  
G01 X-1.1276 Y2.2274  
G01 X-1.1315 Y2.2332  
G01 X-1.1341 Y2.2396  
G01 X-1.1355 Y2.2465  
G01 X-1.1355 Y2.2535  
G01 X-1.1341 Y2.2604  
G01 X-1.1315 Y2.2668  
G01 X-1.1276 Y2.2726  
G01 X-1.1226 Y2.2776  
G01 X-1.1168 Y2.2815  
G01 X-1.1104 Y2.2841  
G01 X-1.1035 Y2.2855  
G01 X-1.0965 Y2.2855  
G01 X-1.0896 Y2.2841  
G01 X-1.0832 Y2.2815  
G01 X-1.0774 Y2.2776  
G01 X-1.0724 Y2.2726  
G01 X-1.0685 Y2.2668  
G01 X-1.0659 Y2.2604  
G01 X-1.0645 Y2.2535  
G01 X-1.0645 Y2.2465  
G01 X-1.0659 Y2.2396  
G01 X-1.0685 Y2.2332  
G01 X-1.0724 Y2.2274  
G01 X-1.0774 Y2.2224  
G01 X-1.0780 Y2.2220  
G01 X-1.0786 Y2.2200  
G01 X-1.0880 Y2.1728  
G01 X-1.0880 Y2.1720  
G01 X-1.0886 Y2.1699  
G01 X-1.0890 Y2.1678  
G01 X-1.0893 Y2.1672  
G01 X-1.0895 Y2.1664  
G01 X-1.0906 Y2.1646  
G01 X-1.0916 Y2.1627  
G01 X-1.0921 Y2.1621  
G01 X-1.0925 Y2.1614  
G01 X-1.0940 Y2.1599  
G01 X-1.0954 Y2.1583  
G01 X-1.0960 Y2.1579  
G01 X-1.0966 Y2.1573  
G01 X-1.0984 Y2.1563  
G01 X-1.1002 Y2.1551  
G01 X-1.1009 Y2.1548  
G01 X-1.1339 Y2.1360  
G01 X-1.2064 Y2.0925  
G01 X-1.2065 Y2.0924  
G01 X-1.2088 Y2.0910  
G01 X-1.2112 Y2.0896  
G01 X-1.2113 Y2.0896  
G01 X-1.2115 Y2.0895  
G00 Z0.0500  
G00 X-1.2324 Y2.1565  
G01 Z-0.0040 F10    
G01 X-1.2365 Y2.1524  F20    
G01 X-1.2415 Y2.1495  
G01 X-1.2471 Y2.1480  
G01 X-1.3788 Y2.1480  
G01 X-1.3804 Y2.1478  
G01 X-1.3817 Y2.1480  
G01 X-1.3829 Y2.1480  
G01 X-1.3845 Y2.1484  
G01 X-1.3862 Y2.1487  
G01 X-1.3873 Y2.1492  
G01 X-1.3885 Y2.1495  
G01 X-1.3899 Y2.1503  
G01 X-1.3915 Y2.1510  
G01 X-1.3924 Y2.1518  
G01 X-1.3935 Y2.1524  
G01 X-1.3947 Y2.1536  
G01 X-1.6377 Y2.3480  
G01 X-1.9809 Y2.3480  
G01 X-1.9913 Y2.3376  
G01 X-2.0180 Y2.2708  
G01 X-2.0180 Y2.2208  
G01 X-2.0192 Y2.2147  
G01 X-2.0216 Y2.2088  
G01 X-2.0251 Y2.2036  
G01 X-2.0296 Y2.1991  
G01 X-2.0348 Y2.1956  
G01 X-2.0407 Y2.1932  
G01 X-2.0468 Y2.1920  
G01 X-2.0532 Y2.1920  
G01 X-2.0593 Y2.1932  
G01 X-2.0652 Y2.1956  
G01 X-2.0704 Y2.1991  
G01 X-2.0749 Y2.2036  
G01 X-2.0784 Y2.2088  
G01 X-2.0808 Y2.2147  
G01 X-2.0820 Y2.2208  
G01 X-2.0820 Y2.2792  
G01 X-2.0808 Y2.2853  
G01 X-2.0784 Y2.2912  
G01 X-2.0749 Y2.2964  
G01 X-2.0704 Y2.3009  
G01 X-2.0652 Y2.3044  
G01 X-2.0593 Y2.3068  
G01 X-2.0532 Y2.3080  
G01 X-2.0505 Y2.3080  
G01 X-2.0309 Y2.3570  
G01 X-2.0305 Y2.3585  
G01 X-2.0298 Y2.3596  
G01 X-2.0294 Y2.3609  
G01 X-2.0284 Y2.3621  
G01 X-2.0276 Y2.3635  
G01 X-2.0267 Y2.3644  
G01 X-2.0259 Y2.3655  
G01 X-2.0246 Y2.3665  
G01 X-2.0076 Y2.3835  
G01 X-2.0035 Y2.3876  
G01 X-1.9985 Y2.3905  
G01 X-1.9929 Y2.3920  
G01 X-1.6451 Y2.3920  
G01 X-1.6016 Y2.5051  
G01 X-1.5920 Y2.6011  
G01 X-1.5920 Y2.6029  
G01 X-1.5917 Y2.6040  
G01 X-1.5916 Y2.6051  
G01 X-1.5910 Y2.6068  
G01 X-1.5905 Y2.6085  
G01 X-1.5899 Y2.6095  
G01 X-1.5896 Y2.6105  
G01 X-1.5885 Y2.6119  
G01 X-1.5876 Y2.6135  
G01 X-1.5868 Y2.6143  
G01 X-1.5862 Y2.6152  
G01 X-1.5848 Y2.6163  
G01 X-1.5835 Y2.6176  
G01 X-1.5825 Y2.6182  
G01 X-1.5817 Y2.6189  
G01 X-1.5800 Y2.6196  
G01 X-1.5785 Y2.6205  
G01 X-1.5774 Y2.6208  
G01 X-1.5764 Y2.6212  
G01 X-1.5746 Y2.6215  
G01 X-1.5729 Y2.6220  
G01 X-1.5718 Y2.6220  
G01 X-1.5707 Y2.6222  
G01 X-1.5689 Y2.6220  
G01 X-1.3430 Y2.6220  
G01 X-1.3430 Y2.6382  
G01 X-1.3421 Y2.6404  
G01 X-1.3404 Y2.6421  
G01 X-1.3382 Y2.6430  
G01 X-1.2618 Y2.6430  
G01 X-1.2596 Y2.6421  
G01 X-1.2579 Y2.6404  
G01 X-1.2570 Y2.6382  
G01 X-1.2570 Y2.5618  
G01 X-1.2579 Y2.5596  
G01 X-1.2596 Y2.5579  
G01 X-1.2618 Y2.5570  
G01 X-1.3382 Y2.5570  
G01 X-1.3404 Y2.5579  
G01 X-1.3421 Y2.5596  
G01 X-1.3430 Y2.5618  
G01 X-1.3430 Y2.5780  
G01 X-1.5501 Y2.5780  
G01 X-1.5578 Y2.5006  
G01 X-1.5581 Y2.4977  
G01 X-1.5584 Y2.4949  
G01 X-1.5584 Y2.4948  
G01 X-1.5594 Y2.4922  
G01 X-1.5604 Y2.4895  
G01 X-1.6037 Y2.3771  
G01 X-1.3723 Y2.1920  
G01 X-1.2591 Y2.1920  
G01 X-1.2257 Y2.2255  
G01 X-1.2276 Y2.2274  
G01 X-1.2315 Y2.2332  
G01 X-1.2341 Y2.2396  
G01 X-1.2355 Y2.2465  
G01 X-1.2355 Y2.2535  
G01 X-1.2341 Y2.2604  
G01 X-1.2315 Y2.2668  
G01 X-1.2276 Y2.2726  
G01 X-1.2226 Y2.2776  
G01 X-1.2168 Y2.2815  
G01 X-1.2104 Y2.2841  
G01 X-1.2035 Y2.2855  
G01 X-1.1965 Y2.2855  
G01 X-1.1896 Y2.2841  
G01 X-1.1832 Y2.2815  
G01 X-1.1774 Y2.2776  
G01 X-1.1724 Y2.2726  
G01 X-1.1685 Y2.2668  
G01 X-1.1659 Y2.2604  
G01 X-1.1645 Y2.2535  
G01 X-1.1645 Y2.2465  
G01 X-1.1659 Y2.2396  
G01 X-1.1685 Y2.2332  
G01 X-1.1724 Y2.2274  
G01 X-1.1774 Y2.2224  
G01 X-1.1780 Y2.2220  
G01 X-1.1780 Y2.2171  
G01 X-1.1795 Y2.2115  
G01 X-1.1824 Y2.2065  
G01 X-1.2324 Y2.1565  
G00 Z0.0500  
G00 X-1.2654 Y2.2171  
G01 Z-0.0040 F10    
G01 X-1.2671 Y2.2154  F20    
G01 X-1.2693 Y2.2145  
G01 X-1.3307 Y2.2145  
G01 X-1.3329 Y2.2154  
G01 X-1.3346 Y2.2171  
G01 X-1.3355 Y2.2193  
G01 X-1.3355 Y2.2807  
G01 X-1.3346 Y2.2829  
G01 X-1.3329 Y2.2846  
G01 X-1.3307 Y2.2855  
G01 X-1.3220 Y2.2855  
G01 X-1.3220 Y2.4612  
G01 X-1.3388 Y2.4780  
G01 X-1.4703 Y2.4780  
G01 X-1.4703 Y2.4751  
G01 X-1.4712 Y2.4729  
G01 X-1.4729 Y2.4712  
G01 X-1.4751 Y2.4703  
G01 X-1.5249 Y2.4703  
G01 X-1.5271 Y2.4712  
G01 X-1.5288 Y2.4729  
G01 X-1.5297 Y2.4751  
G01 X-1.5297 Y2.5249  
G01 X-1.5288 Y2.5271  
G01 X-1.5271 Y2.5288  
G01 X-1.5249 Y2.5297  
G01 X-1.4751 Y2.5297  
G01 X-1.4729 Y2.5288  
G01 X-1.4712 Y2.5271  
G01 X-1.4703 Y2.5249  
G01 X-1.4703 Y2.5220  
G01 X-1.3388 Y2.5220  
G01 X-1.3178 Y2.5430  
G01 X-1.2822 Y2.5430  
G01 X-1.2570 Y2.5178  
G01 X-1.2570 Y2.4822  
G01 X-1.2780 Y2.4612  
G01 X-1.2780 Y2.2855  
G01 X-1.2693 Y2.2855  
G01 X-1.2671 Y2.2846  
G01 X-1.2654 Y2.2829  
G01 X-1.2645 Y2.2807  
G01 X-1.2645 Y2.2193  
G01 X-1.2654 Y2.2171  
G00 Z0.0500  
G00 X-1.2178 Y2.5570  
G01 Z-0.0040 F10    
G01 X-1.2430 Y2.5822  F20    
G01 X-1.2430 Y2.6178  
G01 X-1.2317 Y2.6291  
G01 X-1.2464 Y2.6780  
G01 X-1.6207 Y2.6780  
G01 X-1.6381 Y2.5476  
G01 X-1.6383 Y2.5452  
G01 X-1.6385 Y2.5447  
G01 X-1.6386 Y2.5442  
G01 X-1.6395 Y2.5420  
G01 X-1.6790 Y2.4334  
G01 X-1.6795 Y2.4315  
G01 X-1.6800 Y2.4307  
G01 X-1.6803 Y2.4298  
G01 X-1.6814 Y2.4282  
G01 X-1.6824 Y2.4265  
G01 X-1.6831 Y2.4258  
G01 X-1.6836 Y2.4250  
G01 X-1.6851 Y2.4238  
G01 X-1.6865 Y2.4224  
G01 X-1.6873 Y2.4219  
G01 X-1.6881 Y2.4213  
G01 X-1.6898 Y2.4205  
G01 X-1.6915 Y2.4195  
G01 X-1.6924 Y2.4192  
G01 X-1.6933 Y2.4188  
G01 X-1.6952 Y2.4185  
G01 X-1.6971 Y2.4180  
G01 X-1.6981 Y2.4180  
G01 X-1.6990 Y2.4178  
G01 X-1.7010 Y2.4180  
G01 X-2.0273 Y2.4180  
G01 X-2.1180 Y2.2614  
G01 X-2.1180 Y2.2208  
G01 X-2.1192 Y2.2147  
G01 X-2.1216 Y2.2088  
G01 X-2.1251 Y2.2036  
G01 X-2.1296 Y2.1991  
G01 X-2.1348 Y2.1956  
G01 X-2.1407 Y2.1932  
G01 X-2.1468 Y2.1920  
G01 X-2.1532 Y2.1920  
G01 X-2.1593 Y2.1932  
G01 X-2.1652 Y2.1956  
G01 X-2.1704 Y2.1991  
G01 X-2.1749 Y2.2036  
G01 X-2.1784 Y2.2088  
G01 X-2.1808 Y2.2147  
G01 X-2.1820 Y2.2208  
G01 X-2.1820 Y2.2792  
G01 X-2.1808 Y2.2853  
G01 X-2.1784 Y2.2912  
G01 X-2.1749 Y2.2964  
G01 X-2.1704 Y2.3009  
G01 X-2.1652 Y2.3044  
G01 X-2.1593 Y2.3068  
G01 X-2.1532 Y2.3080  
G01 X-2.1468 Y2.3080  
G01 X-2.1424 Y2.3071  
G01 X-2.0591 Y2.4510  
G01 X-2.0576 Y2.4535  
G01 X-2.0556 Y2.4555  
G01 X-2.0535 Y2.4576  
G01 X-2.0510 Y2.4591  
G01 X-2.0485 Y2.4605  
G01 X-2.0457 Y2.4613  
G01 X-2.0429 Y2.4620  
G01 X-2.0400 Y2.4620  
G01 X-1.7154 Y2.4620  
G01 X-1.6815 Y2.5553  
G01 X-1.6620 Y2.7015  
G01 X-1.6620 Y2.7029  
G01 X-1.6616 Y2.7043  
G01 X-1.6614 Y2.7058  
G01 X-1.6609 Y2.7071  
G01 X-1.6605 Y2.7085  
G01 X-1.6598 Y2.7098  
G01 X-1.6592 Y2.7111  
G01 X-1.6583 Y2.7123  
G01 X-1.6576 Y2.7135  
G01 X-1.6566 Y2.7145  
G01 X-1.6557 Y2.7157  
G01 X-1.6545 Y2.7166  
G01 X-1.6535 Y2.7176  
G01 X-1.6522 Y2.7183  
G01 X-1.6511 Y2.7192  
G01 X-1.6497 Y2.7198  
G01 X-1.6485 Y2.7205  
G01 X-1.6471 Y2.7209  
G01 X-1.6457 Y2.7214  
G01 X-1.6443 Y2.7216  
G01 X-1.6429 Y2.7220  
G01 X-1.6414 Y2.7220  
G01 X-1.6400 Y2.7222  
G01 X-1.6385 Y2.7220  
G01 X-1.2303 Y2.7220  
G01 X-1.2278 Y2.7221  
G01 X-1.2274 Y2.7220  
G01 X-1.2271 Y2.7220  
G01 X-1.2246 Y2.7213  
G01 X-1.2221 Y2.7207  
G01 X-1.2218 Y2.7206  
G01 X-1.2215 Y2.7205  
G01 X-1.2193 Y2.7192  
G01 X-1.2170 Y2.7180  
G01 X-1.2168 Y2.7178  
G01 X-1.2165 Y2.7176  
G01 X-1.2147 Y2.7158  
G01 X-1.2128 Y2.7140  
G01 X-1.2126 Y2.7137  
G01 X-1.2124 Y2.7135  
G01 X-1.2111 Y2.7113  
G01 X-1.2098 Y2.7091  
G01 X-1.2097 Y2.7088  
G01 X-1.2095 Y2.7085  
G01 X-1.2088 Y2.7060  
G01 X-1.1899 Y2.6430  
G01 X-1.1822 Y2.6430  
G01 X-1.1570 Y2.6178  
G01 X-1.1570 Y2.5822  
G01 X-1.1822 Y2.5570  
G01 X-1.2178 Y2.5570  
G00 Z0.0500  
G00 X-1.1430 Y2.5822  
G01 Z-0.0040 F10    
G01 X-1.1430 Y2.6178  F20    
G01 X-1.1220 Y2.6388  
G01 X-1.1220 Y2.6909  
G01 X-1.1891 Y2.7580  
G01 X-1.5776 Y2.7580  
G01 X-1.5781 Y2.7579  
G01 X-1.5805 Y2.7580  
G01 X-1.5829 Y2.7580  
G01 X-1.5834 Y2.7581  
G01 X-1.5838 Y2.7581  
G01 X-1.5862 Y2.7589  
G01 X-1.5885 Y2.7595  
G01 X-1.5889 Y2.7597  
G01 X-1.5894 Y2.7599  
G01 X-1.5914 Y2.7612  
G01 X-1.5935 Y2.7624  
G01 X-1.5939 Y2.7627  
G01 X-1.5943 Y2.7630  
G01 X-1.5959 Y2.7648  
G01 X-1.5976 Y2.7665  
G01 X-1.5978 Y2.7669  
G01 X-1.8097 Y2.9980  
G01 X-2.5482 Y2.9980  
G01 X-2.8203 Y2.9527  
G01 X-2.8203 Y2.9451  
G01 X-2.8212 Y2.9429  
G01 X-2.8229 Y2.9412  
G01 X-2.8251 Y2.9403  
G01 X-2.8749 Y2.9403  
G01 X-2.8771 Y2.9412  
G01 X-2.8788 Y2.9429  
G01 X-2.8797 Y2.9451  
G01 X-2.8797 Y2.9949  
G01 X-2.8788 Y2.9971  
G01 X-2.8771 Y2.9988  
G01 X-2.8749 Y2.9997  
G01 X-2.8251 Y2.9997  
G01 X-2.8229 Y2.9988  
G01 X-2.8212 Y2.9971  
G01 X-2.5547 Y3.0415  
G01 X-2.5529 Y3.0420  
G01 X-2.5518 Y3.0420  
G01 X-2.5508 Y3.0422  
G01 X-2.5489 Y3.0420  
G01 X-1.8024 Y3.0420  
G01 X-1.8019 Y3.0421  
G01 X-1.7995 Y3.0420  
G01 X-1.7971 Y3.0420  
G01 X-1.7966 Y3.0419  
G01 X-1.7962 Y3.0419  
G01 X-1.7938 Y3.0411  
G01 X-1.7915 Y3.0405  
G01 X-1.7911 Y3.0403  
G01 X-1.7906 Y3.0401  
G01 X-1.7886 Y3.0388  
G01 X-1.7865 Y3.0376  
G01 X-1.7861 Y3.0373  
G01 X-1.7857 Y3.0370  
G01 X-1.7841 Y3.0352  
G01 X-1.7824 Y3.0335  
G01 X-1.7822 Y3.0331  
G01 X-1.5703 Y2.8020  
G01 X-1.1771 Y2.8020  
G01 X-1.1715 Y2.8005  
G01 X-1.1665 Y2.7976  
G01 X-1.1624 Y2.7935  
G01 X-1.0824 Y2.7135  
G01 X-1.0795 Y2.7085  
G01 X-1.0780 Y2.7029  
G01 X-1.0780 Y2.6388  
G01 X-1.0718 Y2.6326  
G01 X-0.9820 Y2.6625  
G01 X-0.9820 Y2.6633  
G01 X-0.9633 Y2.6820  
G01 X-0.9367 Y2.6820  
G01 X-0.9180 Y2.6633  
G01 X-0.9180 Y2.6367  
G01 X-0.9367 Y2.6180  
G01 X-0.9633 Y2.6180  
G01 X-0.9665 Y2.6213  
G01 X-1.0570 Y2.5911  
G01 X-1.0570 Y2.5822  
G01 X-1.0822 Y2.5570  
G01 X-1.1178 Y2.5570  
G01 X-1.1430 Y2.5822  
G00 Z0.0500  
G00 X-1.2563 Y2.8789  
G01 Z-0.0040 F10    
G01 X-1.4755 Y2.9327  F20    
G01 X-1.4771 Y2.8797  
G01 X-1.4751 Y2.8797  
G01 X-1.4729 Y2.8788  
G01 X-1.4712 Y2.8771  
G01 X-1.4703 Y2.8749  
G01 X-1.4703 Y2.8251  
G01 X-1.4712 Y2.8229  
G01 X-1.4729 Y2.8212  
G01 X-1.4751 Y2.8203  
G01 X-1.5249 Y2.8203  
G01 X-1.5271 Y2.8212  
G01 X-1.5288 Y2.8229  
G01 X-1.5297 Y2.8251  
G01 X-1.5297 Y2.8749  
G01 X-1.5288 Y2.8771  
G01 X-1.5271 Y2.8788  
G01 X-1.5249 Y2.8797  
G01 X-1.5211 Y2.8797  
G01 X-1.5191 Y2.9460  
G01 X-1.7644 Y3.0480  
G01 X-2.6388 Y3.0480  
G01 X-2.8999 Y3.0190  
G01 X-2.9474 Y2.9715  
G01 X-2.8479 Y2.8885  
G01 X-2.5719 Y2.7505  
G01 X-2.4761 Y2.7218  
G01 X-2.4757 Y2.7218  
G01 X-2.4733 Y2.7210  
G01 X-2.4709 Y2.7202  
G01 X-2.4706 Y2.7200  
G01 X-2.4702 Y2.7199  
G01 X-2.4681 Y2.7185  
G01 X-2.4660 Y2.7172  
G01 X-2.4657 Y2.7169  
G01 X-2.4654 Y2.7167  
G01 X-2.4637 Y2.7148  
G01 X-2.4620 Y2.7130  
G01 X-2.4618 Y2.7126  
G01 X-2.4616 Y2.7123  
G01 X-2.4604 Y2.7101  
G01 X-2.4593 Y2.7079  
G01 X-2.4592 Y2.7075  
G01 X-2.4590 Y2.7072  
G01 X-2.4585 Y2.7047  
G01 X-2.4579 Y2.7022  
G01 X-2.4579 Y2.7019  
G01 X-2.4388 Y2.6060  
G01 X-2.4348 Y2.6044  
G01 X-2.4296 Y2.6009  
G01 X-2.4251 Y2.5964  
G01 X-2.4216 Y2.5912  
G01 X-2.4192 Y2.5853  
G01 X-2.4180 Y2.5792  
G01 X-2.4180 Y2.5208  
G01 X-2.4192 Y2.5147  
G01 X-2.4216 Y2.5088  
G01 X-2.4251 Y2.5036  
G01 X-2.4296 Y2.4991  
G01 X-2.4348 Y2.4956  
G01 X-2.4407 Y2.4932  
G01 X-2.4468 Y2.4920  
G01 X-2.4532 Y2.4920  
G01 X-2.4593 Y2.4932  
G01 X-2.4652 Y2.4956  
G01 X-2.4704 Y2.4991  
G01 X-2.4749 Y2.5036  
G01 X-2.4784 Y2.5088  
G01 X-2.4808 Y2.5147  
G01 X-2.4820 Y2.5208  
G01 X-2.4820 Y2.5792  
G01 X-2.4808 Y2.5853  
G01 X-2.4799 Y2.5874  
G01 X-2.4990 Y2.6827  
G01 X-2.5854 Y2.7086  
G01 X-2.5872 Y2.7090  
G01 X-2.5881 Y2.7095  
G01 X-2.5891 Y2.7098  
G01 X-2.5907 Y2.7108  
G01 X-2.8695 Y2.8502  
G01 X-2.8719 Y2.8512  
G01 X-2.8721 Y2.8515  
G01 X-2.8724 Y2.8516  
G01 X-2.8743 Y2.8533  
G01 X-2.9851 Y2.9456  
G01 X-3.0203 Y2.9356  
G01 X-3.0203 Y2.9251  
G01 X-3.0212 Y2.9229  
G01 X-3.0229 Y2.9212  
G01 X-3.0251 Y2.9203  
G01 X-3.0749 Y2.9203  
G01 X-3.0771 Y2.9212  
G01 X-3.0788 Y2.9229  
G01 X-3.0797 Y2.9251  
G01 X-3.0797 Y2.9749  
G01 X-3.0788 Y2.9771  
G01 X-3.0771 Y2.9788  
G01 X-3.0749 Y2.9797  
G01 X-3.0260 Y2.9797  
G01 X-2.9915 Y2.9896  
G01 X-2.9264 Y3.0547  
G01 X-2.9254 Y3.0560  
G01 X-2.9244 Y3.0567  
G01 X-2.9235 Y3.0576  
G01 X-2.9221 Y3.0584  
G01 X-2.9207 Y3.0594  
G01 X-2.9196 Y3.0599  
G01 X-2.9185 Y3.0605  
G01 X-2.9169 Y3.0609  
G01 X-2.9153 Y3.0615  
G01 X-2.9141 Y3.0617  
G01 X-2.9129 Y3.0620  
G01 X-2.9112 Y3.0620  
G01 X-2.6441 Y3.0917  
G01 X-2.6429 Y3.0920  
G01 X-2.6412 Y3.0920  
G01 X-2.6396 Y3.0922  
G01 X-2.6383 Y3.0920  
G01 X-1.7614 Y3.0920  
G01 X-1.7600 Y3.0922  
G01 X-1.7585 Y3.0920  
G01 X-1.7571 Y3.0920  
G01 X-1.7557 Y3.0916  
G01 X-1.7542 Y3.0914  
G01 X-1.7529 Y3.0909  
G01 X-1.7515 Y3.0905  
G01 X-1.7502 Y3.0898  
G01 X-1.4898 Y2.9815  
G01 X-1.2465 Y2.9218  
G01 X-1.2453 Y2.9217  
G01 X-1.2437 Y2.9211  
G01 X-1.2419 Y2.9207  
G01 X-1.2409 Y2.9201  
G01 X-0.5661 Y2.6791  
G01 X-0.5633 Y2.6820  
G01 X-0.5367 Y2.6820  
G01 X-0.5180 Y2.6633  
G01 X-0.5180 Y2.6586  
G01 X-0.3448 Y2.5720  
G01 X-0.1502 Y2.5720  
G01 X-0.1475 Y2.5720  
G01 X-0.1473 Y2.5720  
G01 X-0.1471 Y2.5720  
G01 X-0.1445 Y2.5713  
G01 X-0.1419 Y2.5706  
G01 X-0.1417 Y2.5705  
G01 X-0.1415 Y2.5705  
G01 X-0.1392 Y2.5691  
G01 X-0.1368 Y2.5678  
G01 X-0.1367 Y2.5677  
G01 X-0.1365 Y2.5676  
G01 X-0.1346 Y2.5657  
G01 X-0.1326 Y2.5638  
G01 X-0.1325 Y2.5636  
G01 X-0.1324 Y2.5635  
G01 X-0.1310 Y2.5612  
G01 X-0.0725 Y2.4636  
G01 X-0.0724 Y2.4635  
G01 X-0.0710 Y2.4612  
G01 X-0.0696 Y2.4588  
G01 X-0.0696 Y2.4587  
G01 X-0.0695 Y2.4585  
G01 X-0.0688 Y2.4559  
G01 X-0.0681 Y2.4533  
G01 X-0.0680 Y2.4531  
G01 X-0.0680 Y2.4529  
G01 X-0.0680 Y2.4502  
G01 X-0.0680 Y2.4475  
G01 X-0.0680 Y2.4473  
G01 X-0.0680 Y1.8971  
G01 X-0.0695 Y1.8915  
G01 X-0.0724 Y1.8865  
G01 X-0.0765 Y1.8824  
G01 X-0.0815 Y1.8795  
G01 X-0.0871 Y1.8780  
G01 X-0.1612 Y1.8780  
G01 X-0.1822 Y1.8570  
G01 X-0.2178 Y1.8570  
G01 X-0.2388 Y1.8780  
G01 X-0.2612 Y1.8780  
G01 X-0.2822 Y1.8570  
G01 X-0.3178 Y1.8570  
G01 X-0.3430 Y1.8822  
G01 X-0.3430 Y1.9178  
G01 X-0.3178 Y1.9430  
G01 X-0.2822 Y1.9430  
G01 X-0.2612 Y1.9220  
G01 X-0.2388 Y1.9220  
G01 X-0.2178 Y1.9430  
G01 X-0.1822 Y1.9430  
G01 X-0.1612 Y1.9220  
G01 X-0.1120 Y1.9220  
G01 X-0.1120 Y2.4439  
G01 X-0.1625 Y2.5280  
G01 X-0.3493 Y2.5280  
G01 X-0.3516 Y2.5279  
G01 X-0.3522 Y2.5280  
G01 X-0.3529 Y2.5280  
G01 X-0.3551 Y2.5286  
G01 X-0.3572 Y2.5290  
G01 X-0.3578 Y2.5293  
G01 X-0.3585 Y2.5295  
G01 X-0.3604 Y2.5306  
G01 X-0.5362 Y2.6185  
G01 X-0.5367 Y2.6180  
G01 X-0.5633 Y2.6180  
G01 X-0.5820 Y2.6367  
G01 X-0.5820 Y2.6381  
G01 X-1.2563 Y2.8789  
G00 Z0.0500  
G00 X-1.5941 Y3.0980  
G01 Z-0.0040 F10    
G01 X-2.9348 Y3.0980  F20    
G01 X-3.3580 Y2.8864  
G01 X-3.3580 Y1.0082  
G01 X-3.2379 Y0.8697  
G01 X-3.0681 Y0.8272  
G01 X-3.0633 Y0.8320  
G01 X-3.0367 Y0.8320  
G01 X-3.0180 Y0.8133  
G01 X-3.0180 Y0.7867  
G01 X-3.0367 Y0.7680  
G01 X-3.0384 Y0.7680  
G01 X-3.0732 Y0.6741  
G01 X-2.9987 Y0.6741  
G01 X-2.9900 Y0.6727  
G01 X-2.9817 Y0.6700  
G01 X-2.9738 Y0.6660  
G01 X-2.9667 Y0.6608  
G01 X-2.9604 Y0.6546  
G01 X-2.9553 Y0.6475  
G01 X-2.9513 Y0.6396  
G01 X-2.9485 Y0.6312  
G01 X-2.9471 Y0.6225  
G01 X-2.9471 Y0.6137  
G01 X-2.9485 Y0.6050  
G01 X-2.9513 Y0.5966  
G01 X-2.9553 Y0.5888  
G01 X-2.9604 Y0.5816  
G01 X-2.9667 Y0.5754  
G01 X-2.9738 Y0.5702  
G01 X-2.9817 Y0.5662  
G01 X-2.9900 Y0.5635  
G01 X-2.9987 Y0.5621  
G01 X-3.1076 Y0.5621  
G01 X-3.1163 Y0.5635  
G01 X-3.1246 Y0.5662  
G01 X-3.1325 Y0.5702  
G01 X-3.1396 Y0.5754  
G01 X-3.1459 Y0.5816  
G01 X-3.1510 Y0.5888  
G01 X-3.1550 Y0.5966  
G01 X-3.1578 Y0.6050  
G01 X-3.1591 Y0.6137  
G01 X-3.1591 Y0.6225  
G01 X-3.1578 Y0.6312  
G01 X-3.1550 Y0.6396  
G01 X-3.1510 Y0.6475  
G01 X-3.1459 Y0.6546  
G01 X-3.1396 Y0.6608  
G01 X-3.1325 Y0.6660  
G01 X-3.1246 Y0.6700  
G01 X-3.1212 Y0.6711  
G01 X-3.1210 Y0.6716  
G01 X-3.1205 Y0.6735  
G01 X-3.1200 Y0.6743  
G01 X-3.0793 Y0.7841  
G01 X-3.0801 Y0.7848  
G01 X-3.2535 Y0.8282  
G01 X-3.2545 Y0.8283  
G01 X-3.2563 Y0.8289  
G01 X-3.2581 Y0.8294  
G01 X-3.2590 Y0.8298  
G01 X-3.2599 Y0.8302  
G01 X-3.2615 Y0.8312  
G01 X-3.2632 Y0.8322  
G01 X-3.2639 Y0.8329  
G01 X-3.2647 Y0.8334  
G01 X-3.2660 Y0.8349  
G01 X-3.2674 Y0.8362  
G01 X-3.2679 Y0.8370  
G01 X-3.3961 Y0.9850  
G01 X-3.3976 Y0.9865  
G01 X-3.3980 Y0.9872  
G01 X-3.3985 Y0.9878  
G01 X-3.3994 Y0.9897  
G01 X-3.4005 Y0.9915  
G01 X-3.4007 Y0.9923  
G01 X-3.4011 Y0.9930  
G01 X-3.4015 Y0.9951  
G01 X-3.4020 Y0.9971  
G01 X-3.4020 Y0.9979  
G01 X-3.4022 Y0.9987  
G01 X-3.4020 Y1.0008  
G01 X-3.4020 Y2.8978  
G01 X-3.4021 Y2.8984  
G01 X-3.4020 Y2.9007  
G01 X-3.4020 Y2.9029  
G01 X-3.4018 Y2.9035  
G01 X-3.4018 Y2.9042  
G01 X-3.4011 Y2.9063  
G01 X-3.4005 Y2.9085  
G01 X-3.4002 Y2.9091  
G01 X-3.4000 Y2.9097  
G01 X-3.3987 Y2.9116  
G01 X-3.3976 Y2.9135  
G01 X-3.3971 Y2.9140  
G01 X-3.3968 Y2.9145  
G01 X-3.3951 Y2.9160  
G01 X-3.3935 Y2.9176  
G01 X-3.3929 Y2.9179  
G01 X-3.3924 Y2.9184  
G01 X-3.3904 Y2.9194  
G01 X-3.3885 Y2.9205  
G01 X-3.3878 Y2.9207  
G01 X-2.9504 Y3.1394  
G01 X-2.9485 Y3.1405  
G01 X-2.9478 Y3.1407  
G01 X-2.9472 Y3.1410  
G01 X-2.9451 Y3.1414  
G01 X-2.9429 Y3.1420  
G01 X-2.9422 Y3.1420  
G01 X-2.9416 Y3.1421  
G01 X-2.9393 Y3.1420  
G01 X-1.5917 Y3.1420  
G01 X-1.5905 Y3.1422  
G01 X-1.5888 Y3.1420  
G01 X-1.5871 Y3.1420  
G01 X-1.5859 Y3.1417  
G01 X-1.5847 Y3.1416  
G01 X-1.5832 Y3.1409  
G01 X-1.5815 Y3.1405  
G01 X-1.5805 Y3.1399  
G01 X-0.2959 Y2.6420  
G01 X-0.1309 Y2.6420  
G01 X-0.1289 Y2.6422  
G01 X-0.1280 Y2.6420  
G01 X-0.1271 Y2.6420  
G01 X-0.1252 Y2.6415  
G01 X-0.1232 Y2.6411  
G01 X-0.1224 Y2.6407  
G01 X-0.1215 Y2.6405  
G01 X-0.1198 Y2.6395  
G01 X-0.1180 Y2.6387  
G01 X-0.1173 Y2.6381  
G01 X-0.1165 Y2.6376  
G01 X-0.1151 Y2.6362  
G01 X-0.1136 Y2.6349  
G01 X-0.1130 Y2.6342  
G01 X-0.1124 Y2.6335  
G01 X-0.1114 Y2.6318  
G01 X-0.0230 Y2.5042  
G01 X-0.0224 Y2.5035  
G01 X-0.0214 Y2.5018  
G01 X-0.0203 Y2.5001  
G01 X-0.0200 Y2.4993  
G01 X-0.0195 Y2.4985  
G01 X-0.0190 Y2.4966  
G01 X-0.0183 Y2.4947  
G01 X-0.0182 Y2.4938  
G01 X-0.0180 Y2.4929  
G01 X-0.0180 Y2.4909  
G01 X-0.0178 Y2.4889  
G01 X-0.0180 Y2.4880  
G01 X-0.0180 Y1.7971  
G01 X-0.0195 Y1.7915  
G01 X-0.0224 Y1.7865  
G01 X-0.0265 Y1.7824  
G01 X-0.0315 Y1.7795  
G01 X-0.0371 Y1.7780  
G01 X-0.1612 Y1.7780  
G01 X-0.1822 Y1.7570  
G01 X-0.2178 Y1.7570  
G01 X-0.2388 Y1.7780  
G01 X-0.2612 Y1.7780  
G01 X-0.2822 Y1.7570  
G01 X-0.3178 Y1.7570  
G01 X-0.3430 Y1.7822  
G01 X-0.3430 Y1.8178  
G01 X-0.3178 Y1.8430  
G01 X-0.2822 Y1.8430  
G01 X-0.2612 Y1.8220  
G01 X-0.2388 Y1.8220  
G01 X-0.2178 Y1.8430  
G01 X-0.1822 Y1.8430  
G01 X-0.1612 Y1.8220  
G01 X-0.0620 Y1.8220  
G01 X-0.0620 Y2.4831  
G01 X-0.1415 Y2.5980  
G01 X-0.2983 Y2.5980  
G01 X-0.2995 Y2.5978  
G01 X-0.3012 Y2.5980  
G01 X-0.3029 Y2.5980  
G01 X-0.3041 Y2.5983  
G01 X-0.3053 Y2.5984  
G01 X-0.3068 Y2.5991  
G01 X-0.3085 Y2.5995  
G01 X-0.3095 Y2.6001  
G01 X-1.5941 Y3.0980  
G00 Z0.0500  
G00 X-1.9367 Y2.9320  
G01 Z-0.0040 F10    
G01 X-1.9180 Y2.9133  F20    
G01 X-1.9180 Y2.8867  
G01 X-1.9280 Y2.8767  
G01 X-1.9280 Y2.7733  
G01 X-1.9180 Y2.7633  
G01 X-1.9180 Y2.7367  
G01 X-1.9367 Y2.7180  
G01 X-1.9633 Y2.7180  
G01 X-1.9733 Y2.7280  
G01 X-2.0817 Y2.7280  
G01 X-2.0846 Y2.7251  
G01 X-2.0898 Y2.7216  
G01 X-2.0932 Y2.7202  
G01 X-2.1039 Y2.6936  
G01 X-2.1232 Y2.6017  
G01 X-2.1239 Y2.5945  
G01 X-2.1216 Y2.5912  
G01 X-2.1192 Y2.5853  
G01 X-2.1180 Y2.5792  
G01 X-2.1180 Y2.5208  
G01 X-2.1192 Y2.5147  
G01 X-2.1216 Y2.5088  
G01 X-2.1251 Y2.5036  
G01 X-2.1296 Y2.4991  
G01 X-2.1348 Y2.4956  
G01 X-2.1407 Y2.4932  
G01 X-2.1468 Y2.4920  
G01 X-2.1532 Y2.4920  
G01 X-2.1593 Y2.4932  
G01 X-2.1652 Y2.4956  
G01 X-2.1704 Y2.4991  
G01 X-2.1749 Y2.5036  
G01 X-2.1784 Y2.5088  
G01 X-2.1808 Y2.5147  
G01 X-2.1820 Y2.5208  
G01 X-2.1820 Y2.5792  
G01 X-2.1808 Y2.5853  
G01 X-2.1784 Y2.5912  
G01 X-2.1749 Y2.5964  
G01 X-2.1704 Y2.6009  
G01 X-2.1673 Y2.6029  
G01 X-2.1671 Y2.6054  
G01 X-2.1671 Y2.6067  
G01 X-2.1668 Y2.6083  
G01 X-2.1666 Y2.6099  
G01 X-2.1662 Y2.6111  
G01 X-2.1467 Y2.7036  
G01 X-2.1465 Y2.7055  
G01 X-2.1461 Y2.7064  
G01 X-2.1459 Y2.7074  
G01 X-2.1451 Y2.7091  
G01 X-2.1341 Y2.7366  
G01 X-2.1358 Y2.7407  
G01 X-2.1370 Y2.7468  
G01 X-2.1370 Y2.7532  
G01 X-2.1358 Y2.7593  
G01 X-2.1334 Y2.7652  
G01 X-2.1299 Y2.7704  
G01 X-2.1254 Y2.7749  
G01 X-2.1202 Y2.7784  
G01 X-2.1143 Y2.7808  
G01 X-2.1082 Y2.7820  
G01 X-2.1018 Y2.7820  
G01 X-2.0957 Y2.7808  
G01 X-2.0898 Y2.7784  
G01 X-2.0846 Y2.7749  
G01 X-2.0817 Y2.7720  
G01 X-1.9733 Y2.7720  
G01 X-1.9720 Y2.7733  
G01 X-1.9720 Y2.8767  
G01 X-1.9820 Y2.8867  
G01 X-1.9820 Y2.9133  
G01 X-1.9633 Y2.9320  
G01 X-1.9367 Y2.9320  
G00 Z0.0500  
G00 X-1.9407 Y2.6068  
G01 Z-0.0040 F10    
G01 X-1.9348 Y2.6044  F20    
G01 X-1.9296 Y2.6009  
G01 X-1.9251 Y2.5964  
G01 X-1.9216 Y2.5912  
G01 X-1.9192 Y2.5853  
G01 X-1.9180 Y2.5792  
G01 X-1.9180 Y2.5208  
G01 X-1.9192 Y2.5147  
G01 X-1.9216 Y2.5088  
G01 X-1.9251 Y2.5036  
G01 X-1.9296 Y2.4991  
G01 X-1.9348 Y2.4956  
G01 X-1.9407 Y2.4932  
G01 X-1.9468 Y2.4920  
G01 X-1.9532 Y2.4920  
G01 X-1.9593 Y2.4932  
G01 X-1.9652 Y2.4956  
G01 X-1.9704 Y2.4991  
G01 X-1.9749 Y2.5036  
G01 X-1.9784 Y2.5088  
G01 X-1.9808 Y2.5147  
G01 X-1.9820 Y2.5208  
G01 X-1.9820 Y2.5792  
G01 X-1.9808 Y2.5853  
G01 X-1.9784 Y2.5912  
G01 X-1.9749 Y2.5964  
G01 X-1.9704 Y2.6009  
G01 X-1.9652 Y2.6044  
G01 X-1.9593 Y2.6068  
G01 X-1.9532 Y2.6080  
G01 X-1.9468 Y2.6080  
G01 X-1.9407 Y2.6068  
G00 Z0.0500  
G00 X-1.8749 Y2.5964  
G01 Z-0.0040 F10    
G01 X-1.8704 Y2.6009  F20    
G01 X-1.8652 Y2.6044  
G01 X-1.8593 Y2.6068  
G01 X-1.8532 Y2.6080  
G01 X-1.8468 Y2.6080  
G01 X-1.8407 Y2.6068  
G01 X-1.8348 Y2.6044  
G01 X-1.8296 Y2.6009  
G01 X-1.8251 Y2.5964  
G01 X-1.8216 Y2.5912  
G01 X-1.8192 Y2.5853  
G01 X-1.8180 Y2.5792  
G01 X-1.8180 Y2.5208  
G01 X-1.8192 Y2.5147  
G01 X-1.8216 Y2.5088  
G01 X-1.8251 Y2.5036  
G01 X-1.8296 Y2.4991  
G01 X-1.8348 Y2.4956  
G01 X-1.8407 Y2.4932  
G01 X-1.8468 Y2.4920  
G01 X-1.8532 Y2.4920  
G01 X-1.8593 Y2.4932  
G01 X-1.8652 Y2.4956  
G01 X-1.8704 Y2.4991  
G01 X-1.8749 Y2.5036  
G01 X-1.8784 Y2.5088  
G01 X-1.8808 Y2.5147  
G01 X-1.8820 Y2.5208  
G01 X-1.8820 Y2.5792  
G01 X-1.8808 Y2.5853  
G01 X-1.8784 Y2.5912  
G01 X-1.8749 Y2.5964  
G00 Z0.0500  
G00 X-1.7749 Y2.5964  
G01 Z-0.0040 F10    
G01 X-1.7704 Y2.6009  F20    
G01 X-1.7652 Y2.6044  
G01 X-1.7593 Y2.6068  
G01 X-1.7532 Y2.6080  
G01 X-1.7468 Y2.6080  
G01 X-1.7407 Y2.6068  
G01 X-1.7348 Y2.6044  
G01 X-1.7296 Y2.6009  
G01 X-1.7251 Y2.5964  
G01 X-1.7216 Y2.5912  
G01 X-1.7192 Y2.5853  
G01 X-1.7180 Y2.5792  
G01 X-1.7180 Y2.5208  
G01 X-1.7192 Y2.5147  
G01 X-1.7216 Y2.5088  
G01 X-1.7251 Y2.5036  
G01 X-1.7296 Y2.4991  
G01 X-1.7348 Y2.4956  
G01 X-1.7407 Y2.4932  
G01 X-1.7468 Y2.4920  
G01 X-1.7532 Y2.4920  
G01 X-1.7593 Y2.4932  
G01 X-1.7652 Y2.4956  
G01 X-1.7704 Y2.4991  
G01 X-1.7749 Y2.5036  
G01 X-1.7784 Y2.5088  
G01 X-1.7808 Y2.5147  
G01 X-1.7820 Y2.5208  
G01 X-1.7820 Y2.5792  
G01 X-1.7808 Y2.5853  
G01 X-1.7784 Y2.5912  
G01 X-1.7749 Y2.5964  
G00 Z0.0500  
G00 X-2.0251 Y2.5964  
G01 Z-0.0040 F10    
G01 X-2.0216 Y2.5912  F20    
G01 X-2.0192 Y2.5853  
G01 X-2.0180 Y2.5792  
G01 X-2.0180 Y2.5208  
G01 X-2.0192 Y2.5147  
G01 X-2.0216 Y2.5088  
G01 X-2.0251 Y2.5036  
G01 X-2.0296 Y2.4991  
G01 X-2.0348 Y2.4956  
G01 X-2.0407 Y2.4932  
G01 X-2.0468 Y2.4920  
G01 X-2.0532 Y2.4920  
G01 X-2.0593 Y2.4932  
G01 X-2.0652 Y2.4956  
G01 X-2.0704 Y2.4991  
G01 X-2.0749 Y2.5036  
G01 X-2.0784 Y2.5088  
G01 X-2.0808 Y2.5147  
G01 X-2.0820 Y2.5208  
G01 X-2.0820 Y2.5792  
G01 X-2.0808 Y2.5853  
G01 X-2.0784 Y2.5912  
G01 X-2.0749 Y2.5964  
G01 X-2.0704 Y2.6009  
G01 X-2.0652 Y2.6044  
G01 X-2.0593 Y2.6068  
G01 X-2.0532 Y2.6080  
G01 X-2.0468 Y2.6080  
G01 X-2.0407 Y2.6068  
G01 X-2.0348 Y2.6044  
G01 X-2.0296 Y2.6009  
G01 X-2.0251 Y2.5964  
G00 Z0.0500  
G00 X-2.2251 Y2.5964  
G01 Z-0.0040 F10    
G01 X-2.2216 Y2.5912  F20    
G01 X-2.2192 Y2.5853  
G01 X-2.2180 Y2.5792  
G01 X-2.2180 Y2.5208  
G01 X-2.2192 Y2.5147  
G01 X-2.2216 Y2.5088  
G01 X-2.2251 Y2.5036  
G01 X-2.2296 Y2.4991  
G01 X-2.2348 Y2.4956  
G01 X-2.2407 Y2.4932  
G01 X-2.2468 Y2.4920  
G01 X-2.2532 Y2.4920  
G01 X-2.2593 Y2.4932  
G01 X-2.2652 Y2.4956  
G01 X-2.2704 Y2.4991  
G01 X-2.2749 Y2.5036  
G01 X-2.2784 Y2.5088  
G01 X-2.2808 Y2.5147  
G01 X-2.2820 Y2.5208  
G01 X-2.2820 Y2.5792  
G01 X-2.2808 Y2.5853  
G01 X-2.2784 Y2.5912  
G01 X-2.2751 Y2.5960  
G01 X-2.2768 Y2.6214  
G01 X-2.2959 Y2.6931  
G01 X-2.3068 Y2.7202  
G01 X-2.3102 Y2.7216  
G01 X-2.3154 Y2.7251  
G01 X-2.3199 Y2.7296  
G01 X-2.3234 Y2.7348  
G01 X-2.3258 Y2.7407  
G01 X-2.3270 Y2.7468  
G01 X-2.3270 Y2.7532  
G01 X-2.3258 Y2.7593  
G01 X-2.3234 Y2.7652  
G01 X-2.3199 Y2.7704  
G01 X-2.3192 Y2.7710  
G01 X-2.3215 Y2.7938  
G01 X-2.3586 Y2.8680  
G01 X-2.3633 Y2.8680  
G01 X-2.3733 Y2.8780  
G01 X-2.4767 Y2.8780  
G01 X-2.4867 Y2.8680  
G01 X-2.5133 Y2.8680  
G01 X-2.5320 Y2.8867  
G01 X-2.5320 Y2.9133  
G01 X-2.5133 Y2.9320  
G01 X-2.4867 Y2.9320  
G01 X-2.4767 Y2.9220  
G01 X-2.3733 Y2.9220  
G01 X-2.3633 Y2.9320  
G01 X-2.3367 Y2.9320  
G01 X-2.3180 Y2.9133  
G01 X-2.3180 Y2.8867  
G01 X-2.3185 Y2.8862  
G01 X-2.2811 Y2.8114  
G01 X-2.2804 Y2.8105  
G01 X-2.2798 Y2.8088  
G01 X-2.2790 Y2.8072  
G01 X-2.2788 Y2.8061  
G01 X-2.2784 Y2.8051  
G01 X-2.2782 Y2.8033  
G01 X-2.2779 Y2.8016  
G01 X-2.2779 Y2.8004  
G01 X-2.2754 Y2.7754  
G01 X-2.2746 Y2.7749  
G01 X-2.2701 Y2.7704  
G01 X-2.2666 Y2.7652  
G01 X-2.2642 Y2.7593  
G01 X-2.2630 Y2.7532  
G01 X-2.2630 Y2.7468  
G01 X-2.2642 Y2.7407  
G01 X-2.2659 Y2.7366  
G01 X-2.2552 Y2.7096  
G01 X-2.2545 Y2.7085  
G01 X-2.2541 Y2.7069  
G01 X-2.2535 Y2.7055  
G01 X-2.2533 Y2.7042  
G01 X-2.2339 Y2.6314  
G01 X-2.2332 Y2.6294  
G01 X-2.2332 Y2.6286  
G01 X-2.2330 Y2.6279  
G01 X-2.2330 Y2.6257  
G01 X-2.2314 Y2.6021  
G01 X-2.2296 Y2.6009  
G01 X-2.2251 Y2.5964  
G00 Z0.0500  
G00 X-2.5251 Y2.5964  
G01 Z-0.0040 F10    
G01 X-2.5216 Y2.5912  F20    
G01 X-2.5192 Y2.5853  
G01 X-2.5180 Y2.5792  
G01 X-2.5180 Y2.5208  
G01 X-2.5192 Y2.5147  
G01 X-2.5216 Y2.5088  
G01 X-2.5251 Y2.5036  
G01 X-2.5296 Y2.4991  
G01 X-2.5348 Y2.4956  
G01 X-2.5407 Y2.4932  
G01 X-2.5468 Y2.4920  
G01 X-2.5532 Y2.4920  
G01 X-2.5593 Y2.4932  
G01 X-2.5652 Y2.4956  
G01 X-2.5704 Y2.4991  
G01 X-2.5749 Y2.5036  
G01 X-2.5784 Y2.5088  
G01 X-2.5808 Y2.5147  
G01 X-2.5820 Y2.5208  
G01 X-2.5820 Y2.5792  
G01 X-2.5808 Y2.5853  
G01 X-2.5784 Y2.5912  
G01 X-2.5749 Y2.5964  
G01 X-2.5704 Y2.6009  
G01 X-2.5652 Y2.6044  
G01 X-2.5593 Y2.6068  
G01 X-2.5532 Y2.6080  
G01 X-2.5468 Y2.6080  
G01 X-2.5407 Y2.6068  
G01 X-2.5348 Y2.6044  
G01 X-2.5296 Y2.6009  
G01 X-2.5251 Y2.5964  
G00 Z0.0500  
G00 X-2.6251 Y2.5964  
G01 Z-0.0040 F10    
G01 X-2.6216 Y2.5912  F20    
G01 X-2.6192 Y2.5853  
G01 X-2.6180 Y2.5792  
G01 X-2.6180 Y2.5208  
G01 X-2.6192 Y2.5147  
G01 X-2.6216 Y2.5088  
G01 X-2.6251 Y2.5036  
G01 X-2.6296 Y2.4991  
G01 X-2.6348 Y2.4956  
G01 X-2.6407 Y2.4932  
G01 X-2.6468 Y2.4920  
G01 X-2.6532 Y2.4920  
G01 X-2.6593 Y2.4932  
G01 X-2.6652 Y2.4956  
G01 X-2.6704 Y2.4991  
G01 X-2.6749 Y2.5036  
G01 X-2.6784 Y2.5088  
G01 X-2.6808 Y2.5147  
G01 X-2.6820 Y2.5208  
G01 X-2.6820 Y2.5792  
G01 X-2.6808 Y2.5853  
G01 X-2.6784 Y2.5912  
G01 X-2.6749 Y2.5964  
G01 X-2.6720 Y2.5993  
G01 X-2.6720 Y2.6855  
G01 X-3.0045 Y2.8280  
G01 X-3.2631 Y2.8280  
G01 X-3.2980 Y2.6971  
G01 X-3.2980 Y1.0569  
G01 X-3.2385 Y0.9720  
G01 X-2.9971 Y0.9720  
G01 X-2.9915 Y0.9705  
G01 X-2.9865 Y0.9676  
G01 X-2.9824 Y0.9635  
G01 X-2.9163 Y0.8974  
G01 X-2.9161 Y0.8973  
G01 X-2.9142 Y0.8954  
G01 X-2.9124 Y0.8935  
G01 X-2.9123 Y0.8933  
G01 X-2.9121 Y0.8931  
G01 X-2.9108 Y0.8908  
G01 X-2.9095 Y0.8885  
G01 X-2.9094 Y0.8882  
G01 X-2.9093 Y0.8880  
G01 X-2.9087 Y0.8854  
G01 X-2.9080 Y0.8829  
G01 X-2.9080 Y0.8826  
G01 X-2.7719 Y0.3188  
G01 X-2.2957 Y0.2216  
G01 X-2.2930 Y0.2211  
G01 X-2.2929 Y0.2210  
G01 X-2.2928 Y0.2210  
G01 X-2.2903 Y0.2197  
G01 X-2.2878 Y0.2185  
G01 X-2.2876 Y0.2184  
G01 X-2.2855 Y0.2165  
G01 X-2.1418 Y0.0920  
G01 X-1.6320 Y0.0920  
G01 X-1.6320 Y0.2448  
G01 X-1.6590 Y0.2987  
G01 X-1.8045 Y0.5080  
G01 X-1.8133 Y0.5080  
G01 X-1.8320 Y0.5267  
G01 X-1.8320 Y0.5429  
G01 X-1.8956 Y0.6144  
G01 X-1.8967 Y0.6154  
G01 X-1.8975 Y0.6165  
G01 X-1.8984 Y0.6175  
G01 X-1.8991 Y0.6189  
G01 X-1.8999 Y0.6202  
G01 X-1.9004 Y0.6215  
G01 X-1.9010 Y0.6227  
G01 X-1.9013 Y0.6243  
G01 X-1.9018 Y0.6257  
G01 X-1.9019 Y0.6271  
G01 X-1.9021 Y0.6284  
G01 X-1.9020 Y0.6300  
G01 X-1.9213 Y0.9380  
G01 X-1.9233 Y0.9380  
G01 X-1.9420 Y0.9567  
G01 X-1.9420 Y0.9833  
G01 X-1.9233 Y1.0020  
G01 X-1.8967 Y1.0020  
G01 X-1.8780 Y0.9833  
G01 X-1.8780 Y0.9567  
G01 X-1.8788 Y0.9560  
G01 X-1.8787 Y0.9557  
G01 X-1.8782 Y0.9543  
G01 X-1.8781 Y0.9529  
G01 X-1.8779 Y0.9516  
G01 X-1.8780 Y0.9500  
G01 X-1.8585 Y0.6389  
G01 X-1.7990 Y0.5720  
G01 X-1.7867 Y0.5720  
G01 X-1.7680 Y0.5533  
G01 X-1.7680 Y0.5325  
G01 X-1.6227 Y0.3236  
G01 X-1.6216 Y0.3224  
G01 X-1.6210 Y0.3213  
G01 X-1.6203 Y0.3202  
G01 X-1.6197 Y0.3187  
G01 X-1.5906 Y0.2604  
G01 X-1.5895 Y0.2585  
G01 X-1.5893 Y0.2578  
G01 X-1.5890 Y0.2572  
G01 X-1.5886 Y0.2551  
G01 X-1.5880 Y0.2529  
G01 X-1.5880 Y0.2522  
G01 X-1.5879 Y0.2516  
G01 X-1.5880 Y0.2493  
G01 X-1.5880 Y0.0671  
G01 X-1.5895 Y0.0615  
G01 X-1.5924 Y0.0565  
G01 X-1.5965 Y0.0524  
G01 X-1.6015 Y0.0495  
G01 X-1.6071 Y0.0480  
G01 X-2.1492 Y0.0480  
G01 X-2.1513 Y0.0478  
G01 X-2.1521 Y0.0480  
G01 X-2.1529 Y0.0480  
G01 X-2.1549 Y0.0485  
G01 X-2.1570 Y0.0489  
G01 X-2.1577 Y0.0493  
G01 X-2.1585 Y0.0495  
G01 X-2.1603 Y0.0506  
G01 X-2.1622 Y0.0515  
G01 X-2.1628 Y0.0520  
G01 X-2.1635 Y0.0524  
G01 X-2.1650 Y0.0539  
G01 X-2.3100 Y0.1796  
G01 X-2.7925 Y0.2781  
G01 X-2.7934 Y0.2781  
G01 X-2.7953 Y0.2786  
G01 X-2.7972 Y0.2790  
G01 X-2.7981 Y0.2794  
G01 X-2.7990 Y0.2797  
G01 X-2.8007 Y0.2807  
G01 X-2.8024 Y0.2816  
G01 X-2.8031 Y0.2822  
G01 X-2.8039 Y0.2827  
G01 X-2.8053 Y0.2842  
G01 X-2.8068 Y0.2855  
G01 X-2.8073 Y0.2862  
G01 X-2.8079 Y0.2869  
G01 X-2.8089 Y0.2887  
G01 X-2.8099 Y0.2903  
G01 X-2.8103 Y0.2912  
G01 X-2.8107 Y0.2920  
G01 X-2.8112 Y0.2939  
G01 X-2.8118 Y0.2958  
G01 X-2.8118 Y0.2967  
G01 X-2.9499 Y0.8688  
G01 X-3.0091 Y0.9280  
G01 X-3.2490 Y0.9280  
G01 X-3.2510 Y0.9278  
G01 X-3.2519 Y0.9280  
G01 X-3.2529 Y0.9280  
G01 X-3.2548 Y0.9285  
G01 X-3.2567 Y0.9288  
G01 X-3.2576 Y0.9292  
G01 X-3.2585 Y0.9295  
G01 X-3.2602 Y0.9305  
G01 X-3.2619 Y0.9313  
G01 X-3.2627 Y0.9319  
G01 X-3.2635 Y0.9324  
G01 X-3.2649 Y0.9338  
G01 X-3.2664 Y0.9350  
G01 X-3.2669 Y0.9358  
G01 X-3.2676 Y0.9365  
G01 X-3.2686 Y0.9382  
G01 X-3.3369 Y1.0358  
G01 X-3.3376 Y1.0365  
G01 X-3.3386 Y1.0382  
G01 X-3.3397 Y1.0398  
G01 X-3.3400 Y1.0407  
G01 X-3.3405 Y1.0415  
G01 X-3.3410 Y1.0434  
G01 X-3.3417 Y1.0452  
G01 X-3.3417 Y1.0462  
G01 X-3.3420 Y1.0471  
G01 X-3.3420 Y1.0490  
G01 X-3.3422 Y1.0510  
G01 X-3.3420 Y1.0519  
G01 X-3.3420 Y2.7000  
G01 X-3.3420 Y2.7029  
G01 X-3.3413 Y2.7057  
G01 X-3.3020 Y2.8529  
G01 X-3.3013 Y2.8556  
G01 X-3.3005 Y2.8585  
G01 X-3.2991 Y2.8610  
G01 X-3.2976 Y2.8635  
G01 X-3.2955 Y2.8656  
G01 X-3.2935 Y2.8676  
G01 X-3.2910 Y2.8691  
G01 X-3.2885 Y2.8705  
G01 X-3.2857 Y2.8712  
G01 X-3.2829 Y2.8720  
G01 X-3.2800 Y2.8720  
G01 X-3.2771 Y2.8720  
G01 X-3.0013 Y2.8720  
G01 X-2.9997 Y2.8722  
G01 X-2.9984 Y2.8720  
G01 X-2.9971 Y2.8720  
G01 X-2.9956 Y2.8716  
G01 X-2.9940 Y2.8714  
G01 X-2.9928 Y2.8708  
G01 X-2.9915 Y2.8705  
G01 X-2.9901 Y2.8697  
G01 X-2.6428 Y2.7208  
G01 X-2.6415 Y2.7205  
G01 X-2.6401 Y2.7197  
G01 X-2.6387 Y2.7191  
G01 X-2.6376 Y2.7183  
G01 X-2.6365 Y2.7176  
G01 X-2.6354 Y2.7165  
G01 X-2.6341 Y2.7155  
G01 X-2.6333 Y2.7144  
G01 X-2.6324 Y2.7135  
G01 X-2.6316 Y2.7121  
G01 X-2.6306 Y2.7109  
G01 X-2.6302 Y2.7096  
G01 X-2.6295 Y2.7085  
G01 X-2.6291 Y2.7070  
G01 X-2.6285 Y2.7055  
G01 X-2.6283 Y2.7042  
G01 X-2.6280 Y2.7029  
G01 X-2.6280 Y2.7013  
G01 X-2.6278 Y2.6997  
G01 X-2.6280 Y2.6984  
G01 X-2.6280 Y2.5993  
G01 X-2.6251 Y2.5964  
G00 Z0.0500  
G00 X-2.7251 Y2.5964  
G01 Z-0.0040 F10    
G01 X-2.7216 Y2.5912  F20    
G01 X-2.7192 Y2.5853  
G01 X-2.7180 Y2.5792  
G01 X-2.7180 Y2.5208  
G01 X-2.7192 Y2.5147  
G01 X-2.7216 Y2.5088  
G01 X-2.7251 Y2.5036  
G01 X-2.7296 Y2.4991  
G01 X-2.7348 Y2.4956  
G01 X-2.7407 Y2.4932  
G01 X-2.7468 Y2.4920  
G01 X-2.7532 Y2.4920  
G01 X-2.7593 Y2.4932  
G01 X-2.7652 Y2.4956  
G01 X-2.7704 Y2.4991  
G01 X-2.7749 Y2.5036  
G01 X-2.7784 Y2.5088  
G01 X-2.7808 Y2.5147  
G01 X-2.7820 Y2.5208  
G01 X-2.7820 Y2.5792  
G01 X-2.7808 Y2.5853  
G01 X-2.7784 Y2.5912  
G01 X-2.7749 Y2.5964  
G01 X-2.7704 Y2.6009  
G01 X-2.7652 Y2.6044  
G01 X-2.7593 Y2.6068  
G01 X-2.7532 Y2.6080  
G01 X-2.7468 Y2.6080  
G01 X-2.7407 Y2.6068  
G01 X-2.7348 Y2.6044  
G01 X-2.7296 Y2.6009  
G01 X-2.7251 Y2.5964  
G00 Z0.0500  
G00 X-2.8251 Y2.5964  
G01 Z-0.0040 F10    
G01 X-2.8216 Y2.5912  F20    
G01 X-2.8192 Y2.5853  
G01 X-2.8180 Y2.5792  
G01 X-2.8180 Y2.5208  
G01 X-2.8192 Y2.5147  
G01 X-2.8216 Y2.5088  
G01 X-2.8251 Y2.5036  
G01 X-2.8296 Y2.4991  
G01 X-2.8348 Y2.4956  
G01 X-2.8407 Y2.4932  
G01 X-2.8468 Y2.4920  
G01 X-2.8532 Y2.4920  
G01 X-2.8593 Y2.4932  
G01 X-2.8652 Y2.4956  
G01 X-2.8704 Y2.4991  
G01 X-2.8749 Y2.5036  
G01 X-2.8784 Y2.5088  
G01 X-2.8808 Y2.5147  
G01 X-2.8820 Y2.5208  
G01 X-2.8820 Y2.5792  
G01 X-2.8808 Y2.5853  
G01 X-2.8784 Y2.5912  
G01 X-2.8749 Y2.5964  
G01 X-2.8704 Y2.6009  
G01 X-2.8652 Y2.6044  
G01 X-2.8593 Y2.6068  
G01 X-2.8532 Y2.6080  
G01 X-2.8468 Y2.6080  
G01 X-2.8407 Y2.6068  
G01 X-2.8348 Y2.6044  
G01 X-2.8296 Y2.6009  
G01 X-2.8251 Y2.5964  
G00 Z0.0500  
G00 X-2.8251 Y2.6503  
G01 Z-0.0040 F10    
G01 X-2.8749 Y2.6503  F20    
G01 X-2.8771 Y2.6512  
G01 X-2.8788 Y2.6529  
G01 X-2.8797 Y2.6551  
G01 X-2.8797 Y2.6580  
G01 X-3.0640 Y2.6580  
G01 X-3.0640 Y2.6518  
G01 X-3.0784 Y2.6374  
G01 X-3.0707 Y2.6208  
G01 X-3.0610 Y2.6061  
G01 X-3.0593 Y2.6068  
G01 X-3.0532 Y2.6080  
G01 X-3.0468 Y2.6080  
G01 X-3.0407 Y2.6068  
G01 X-3.0348 Y2.6044  
G01 X-3.0296 Y2.6009  
G01 X-3.0251 Y2.5964  
G01 X-3.0216 Y2.5912  
G01 X-3.0192 Y2.5853  
G01 X-3.0180 Y2.5792  
G01 X-3.0180 Y2.5208  
G01 X-3.0192 Y2.5147  
G01 X-3.0216 Y2.5088  
G01 X-3.0251 Y2.5036  
G01 X-3.0296 Y2.4991  
G01 X-3.0348 Y2.4956  
G01 X-3.0407 Y2.4932  
G01 X-3.0468 Y2.4920  
G01 X-3.0532 Y2.4920  
G01 X-3.0593 Y2.4932  
G01 X-3.0652 Y2.4956  
G01 X-3.0704 Y2.4991  
G01 X-3.0749 Y2.5036  
G01 X-3.0784 Y2.5088  
G01 X-3.0808 Y2.5147  
G01 X-3.0820 Y2.5208  
G01 X-3.0820 Y2.5583  
G01 X-3.1077 Y2.5968  
G01 X-3.1088 Y2.5982  
G01 X-3.1093 Y2.5992  
G01 X-3.1099 Y2.6002  
G01 X-3.1105 Y2.6018  
G01 X-3.1184 Y2.6190  
G01 X-3.1432 Y2.6190  
G01 X-3.1760 Y2.6518  
G01 X-3.1760 Y2.6982  
G01 X-3.1432 Y2.7310  
G01 X-3.0968 Y2.7310  
G01 X-3.0678 Y2.7020  
G01 X-2.8797 Y2.7020  
G01 X-2.8797 Y2.7049  
G01 X-2.8788 Y2.7071  
G01 X-2.8771 Y2.7088  
G01 X-2.8749 Y2.7097  
G01 X-2.8251 Y2.7097  
G01 X-2.8229 Y2.7088  
G01 X-2.8212 Y2.7071  
G01 X-2.8203 Y2.7049  
G01 X-2.8203 Y2.6551  
G01 X-2.8212 Y2.6529  
G01 X-2.8229 Y2.6512  
G01 X-2.8251 Y2.6503  
G00 Z0.0500  
G00 X-2.9296 Y2.6009  
G01 Z-0.0040 F10    
G01 X-2.9251 Y2.5964  F20    
G01 X-2.9216 Y2.5912  
G01 X-2.9192 Y2.5853  
G01 X-2.9180 Y2.5792  
G01 X-2.9180 Y2.5208  
G01 X-2.9192 Y2.5147  
G01 X-2.9216 Y2.5088  
G01 X-2.9251 Y2.5036  
G01 X-2.9296 Y2.4991  
G01 X-2.9348 Y2.4956  
G01 X-2.9407 Y2.4932  
G01 X-2.9435 Y2.4927  
G01 X-2.9585 Y2.4400  
G01 X-2.9589 Y2.4382  
G01 X-2.9593 Y2.4372  
G01 X-2.9596 Y2.4362  
G01 X-2.9606 Y2.4346  
G01 X-2.9613 Y2.4330  
G01 X-2.9621 Y2.4322  
G01 X-2.9626 Y2.4312  
G01 X-2.9639 Y2.4300  
G01 X-2.9651 Y2.4286  
G01 X-2.9660 Y2.4279  
G01 X-2.9668 Y2.4272  
G01 X-2.9684 Y2.4263  
G01 X-2.9698 Y2.4253  
G01 X-2.9709 Y2.4249  
G01 X-2.9718 Y2.4244  
G01 X-2.9736 Y2.4239  
G01 X-2.9753 Y2.4233  
G01 X-2.9764 Y2.4232  
G01 X-2.9775 Y2.4230  
G01 X-2.9793 Y2.4230  
G01 X-3.0973 Y2.4132  
G01 X-3.1680 Y2.4014  
G01 X-3.1680 Y2.0029  
G01 X-3.1354 Y1.8807  
G01 X-3.1180 Y1.8633  
G01 X-3.1180 Y1.8491  
G01 X-3.0824 Y1.8135  
G01 X-3.0795 Y1.8085  
G01 X-3.0780 Y1.8029  
G01 X-3.0780 Y1.6103  
G01 X-3.0320 Y1.5720  
G01 X-2.9591 Y1.5720  
G01 X-2.9220 Y1.6091  
G01 X-2.9220 Y1.6267  
G01 X-2.9249 Y1.6296  
G01 X-2.9284 Y1.6348  
G01 X-2.9308 Y1.6407  
G01 X-2.9320 Y1.6468  
G01 X-2.9320 Y1.7052  
G01 X-2.9308 Y1.7113  
G01 X-2.9284 Y1.7172  
G01 X-2.9249 Y1.7224  
G01 X-2.9204 Y1.7269  
G01 X-2.9152 Y1.7304  
G01 X-2.9093 Y1.7328  
G01 X-2.9032 Y1.7340  
G01 X-2.8968 Y1.7340  
G01 X-2.8907 Y1.7328  
G01 X-2.8848 Y1.7304  
G01 X-2.8796 Y1.7269  
G01 X-2.8751 Y1.7224  
G01 X-2.8716 Y1.7172  
G01 X-2.8692 Y1.7113  
G01 X-2.8680 Y1.7052  
G01 X-2.8680 Y1.6468  
G01 X-2.8692 Y1.6407  
G01 X-2.8716 Y1.6348  
G01 X-2.8751 Y1.6296  
G01 X-2.8780 Y1.6267  
G01 X-2.8780 Y1.5971  
G01 X-2.8795 Y1.5915  
G01 X-2.8824 Y1.5865  
G01 X-2.9324 Y1.5365  
G01 X-2.9365 Y1.5324  
G01 X-2.9415 Y1.5295  
G01 X-2.9471 Y1.5280  
G01 X-3.0390 Y1.5280  
G01 X-3.0409 Y1.5278  
G01 X-3.0419 Y1.5280  
G01 X-3.0429 Y1.5280  
G01 X-3.0447 Y1.5285  
G01 X-3.0466 Y1.5288  
G01 X-3.0475 Y1.5292  
G01 X-3.0485 Y1.5295  
G01 X-3.0501 Y1.5304  
G01 X-3.0519 Y1.5312  
G01 X-3.0526 Y1.5319  
G01 X-3.0535 Y1.5324  
G01 X-3.0549 Y1.5337  
G01 X-3.1126 Y1.5819  
G01 X-3.1135 Y1.5824  
G01 X-3.1149 Y1.5837  
G01 X-3.1163 Y1.5850  
G01 X-3.1169 Y1.5858  
G01 X-3.1176 Y1.5865  
G01 X-3.1186 Y1.5881  
G01 X-3.1196 Y1.5897  
G01 X-3.1200 Y1.5906  
G01 X-3.1205 Y1.5915  
G01 X-3.1210 Y1.5933  
G01 X-3.1216 Y1.5951  
G01 X-3.1217 Y1.5961  
G01 X-3.1220 Y1.5971  
G01 X-3.1220 Y1.5990  
G01 X-3.1222 Y1.6009  
G01 X-3.1220 Y1.6019  
G01 X-3.1220 Y1.7909  
G01 X-3.1491 Y1.8180  
G01 X-3.1633 Y1.8180  
G01 X-3.1820 Y1.8367  
G01 X-3.1820 Y1.8633  
G01 X-3.1775 Y1.8678  
G01 X-3.2113 Y1.9943  
G01 X-3.2120 Y1.9971  
G01 X-3.2120 Y2.0000  
G01 X-3.2120 Y2.4182  
G01 X-3.2122 Y2.4192  
G01 X-3.2120 Y2.4211  
G01 X-3.2120 Y2.4229  
G01 X-3.2117 Y2.4239  
G01 X-3.2116 Y2.4250  
G01 X-3.2110 Y2.4267  
G01 X-3.2105 Y2.4285  
G01 X-3.2100 Y2.4294  
G01 X-3.2096 Y2.4304  
G01 X-3.2085 Y2.4319  
G01 X-3.2076 Y2.4335  
G01 X-3.2068 Y2.4343  
G01 X-3.2062 Y2.4351  
G01 X-3.2048 Y2.4363  
G01 X-3.2035 Y2.4376  
G01 X-3.2026 Y2.4381  
G01 X-3.2017 Y2.4388  
G01 X-3.2001 Y2.4396  
G01 X-3.1985 Y2.4405  
G01 X-3.1975 Y2.4408  
G01 X-3.1965 Y2.4412  
G01 X-3.1947 Y2.4415  
G01 X-3.1929 Y2.4420  
G01 X-3.1918 Y2.4420  
G01 X-3.1056 Y2.4564  
G01 X-3.1047 Y2.4567  
G01 X-3.1027 Y2.4568  
G01 X-3.1008 Y2.4572  
G01 X-3.0999 Y2.4571  
G01 X-2.9970 Y2.4657  
G01 X-2.9817 Y2.5192  
G01 X-2.9820 Y2.5208  
G01 X-2.9820 Y2.5792  
G01 X-2.9808 Y2.5853  
G01 X-2.9784 Y2.5912  
G01 X-2.9749 Y2.5964  
G01 X-2.9704 Y2.6009  
G01 X-2.9652 Y2.6044  
G01 X-2.9593 Y2.6068  
G01 X-2.9532 Y2.6080  
G01 X-2.9468 Y2.6080  
G01 X-2.9407 Y2.6068  
G01 X-2.9348 Y2.6044  
G01 X-2.9296 Y2.6009  
G00 Z0.0500  
G00 X-3.0212 Y2.7529  
G01 Z-0.0040 F10    
G01 X-3.0229 Y2.7512  F20    
G01 X-3.0251 Y2.7503  
G01 X-3.0749 Y2.7503  
G01 X-3.0771 Y2.7512  
G01 X-3.0788 Y2.7529  
G01 X-3.0797 Y2.7551  
G01 X-3.0797 Y2.7580  
G01 X-3.2128 Y2.7580  
G01 X-3.2380 Y2.6573  
G01 X-3.2380 Y1.5656  
G01 X-3.1869 Y1.4720  
G01 X-2.8591 Y1.4720  
G01 X-2.7220 Y1.6091  
G01 X-2.7220 Y1.6267  
G01 X-2.7249 Y1.6296  
G01 X-2.7284 Y1.6348  
G01 X-2.7308 Y1.6407  
G01 X-2.7320 Y1.6468  
G01 X-2.7320 Y1.7052  
G01 X-2.7308 Y1.7113  
G01 X-2.7284 Y1.7172  
G01 X-2.7249 Y1.7224  
G01 X-2.7220 Y1.7253  
G01 X-2.7220 Y1.7448  
G01 X-2.7586 Y1.8180  
G01 X-2.7633 Y1.8180  
G01 X-2.7820 Y1.8367  
G01 X-2.7820 Y1.8633  
G01 X-2.7633 Y1.8820  
G01 X-2.7394 Y1.8820  
G01 X-2.5569 Y1.9915  
G01 X-2.5580 Y1.9968  
G01 X-2.5580 Y2.0032  
G01 X-2.5568 Y2.0093  
G01 X-2.5544 Y2.0152  
G01 X-2.5509 Y2.0204  
G01 X-2.5464 Y2.0249  
G01 X-2.5412 Y2.0284  
G01 X-2.5353 Y2.0308  
G01 X-2.5292 Y2.0320  
G01 X-2.4708 Y2.0320  
G01 X-2.4647 Y2.0308  
G01 X-2.4588 Y2.0284  
G01 X-2.4536 Y2.0249  
G01 X-2.4491 Y2.0204  
G01 X-2.4456 Y2.0152  
G01 X-2.4432 Y2.0093  
G01 X-2.4420 Y2.0032  
G01 X-2.4420 Y1.9968  
G01 X-2.4432 Y1.9907  
G01 X-2.4456 Y1.9848  
G01 X-2.4491 Y1.9796  
G01 X-2.4536 Y1.9751  
G01 X-2.4588 Y1.9716  
G01 X-2.4647 Y1.9692  
G01 X-2.4708 Y1.9680  
G01 X-2.4780 Y1.9680  
G01 X-2.4780 Y1.9233  
G01 X-2.4680 Y1.9133  
G01 X-2.4680 Y1.8867  
G01 X-2.4867 Y1.8680  
G01 X-2.5133 Y1.8680  
G01 X-2.5320 Y1.8867  
G01 X-2.5320 Y1.9133  
G01 X-2.5220 Y1.9233  
G01 X-2.5220 Y1.9611  
G01 X-2.7180 Y1.8435  
G01 X-2.7180 Y1.8367  
G01 X-2.7185 Y1.8362  
G01 X-2.6806 Y1.7604  
G01 X-2.6795 Y1.7585  
G01 X-2.6793 Y1.7578  
G01 X-2.6790 Y1.7572  
G01 X-2.6786 Y1.7551  
G01 X-2.6780 Y1.7529  
G01 X-2.6780 Y1.7522  
G01 X-2.6779 Y1.7516  
G01 X-2.6780 Y1.7493  
G01 X-2.6780 Y1.7253  
G01 X-2.6751 Y1.7224  
G01 X-2.6716 Y1.7172  
G01 X-2.6692 Y1.7113  
G01 X-2.6680 Y1.7052  
G01 X-2.6680 Y1.6468  
G01 X-2.6692 Y1.6407  
G01 X-2.6716 Y1.6348  
G01 X-2.6751 Y1.6296  
G01 X-2.6780 Y1.6267  
G01 X-2.6780 Y1.5971  
G01 X-2.6795 Y1.5915  
G01 X-2.6824 Y1.5865  
G01 X-2.8324 Y1.4365  
G01 X-2.8365 Y1.4324  
G01 X-2.8415 Y1.4295  
G01 X-2.8471 Y1.4280  
G01 X-3.1974 Y1.4280  
G01 X-3.1976 Y1.4279  
G01 X-3.2003 Y1.4280  
G01 X-3.2029 Y1.4280  
G01 X-3.2032 Y1.4281  
G01 X-3.2034 Y1.4281  
G01 X-3.2060 Y1.4288  
G01 X-3.2085 Y1.4295  
G01 X-3.2087 Y1.4296  
G01 X-3.2090 Y1.4297  
G01 X-3.2112 Y1.4311  
G01 X-3.2135 Y1.4324  
G01 X-3.2137 Y1.4326  
G01 X-3.2139 Y1.4327  
G01 X-3.2157 Y1.4346  
G01 X-3.2176 Y1.4365  
G01 X-3.2177 Y1.4367  
G01 X-3.2179 Y1.4369  
G01 X-3.2192 Y1.4392  
G01 X-3.2205 Y1.4415  
G01 X-3.2206 Y1.4418  
G01 X-3.2792 Y1.5492  
G01 X-3.2805 Y1.5515  
G01 X-3.2806 Y1.5518  
G01 X-3.2807 Y1.5520  
G01 X-3.2813 Y1.5546  
G01 X-3.2820 Y1.5571  
G01 X-3.2820 Y1.5574  
G01 X-3.2821 Y1.5576  
G01 X-3.2820 Y1.5603  
G01 X-3.2820 Y2.6598  
G01 X-3.2820 Y2.6625  
G01 X-3.2820 Y2.6627  
G01 X-3.2820 Y2.6629  
G01 X-3.2813 Y2.6655  
G01 X-3.2520 Y2.7827  
G01 X-3.2520 Y2.7829  
G01 X-3.2513 Y2.7855  
G01 X-3.2506 Y2.7881  
G01 X-3.2505 Y2.7883  
G01 X-3.2505 Y2.7885  
G01 X-3.2491 Y2.7908  
G01 X-3.2478 Y2.7932  
G01 X-3.2477 Y2.7933  
G01 X-3.2476 Y2.7935  
G01 X-3.2457 Y2.7954  
G01 X-3.2438 Y2.7974  
G01 X-3.2436 Y2.7975  
G01 X-3.2435 Y2.7976  
G01 X-3.2412 Y2.7990  
G01 X-3.2388 Y2.8004  
G01 X-3.2387 Y2.8004  
G01 X-3.2385 Y2.8005  
G01 X-3.2359 Y2.8012  
G01 X-3.2333 Y2.8019  
G01 X-3.2331 Y2.8020  
G01 X-3.2329 Y2.8020  
G01 X-3.2302 Y2.8020  
G01 X-3.2275 Y2.8020  
G01 X-3.2273 Y2.8020  
