(/Applications/pcbgcode.repo/pcb-gcode.ulp)
(Copyright 2005 - 2012 by John Johnson)
(See readme.txt for licensing terms.)
(This file generated from the board:)
(.../atmega_midi_cv_basic/eagle/atmel_midi_cv_basic.brd)
(Current profile is .../pcbgcode.repo/profiles/mach.pp  )
(This file generated 8/19/16 9:51 PM)
(Settings from pcb-machine.h)
(spindle on time = 0.0000)
(spindle speed = 20000.0000)
(tool change at 0.0000  0.0000  1.5000  )
(feed rate xy = F0     )
(feed rate z  = F20    )
(Z Axis Settings)
(  High     Up        Down     Drill)
(0.2500  	0.0500  	-0.0035 	-0.0750 )
(Settings from pcb-defaults.h)
(isolate min = 0.0050)
(isolate max = 0.0200)
(isolate step = 0.0010)
(Generated bottom outlines, bottom drill, )
(Unit of measure: inch)
( Tool|       Size       |  Min Sub |  Max Sub |   Count )
( T01 | 0.800mm 0.0315in | 0.0000in | 0.0000in |       0 )
( T02 | 0.813mm 0.0320in | 0.0000in | 0.0000in |       0 )
( T03 | 0.900mm 0.0354in | 0.0000in | 0.0000in |       0 )
( T04 | 0.914mm 0.0360in | 0.0000in | 0.0000in |       0 )
( T05 | 0.991mm 0.0390in | 0.0000in | 0.0000in |       0 )
( T06 | 1.016mm 0.0400in | 0.0000in | 0.0000in |       0 )
( T07 | 1.200mm 0.0472in | 0.0000in | 0.0000in |       0 )
( T08 | 1.300mm 0.0512in | 0.0000in | 0.0000in |       0 )
(Inch Mode)
G20
(Absolute Coordinates)
G90
S20000
G00 Z0.2500  
G00 X0.0000  Y0.0000  
M03
G04 P0.000000
M05
G00 Z1.5000  
M06 T01  ; 0.0315  
G01 Z0.0000  F20    
M06 
G00 Z0.0500  
M03
G04 P0.000000
G82 X-0.3600 Y1.6000  Z-0.0750 F20    R0.0500  P0.020000
G82 X-0.3600 Y1.8400  
G82 X-1.3900 Y0.5000  
G82 X-1.7200 Y0.5000  
G82 X-2.4200 Y1.9516  
G82 X-2.4200 Y2.1484  
M05
G00 Z1.5000  
G00 X0.0000  Y0.0000  
M06 T02  ; 0.0320  
G01 Z0.0000  F20    
M06 
G00 Z0.0500  
M03
G04 P0.000000
G82 X-0.0900 Y0.8900  Z-0.0750 F20    R0.0500  P0.020000
G82 X-0.1700 Y1.0250  
G82 X-0.1700 Y1.1250  
G82 X-0.1700 Y1.2250  
G82 X-0.1700 Y1.3250  
G82 X-0.2200 Y1.4800  
G82 X-0.4200 Y1.4800  
G82 X-0.4700 Y1.3250  
G82 X-0.4700 Y1.2250  
G82 X-0.4700 Y1.1250  
G82 X-0.4700 Y1.0250  
G82 X-0.3900 Y0.8900  
G82 X-0.5850 Y0.8500  
G82 X-0.7000 Y1.0200  
G82 X-0.5850 Y1.1500  
G82 X-0.7000 Y1.3200  
G82 X-0.8500 Y1.1500  
G82 X-0.9600 Y1.0400  
G82 X-1.0600 Y1.0400  
G82 X-1.1450 Y0.9600  
G82 X-1.2400 Y0.9100  
G82 X-1.3700 Y0.9000  
G82 X-1.3700 Y1.0000  
G82 X-1.3700 Y1.1000  
G82 X-1.3700 Y1.2000  
G82 X-1.3700 Y1.3000  
G82 X-1.3700 Y1.4000  
G82 X-1.3700 Y1.5000  
G82 X-1.3700 Y1.6000  
G82 X-1.3700 Y1.7000  
G82 X-1.3700 Y1.8000  
G82 X-1.3700 Y1.9000  
G82 X-1.3700 Y2.0000  
G82 X-1.3700 Y2.1000  
G82 X-1.3700 Y2.2000  
G82 X-1.2800 Y2.4000  
G82 X-1.5800 Y2.4000  
G82 X-1.6700 Y2.2000  
G82 X-1.6700 Y2.1000  
G82 X-1.6700 Y2.0000  
G82 X-1.6700 Y1.9000  
G82 X-1.6700 Y1.8000  
G82 X-1.6700 Y1.7000  
G82 X-1.6700 Y1.6000  
G82 X-1.6700 Y1.5000  
G82 X-1.6700 Y1.4000  
G82 X-1.6700 Y1.3000  
G82 X-1.6700 Y1.2000  
G82 X-1.6700 Y1.1000  
G82 X-1.6700 Y1.0000  
G82 X-1.6700 Y0.9000  
G82 X-1.2400 Y0.6100  
G82 X-1.1450 Y0.6600  
G82 X-1.1700 Y0.5100  
G82 X-1.1700 Y0.4100  
G82 X-0.9900 Y0.3400  
G82 X-0.9900 Y0.1400  
G82 X-0.8500 Y0.8500  
G82 X-1.0200 Y1.2000  
G82 X-1.1700 Y1.2550  
G82 X-1.1700 Y1.4450  
G82 X-1.0200 Y1.5000  
G82 X-1.0400 Y1.6500  
G82 X-1.1400 Y1.6500  
G82 X-0.6700 Y1.9500  
G82 X-0.6700 Y2.2000  
G82 X-0.7700 Y2.2000  
G82 X-0.5700 Y2.2000  
G82 X-0.4700 Y2.2000  
G82 X-0.3200 Y2.2000  
G82 X-0.3700 Y1.9500  
G82 X-0.3200 Y2.5000  
G82 X-0.4700 Y2.5000  
G82 X-0.5700 Y2.5000  
G82 X-0.6700 Y2.5000  
G82 X-0.7700 Y2.5000  
G82 X-1.7900 Y1.9500  
G82 X-1.8200 Y1.8050  
G82 X-1.9200 Y1.7050  
G82 X-2.0200 Y1.8050  
G82 X-1.9900 Y1.9500  
G82 X-2.1200 Y1.9700  
G82 X-2.2700 Y2.0300  
G82 X-2.2700 Y2.1300  
G82 X-2.1200 Y2.1700  
G82 X-2.3700 Y1.8000  
G82 X-2.4700 Y1.7000  
G82 X-2.5700 Y1.8000  
G82 X-2.6900 Y1.8700  
G82 X-2.8000 Y1.8700  
G82 X-2.8000 Y1.5700  
G82 X-2.6900 Y1.5700  
G82 X-2.7300 Y1.4000  
G82 X-2.6300 Y1.4000  
G82 X-2.5300 Y1.4000  
G82 X-2.4300 Y1.4000  
G82 X-2.4700 Y1.5200  
G82 X-2.1700 Y1.5200  
G82 X-2.2700 Y1.2900  
G82 X-2.2700 Y1.0900  
G82 X-2.3150 Y1.0050  
G82 X-2.4300 Y1.0000  
G82 X-2.4300 Y1.1000  
G82 X-2.5300 Y1.1000  
G82 X-2.6300 Y1.1000  
G82 X-2.7300 Y1.1000  
G82 X-2.4300 Y0.7000  
G82 X-2.3150 Y0.7050  
M05
G00 Z1.5000  
G00 X0.0000  Y0.0000  
M06 T03  ; 0.0354  
G01 Z0.0000  F20    
M06 
G00 Z0.0500  
M03
G04 P0.000000
G82 X-0.3700 Y2.0500  Z-0.0750 F20    R0.0500  P0.020000
G82 X-0.6700 Y2.0500  
M05
G00 Z1.5000  
G00 X0.0000  Y0.0000  
M06 T04  ; 0.0360  
G01 Z0.0000  F20    
M06 
G00 Z0.0500  
M03
G04 P0.000000
G82 X-0.9200 Y2.0000  Z-0.0750 F20    R0.0500  P0.020000
G82 X-0.9200 Y2.2000  
G82 X-1.1500 Y2.3900  
G82 X-1.1500 Y2.5300  
M05
G00 Z1.5000  
G00 X0.0000  Y0.0000  
M06 T05  ; 0.0390  
G01 Z0.0000  F20    
M06 
G00 Z0.0500  
M03
G04 P0.000000
G82 X-1.8200 Y1.0000  Z-0.0750 F20    R0.0500  P0.020000
G82 X-1.8200 Y1.1000  
G82 X-1.8200 Y1.2000  
G82 X-1.8200 Y1.3000  
G82 X-2.1200 Y1.3000  
G82 X-2.1200 Y1.2000  
G82 X-2.1200 Y1.1000  
G82 X-2.1200 Y1.0000  
M05
G00 Z1.5000  
G00 X0.0000  Y0.0000  
M06 T06  ; 0.0400  
G01 Z0.0000  F20    
M06 
G00 Z0.0500  
M03
G04 P0.000000
G82 X-1.9300 Y2.4500  Z-0.0750 F20    R0.0500  P0.020000
G82 X-1.9300 Y2.5500  
G82 X-2.0300 Y2.5500  
G82 X-2.0300 Y2.4500  
G82 X-2.1300 Y2.4500  
G82 X-2.1300 Y2.5500  
G82 X-2.2300 Y2.5500  
G82 X-2.2300 Y2.4500  
G82 X-2.3300 Y2.4500  
G82 X-2.3300 Y2.5500  
G82 X-2.4300 Y2.5500  
G82 X-2.4300 Y2.4500  
G82 X-2.5300 Y2.4500  
G82 X-2.5300 Y2.5500  
G82 X-2.6300 Y2.5500  
G82 X-2.6300 Y2.4500  
G82 X-2.6700 Y2.2150  
G82 X-2.7800 Y2.2150  
G82 X-2.7800 Y2.0300  
G82 X-2.6700 Y2.0300  
M05
G00 Z1.5000  
G00 X0.0000  Y0.0000  
M06 T07  ; 0.0472  
G01 Z0.0000  F20    
M06 
G00 Z0.0500  
M03
G04 P0.000000
G82 X-1.3731 Y0.1500  Z-0.0750 F20    R0.0500  P0.020000
G82 X-1.5700 Y0.1500  
G82 X-1.7669 Y0.1500  
M05
G00 Z1.5000  
G00 X0.0000  Y0.0000  
M06 T08  ; 0.0512  
G01 Z0.0000  F20    
M06 
G00 Z0.0500  
M03
G04 P0.000000
G82 X-0.1900 Y0.0980  Z-0.0750 F20    R0.0500  P0.020000
G82 X-0.2231 Y0.0984  
G82 X-0.2570 Y0.0980  
G82 X-0.6900 Y0.0980  
G82 X-0.7231 Y0.0984  
G82 X-0.7570 Y0.0980  
G82 X-0.9280 Y0.4980  
G82 X-0.9279 Y0.5315  
G82 X-0.9280 Y0.5650  
G82 X-0.7560 Y0.6180  
G82 X-0.7231 Y0.6181  
G82 X-0.6900 Y0.6180  
G82 X-0.4280 Y0.5650  
G82 X-0.4279 Y0.5315  
G82 X-0.4280 Y0.4980  
G82 X-0.2560 Y0.6180  
G82 X-0.2231 Y0.6181  
G82 X-0.1900 Y0.6180  
G82 X-2.1400 Y0.6180  
G82 X-2.1731 Y0.6181  
G82 X-2.2060 Y0.6180  
G82 X-2.3780 Y0.5650  
G82 X-2.3779 Y0.5315  
G82 X-2.3780 Y0.4980  
G82 X-2.6400 Y0.6180  
G82 X-2.6731 Y0.6181  
G82 X-2.7060 Y0.6180  
G82 X-2.8780 Y0.5650  
G82 X-2.8779 Y0.5315  
G82 X-2.8780 Y0.4980  
G82 X-2.7070 Y0.0980  
G82 X-2.6731 Y0.0984  
G82 X-2.6400 Y0.0980  
G82 X-2.2070 Y0.0980  
G82 X-2.1731 Y0.0984  
G82 X-2.1400 Y0.0980  
T01 
G00 Z0.2500  
M05
M02
