(/Applications/pcbgcode.repo/pcb-gcode.ulp)
(Copyright 2005 - 2012 by John Johnson)
(See readme.txt for licensing terms.)
(This file generated from the board:)
(.../atmega_midi_cv_basic/eagle/atmel_midi_cv_basic.brd)
(Current profile is .../pcbgcode.repo/profiles/mach.pp  )
(This file generated 1/5/16 5:51 PM)
(Settings from pcb-machine.h)
(spindle on time = 0.0000)
(spindle speed = 20000.0000)
(tool change at 0.0000  0.0000  3.0000  )
(feed rate xy = F0     )
(feed rate z  = F20    )
(Z Axis Settings)
(  High     Up        Down     Drill)
(1.0000  	0.0500  	-0.0040 	-0.0730 )
(Settings from pcb-defaults.h)
(isolate min = 0.0010)
(isolate max = 0.0150)
(isolate step = 0.0015)
(Generated bottom outlines, bottom drill, )
(Unit of measure: inch)
( Tool|       Size       |  Min Sub |  Max Sub |   Count )
( T01 | 0.800mm 0.0315in | 0.0000in | 0.0000in |       0 )
( T02 | 0.813mm 0.0320in | 0.0000in | 0.0000in |       0 )
( T03 | 0.914mm 0.0360in | 0.0000in | 0.0000in |       0 )
( T04 | 0.991mm 0.0390in | 0.0000in | 0.0000in |       0 )
( T05 | 1.016mm 0.0400in | 0.0000in | 0.0000in |       0 )
( T06 | 1.200mm 0.0472in | 0.0000in | 0.0000in |       0 )
( T07 | 1.300mm 0.0512in | 0.0000in | 0.0000in |       0 )
(Inch Mode)
G20
(Absolute Coordinates)
G90
S20000
G00 Z1.0000  
G00 X0.0000  Y0.0000  
M03
G04 P0.000000
M05
G00 Z3.0000  
M06 T01  ; 0.0315  
G01 Z0.0000  F20    
M06 
G00 Z0.0500  
M03
G04 P0.000000
G82 X-0.6700 Y1.7816  Z-0.0730 F20    R0.0500  P0.010000
G82 X-0.6700 Y1.9784  
G82 X-0.7016 Y2.4000  
G82 X-0.8984 Y2.4000  
G82 X-1.1000 Y2.4000  
G82 X-1.7500 Y2.6000  
G82 X-1.7500 Y3.0000  
G82 X-1.9000 Y1.9000  
G82 X-3.2000 Y2.6800  
G82 X-3.3500 Y2.7800  
G82 X-3.3500 Y2.9500  
G82 X-3.1500 Y2.9700  
M05
G00 Z3.0000  
G00 X0.0000  Y0.0000  
M06 T02  ; 0.0320  
G01 Z0.0000  F20    
M06 
G00 Z0.0500  
M03
G04 P0.000000
G82 X-0.8000 Y1.1000  Z-0.0730 F20    R0.0500  P0.010000
G82 X-1.2000 Y1.1000  
G82 X-1.5200 Y1.0900  
G82 X-1.6500 Y0.8500  
G82 X-1.6500 Y0.7000  
G82 X-1.5000 Y0.7500  
G82 X-1.4000 Y0.7500  
G82 X-1.4000 Y0.5500  
G82 X-1.3500 Y0.4750  
G82 X-1.3000 Y0.5500  
G82 X-1.6600 Y0.4700  
G82 X-2.0600 Y0.4700  
G82 X-2.0500 Y0.7000  
G82 X-2.0500 Y0.8500  
G82 X-2.2100 Y0.9700  
G82 X-2.3500 Y0.9000  
G82 X-2.4500 Y1.0000  
G82 X-2.3500 Y1.1000  
G82 X-2.1500 Y1.1900  
G82 X-2.1500 Y1.3500  
G82 X-2.0500 Y1.3500  
G82 X-1.9500 Y1.3500  
G82 X-1.8500 Y1.3500  
G82 X-1.7500 Y1.3500  
G82 X-1.6500 Y1.3500  
G82 X-1.5000 Y1.4200  
G82 X-1.6500 Y1.6500  
G82 X-1.7500 Y1.6500  
G82 X-1.8500 Y1.6500  
G82 X-1.9500 Y1.6500  
G82 X-2.0500 Y1.6500  
G82 X-2.1500 Y1.6500  
G82 X-2.2500 Y1.6500  
G82 X-2.2250 Y1.8000  
G82 X-2.1850 Y1.9000  
G82 X-1.9850 Y1.9000  
G82 X-1.8250 Y1.8000  
G82 X-1.5000 Y1.8200  
G82 X-1.0000 Y1.8000  
G82 X-0.8500 Y1.8500  
G82 X-0.8500 Y1.9500  
G82 X-1.0000 Y2.0000  
G82 X-1.0000 Y2.1500  
G82 X-0.8500 Y2.2000  
G82 X-0.8500 Y2.3000  
G82 X-1.0000 Y2.3500  
G82 X-1.2000 Y2.6500  
G82 X-0.8000 Y2.6500  
G82 X-2.1000 Y2.5500  
G82 X-2.2000 Y2.5500  
G82 X-2.3000 Y2.5500  
G82 X-2.4000 Y2.5500  
G82 X-2.5000 Y2.5500  
G82 X-2.6000 Y2.5500  
G82 X-2.7000 Y2.5500  
G82 X-2.8000 Y2.5500  
G82 X-2.9000 Y2.5500  
G82 X-3.0000 Y2.5500  
G82 X-3.1000 Y2.5500  
G82 X-3.2000 Y2.5500  
G82 X-3.3000 Y2.5500  
G82 X-3.4000 Y2.5500  
G82 X-3.4000 Y2.2500  
G82 X-3.3000 Y2.2500  
G82 X-3.2000 Y2.2500  
G82 X-3.1000 Y2.2500  
G82 X-3.0000 Y2.2500  
G82 X-2.9000 Y2.2500  
G82 X-2.8000 Y2.2500  
G82 X-2.7000 Y2.2500  
G82 X-2.6000 Y2.2500  
G82 X-2.5000 Y2.2500  
G82 X-2.4000 Y2.2500  
G82 X-2.3000 Y2.2500  
G82 X-2.2000 Y2.2500  
G82 X-2.1000 Y2.2500  
G82 X-2.2000 Y2.7500  
G82 X-2.3000 Y2.7500  
G82 X-2.3000 Y2.9000  
G82 X-2.4550 Y2.7500  
G82 X-2.6450 Y2.7500  
G82 X-2.7000 Y2.9000  
G82 X-2.8500 Y2.9000  
G82 X-2.8500 Y2.8000  
G82 X-2.7500 Y2.0500  
G82 X-2.9000 Y1.9500  
G82 X-3.0000 Y2.0500  
G82 X-3.1000 Y1.9500  
G82 X-3.0500 Y1.8500  
G82 X-3.0000 Y1.6500  
G82 X-3.1000 Y1.6500  
G82 X-3.2000 Y1.6500  
G82 X-3.3000 Y1.6500  
G82 X-3.4500 Y1.8500  
G82 X-3.3000 Y1.3500  
G82 X-3.2000 Y1.3500  
G82 X-3.1000 Y1.3500  
G82 X-3.0000 Y1.3500  
G82 X-2.9500 Y1.1500  
G82 X-2.9500 Y1.0500  
G82 X-2.9500 Y0.8500  
G82 X-3.3500 Y0.8500  
G82 X-3.3500 Y1.0500  
G82 X-3.3500 Y1.1500  
G82 X-2.6000 Y1.1000  
G82 X-2.4500 Y1.4000  
G82 X-2.6000 Y1.5000  
G82 X-2.4500 Y1.8000  
G82 X-2.7500 Y1.8500  
G82 X-2.2500 Y1.3500  
G82 X-1.9500 Y1.1900  
G82 X-1.9200 Y1.0900  
G82 X-1.8100 Y0.9700  
M05
G00 Z3.0000  
G00 X0.0000  Y0.0000  
M06 T03  ; 0.0360  
G01 Z0.0000  F20    
M06 
G00 Z0.0500  
M03
G04 P0.000000
G82 X-3.5000 Y1.7000  Z-0.0730 F20    R0.0500  P0.010000
G82 X-3.5500 Y1.2800  
G82 X-3.5500 Y1.1000  
G82 X-3.5000 Y2.6750  
M05
G00 Z3.0000  
G00 X0.0000  Y0.0000  
M06 T04  ; 0.0390  
G01 Z0.0000  F20    
M06 
G00 Z0.0500  
M03
G04 P0.000000
G82 X-1.3000 Y1.9500  Z-0.0730 F20    R0.0500  P0.010000
G82 X-1.4000 Y1.9500  
G82 X-1.5000 Y1.9500  
G82 X-1.6000 Y1.9500  
G82 X-1.6000 Y2.2500  
G82 X-1.5000 Y2.2500  
G82 X-1.4000 Y2.2500  
G82 X-1.3000 Y2.2500  
M05
G00 Z3.0000  
G00 X0.0000  Y0.0000  
M06 T05  ; 0.0400  
G01 Z0.0000  F20    
M06 
G00 Z0.0500  
M03
G04 P0.000000
G82 X-0.2500 Y1.7000  Z-0.0730 F20    R0.0500  P0.010000
G82 X-0.3500 Y1.7000  
G82 X-0.3500 Y1.8000  
G82 X-0.3500 Y1.9000  
G82 X-0.2500 Y1.9000  
G82 X-0.2500 Y1.8000  
G82 X-0.2500 Y2.0000  
G82 X-0.3500 Y2.0000  
G82 X-0.3500 Y2.1000  
G82 X-0.2500 Y2.1000  
G82 X-0.2500 Y2.2000  
G82 X-0.2500 Y2.3000  
G82 X-0.3500 Y2.3000  
G82 X-0.3500 Y2.2000  
G82 X-0.3500 Y2.4000  
G82 X-0.2500 Y2.4000  
G82 X-1.4500 Y2.6000  
G82 X-1.4500 Y2.7000  
G82 X-1.5500 Y2.7000  
G82 X-1.6500 Y2.7000  
G82 X-1.6500 Y2.6000  
G82 X-1.5500 Y2.6000  
M05
G00 Z3.0000  
G00 X0.0000  Y0.0000  
M06 T06  ; 0.0472  
G01 Z0.0000  F20    
M06 
G00 Z0.0500  
M03
G04 P0.000000
G82 X-1.6531 Y0.1500  Z-0.0730 F20    R0.0500  P0.010000
G82 X-1.8500 Y0.1500  
G82 X-2.0469 Y0.1500  
M05
G00 Z3.0000  
G00 X0.0000  Y0.0000  
M06 T07  ; 0.0512  
G01 Z0.0000  F20    
M06 
G00 Z0.0500  
M03
G04 P0.000000
G82 X-0.7600 Y0.0980  Z-0.0730 F20    R0.0500  P0.010000
G82 X-0.7931 Y0.0984  
G82 X-0.8270 Y0.0980  
G82 X-0.9980 Y0.4980  
G82 X-0.9979 Y0.5315  
G82 X-0.9980 Y0.5650  
G82 X-0.8260 Y0.6180  
G82 X-0.7931 Y0.6181  
G82 X-0.7600 Y0.6180  
G82 X-2.6200 Y0.6180  
G82 X-2.6531 Y0.6181  
G82 X-2.6860 Y0.6180  
G82 X-2.8580 Y0.5650  
G82 X-2.8579 Y0.5315  
G82 X-2.8580 Y0.4980  
G82 X-3.2700 Y0.6180  
G82 X-3.3031 Y0.6181  
G82 X-3.3360 Y0.6180  
G82 X-3.5080 Y0.5650  
G82 X-3.5079 Y0.5315  
G82 X-3.5080 Y0.4980  
G82 X-3.3370 Y0.0980  
G82 X-3.3031 Y0.0984  
G82 X-3.2700 Y0.0980  
G82 X-2.6870 Y0.0980  
G82 X-2.6531 Y0.0984  
G82 X-2.6200 Y0.0980  
T01 
G00 Z1.0000  
M05
M02
